ncols        156
nrows        105
xllcorner    798778.801047321060
yllcorner    1484563.296254347777
cellsize     250.000000000000
NODATA_value -99999
840.0 840 840.1883544921875 840.4637451171875 840.73907470703125 841.0577392578125 842.15911865234375 843.26055908203125 844.3619384765625 843.60992431640625 840.3056640625 837.00146484375 833.697265625 830.8275146484375 828.07403564453125 825.32049560546875 822.523681640625 819.49481201171875 816.4659423828125 813.43707275390625 809.829345703125 805.6990966796875 801.56878662109375 797.43853759765625 794.78497314453125 792.3067626953125 789.82861328125 787.56695556640625 785.91485595703125 784.26275634765625 782.61065673828125 781.3056640625 780.20428466796875 779.1029052734375 778.00146484375 781.57476806640625 785.15435791015625 788.73394775390625 791.50518798828125 792.8819580078125 794.25872802734375 795.635498046875 796.4049072265625 796.95556640625 797.50628662109375 798.14251708984375 799.519287109375 800.89599609375 802.27276611328125 804.03924560546875 806.2420654296875 808.44488525390625 810.647705078125 812.15655517578125 813.5333251953125 814.91009521484375 816 816 816 816 813.9359130859375 810.3563232421875 806.77679443359375 803.19720458984375 801.6990966796875 800.32232666015625 798.945556640625 798.1724853515625 798.72320556640625 799.27386474609375 799.8245849609375 798.31121826171875 795.8330078125 793.3548583984375 790.9451904296875 789.84381103515625 788.74237060546875 787.6409912109375 786.6546630859375 785.82861328125 785.0025634765625 784.176513671875 781.40185546875 778.09759521484375 774.79339599609375 771.74456787109375 770.09246826171875 768.44036865234375 766.78826904296875 764.9921875 763.064697265625 761.13726806640625 759.20977783203125 757.03692626953125 754.8341064453125 752.63134765625 751 751 751 751 751.345703125 751.8963623046875 752.44708251953125 752.997802734375 750.8060302734375 748.60321044921875 746.400390625 744.49847412109375 743.1217041015625 741.74493408203125 740.36822509765625 739.79827880859375 739.52294921875 739.24755859375 739 739 739 739 738.870849609375 738.595458984375 738.32012939453125 738.0447998046875 736.84710693359375 735.4703369140625 734.09356689453125 732.716796875 731.340087890625 729.96331787109375 728.5865478515625 725.78741455078125 721.9324951171875 718.07757568359375 714.22265625 713.74053955078125 713.4652099609375 713.1898193359375 713.51300048828125 715.1651611328125 716.8172607421875 718.4693603515625 717.31781005859375 714.83966064453125 712.3614501953125 710.012939453125 710.288330078125 710.56365966796875 710.83905029296875 711.68621826171875 713.33831787109375 714.990478515625 716.642578125 717.6473388671875 718.473388671875 719.2994384765625 720 720 
840 840 840.1883544921875 840.4637451171875 840.73907470703125 841.0577392578125 842.15911865234375 843.26055908203125 844.3619384765625 843.60992431640625 840.3056640625 837.00146484375 833.697265625 830.8275146484375 828.07403564453125 825.32049560546875 822.523681640625 819.49481201171875 816.4659423828125 813.43707275390625 809.829345703125 805.6990966796875 801.56878662109375 797.43853759765625 794.78497314453125 792.3067626953125 789.82861328125 787.56695556640625 785.91485595703125 784.26275634765625 782.61065673828125 781.3056640625 780.20428466796875 779.1029052734375 778.00146484375 781.57476806640625 785.15435791015625 788.73394775390625 791.50518798828125 792.8819580078125 794.25872802734375 795.635498046875 796.4049072265625 796.95556640625 797.50628662109375 798.14251708984375 799.519287109375 800.89599609375 802.27276611328125 804.03924560546875 806.2420654296875 808.44488525390625 810.647705078125 812.15655517578125 813.5333251953125 814.91009521484375 816 816 816 816 813.9359130859375 810.3563232421875 806.77679443359375 803.19720458984375 801.6990966796875 800.32232666015625 798.945556640625 798.1724853515625 798.72320556640625 799.27386474609375 799.8245849609375 798.31121826171875 795.8330078125 793.3548583984375 790.9451904296875 789.84381103515625 788.74237060546875 787.6409912109375 786.6546630859375 785.82861328125 785.0025634765625 784.176513671875 781.40185546875 778.09759521484375 774.79339599609375 771.74456787109375 770.09246826171875 768.44036865234375 766.78826904296875 764.9921875 763.064697265625 761.13726806640625 759.20977783203125 757.03692626953125 754.8341064453125 752.63134765625 751 751 751 751 751.345703125 751.8963623046875 752.44708251953125 752.997802734375 750.8060302734375 748.60321044921875 746.400390625 744.49847412109375 743.1217041015625 741.74493408203125 740.36822509765625 739.79827880859375 739.52294921875 739.24755859375 739 739 739 739 738.870849609375 738.595458984375 738.32012939453125 738.0447998046875 736.84710693359375 735.4703369140625 734.09356689453125 732.716796875 731.340087890625 729.96331787109375 728.5865478515625 725.78741455078125 721.9324951171875 718.07757568359375 714.22265625 713.74053955078125 713.4652099609375 713.1898193359375 713.51300048828125 715.1651611328125 716.8172607421875 718.4693603515625 717.31781005859375 714.83966064453125 712.3614501953125 710.012939453125 710.288330078125 710.56365966796875 710.83905029296875 711.68621826171875 713.33831787109375 714.990478515625 716.642578125 717.6473388671875 718.473388671875 719.2994384765625 720 720 
842.0721435546875 842.0721435546875 842.43798828125 842.97271728515625 843.50738525390625 844.0989990234375 845.7191162109375 847.3392333984375 848.9593505859375 848.13677978515625 843.95074462890625 839.7647705078125 835.5787353515625 832.0318603515625 828.6558837890625 825.2799072265625 821.99114990234375 819.1697998046875 816.348388671875 813.5269775390625 810.29034423828125 806.67877197265625 803.06719970703125 799.45562744140625 797.0426025390625 794.77191162109375 792.501220703125 790.32470703125 788.4132080078125 786.50177001953125 784.59027099609375 782.9605712890625 781.49609375 780.0316162109375 778.56707763671875 781.9327392578125 785.3048095703125 788.6768798828125 791.33587646484375 792.76446533203125 794.193115234375 795.62176513671875 796.82440185546875 797.9456787109375 799.06695556640625 800.29522705078125 802.45001220703125 804.6048583984375 806.7596435546875 809.1573486328125 811.8270263671875 814.49664306640625 817.16632080078125 818.05267333984375 818.5994873046875 819.14630126953125 819.47113037109375 818.95245361328125 818.4337158203125 817.9150390625 815.7808837890625 812.46063232421875 809.14044189453125 805.8201904296875 803.895263671875 802.05169677734375 800.20806884765625 799.03314208984375 799.32452392578125 799.6158447265625 799.9072265625 797.88702392578125 794.786376953125 791.685791015625 788.67950439453125 787.474365234375 786.2691650390625 785.06402587890625 784.0823974609375 783.4119873046875 782.74151611328125 782.07110595703125 779.4927978515625 776.39605712890625 773.29931640625 770.45001220703125 768.9534912109375 767.45697021484375 765.96051025390625 764.2386474609375 762.31121826171875 760.38372802734375 758.456298828125 756.32965087890625 754.1787109375 752.02777099609375 750.3541259765625 750.04290771484375 749.731689453125 749.42047119140625 749.58514404296875 750.0321044921875 750.47906494140625 750.926025390625 748.78521728515625 746.634033203125 744.48284912109375 742.67828369140625 741.47869873046875 740.279052734375 739.0794677734375 738.53472900390625 738.22906494140625 737.92333984375 737.64019775390625 737.55804443359375 737.475830078125 737.39361572265625 737.19061279296875 736.85089111328125 736.51116943359375 736.17144775390625 735.13702392578125 733.9677734375 732.79852294921875 731.5865478515625 730.20977783203125 728.8330078125 727.456298828125 724.92510986328125 721.5369873046875 718.14892578125 714.76080322265625 714.59893798828125 714.63482666015625 714.670654296875 715.095703125 716.38470458984375 717.6737060546875 718.96270751953125 717.694580078125 715.2164306640625 712.73822021484375 710.39215087890625 710.7193603515625 711.046630859375 711.37384033203125 712.208251953125 713.75665283203125 715.30499267578125 716.8533935546875 717.8763427734375 718.7542724609375 719.6322021484375 720.37677001953125 720.37677001953125 
845.10101318359375 845.10101318359375 845.7261962890625 846.6400146484375 847.55377197265625 848.54437255859375 850.92266845703125 853.30096435546875 855.67926025390625 854.753662109375 849.27874755859375 843.8038330078125 838.328857421875 833.79217529296875 829.50640869140625 825.2205810546875 821.21282958984375 818.6947021484375 816.17657470703125 813.658447265625 810.96417236328125 808.11077880859375 805.25738525390625 802.40399169921875 800.342529296875 798.3751220703125 796.40771484375 794.3555908203125 792.0650634765625 789.77447509765625 787.48394775390625 785.3795166015625 783.38433837890625 781.38909912109375 779.39385986328125 782.4559326171875 785.52471923828125 788.59356689453125 791.08831787109375 792.5927734375 794.09722900390625 795.6016845703125 797.43756103515625 799.39288330078125 801.34814453125 803.4417724609375 806.73388671875 810.0260009765625 813.31805419921875 816.638427734375 819.990478515625 823.34246826171875 826.69451904296875 826.6708984375 826.00457763671875 825.33831787109375 824.54486083984375 823.2679443359375 821.9910888671875 820.71417236328125 818.4776611328125 815.5364990234375 812.59539794921875 809.65423583984375 807.10540771484375 804.5794677734375 802.05352783203125 800.29119873046875 800.20343017578125 800.11566162109375 800.0279541015625 797.2669677734375 793.256591796875 789.24615478515625 785.36773681640625 784.01092529296875 782.6541748046875 781.29736328125 780.32257080078125 779.87957763671875 779.43658447265625 778.99359130859375 776.702392578125 773.908935546875 771.115478515625 768.55767822265625 767.28863525390625 766.01959228515625 764.75054931640625 763.13726806640625 761.20977783203125 759.2823486328125 757.3548583984375 755.29583740234375 753.220703125 751.14556884765625 749.4100341796875 748.6439208984375 747.87774658203125 747.11163330078125 747.01177978515625 747.30712890625 747.60247802734375 747.89776611328125 745.83148193359375 743.7557373046875 741.67999267578125 740.0177001953125 739.0770263671875 738.13641357421875 737.19573974609375 736.687744140625 736.3377685546875 735.98773193359375 735.65264892578125 735.4503173828125 735.24798583984375 735.04559326171875 734.73468017578125 734.30084228515625 733.8670654296875 733.4332275390625 732.63751220703125 731.771484375 730.905517578125 729.9344482421875 728.55767822265625 727.180908203125 725.80413818359375 723.66461181640625 720.95892333984375 718.253173828125 715.5474853515625 715.8536376953125 716.34442138671875 716.835205078125 717.4090576171875 718.1673583984375 718.92559814453125 719.68389892578125 718.2452392578125 715.76708984375 713.2889404296875 710.9464111328125 711.3494873046875 711.75250244140625 712.15557861328125 712.97137451171875 714.36810302734375 715.76483154296875 717.16156005859375 718.21112060546875 719.16485595703125 720.11859130859375 720.927490234375 720.927490234375 
848.1298828125 848.1298828125 849.014404296875 850.30731201171875 851.6002197265625 852.98974609375 856.126220703125 859.2626953125 862.399169921875 861.37060546875 854.60675048828125 847.8428955078125 841.07904052734375 835.552490234375 830.35687255859375 825.1612548828125 820.4344482421875 818.2196044921875 816.0047607421875 813.7899169921875 811.637939453125 809.54278564453125 807.44757080078125 805.35235595703125 803.6424560546875 801.97833251953125 800.314208984375 798.38653564453125 795.71685791015625 793.0472412109375 790.3775634765625 787.79852294921875 785.27252197265625 782.74658203125 780.22064208984375 782.9791259765625 785.74462890625 788.51019287109375 790.8408203125 792.42108154296875 794.0013427734375 795.58160400390625 798.05078125 800.84002685546875 803.62933349609375 806.58837890625 811.01776123046875 815.4471435546875 819.87652587890625 824.1195068359375 828.1539306640625 832.18829345703125 836.22265625 835.2890625 833.40972900390625 831.5303955078125 829.6185302734375 827.58349609375 825.54840087890625 823.5133056640625 821.17437744140625 818.61236572265625 816.05035400390625 813.48828125 810.3155517578125 807.10723876953125 803.89892578125 801.5491943359375 801.0823974609375 800.61553955078125 800.148681640625 796.64697265625 791.72674560546875 786.80645751953125 782.05596923828125 780.54754638671875 779.03912353515625 777.53070068359375 776.562744140625 776.34722900390625 776.13165283203125 775.9161376953125 773.91204833984375 771.42181396484375 768.931640625 766.6654052734375 765.62384033203125 764.58221435546875 763.5406494140625 762.03582763671875 760.1083984375 758.180908203125 756.25347900390625 754.261962890625 752.2626953125 750.26336669921875 748.4659423828125 747.24493408203125 746.02386474609375 744.8028564453125 744.4384765625 744.5821533203125 744.725830078125 744.8695068359375 742.87774658203125 740.87744140625 738.87713623046875 737.35711669921875 736.6754150390625 735.99371337890625 735.31201171875 734.8408203125 734.44647216796875 734.05218505859375 733.6650390625 733.34259033203125 733.02008056640625 732.69757080078125 732.27874755859375 731.7508544921875 731.222900390625 730.69500732421875 730.137939453125 729.5751953125 729.01251220703125 728.2823486328125 726.90557861328125 725.52880859375 724.15203857421875 722.4041748046875 720.38079833984375 718.35748291015625 716.3341064453125 717.10833740234375 718.05401611328125 718.99969482421875 719.722412109375 719.949951171875 720.177490234375 720.40509033203125 718.79595947265625 716.31781005859375 713.83966064453125 711.500732421875 711.97955322265625 712.45843505859375 712.93731689453125 713.73443603515625 714.9794921875 716.224609375 717.4697265625 718.5458984375 719.575439453125 720.60504150390625 721.4781494140625 721.4781494140625 
851 851 852.11395263671875 853.74224853515625 855.3704833984375 857.1119384765625 860.8992919921875 864.6866455078125 868.4739990234375 867.3387451171875 859.425048828125 851.51141357421875 843.5977783203125 837.17034912109375 831.14044189453125 825.1104736328125 819.7294921875 817.82586669921875 815.9222412109375 814.0186767578125 812.4002685546875 811.0394287109375 809.6785888671875 808.31768798828125 806.942626953125 805.56585693359375 804.1890869140625 802.37518310546875 799.33038330078125 796.28564453125 793.2408447265625 790.19610595703125 787.15130615234375 784.1065673828125 781.061767578125 783.51275634765625 785.9710693359375 788.4293212890625 790.59619140625 792.26019287109375 793.92425537109375 795.5882568359375 798.65191650390625 802.21954345703125 805.78717041015625 809.552734375 815.03192138671875 820.5111083984375 825.9903564453125 831.079833984375 835.73297119140625 840.38616943359375 845.039306640625 843.2657470703125 840.2686767578125 837.2716064453125 834.32855224609375 831.5909423828125 828.85333251953125 826.11572265625 823.6842041015625 821.4774169921875 819.2706298828125 817.0638427734375 813.3118896484375 809.4698486328125 805.6278076171875 802.7349853515625 801.92388916015625 801.11279296875 800.3016357421875 796.09735107421875 790.3070068359375 784.51666259765625 778.93182373046875 777.27178955078125 775.6116943359375 773.95166015625 772.9755859375 772.95172119140625 772.92791748046875 772.904052734375 771.16998291015625 768.97113037109375 766.77227783203125 764.78509521484375 763.95501708984375 763.125 762.29498291015625 760.8931884765625 758.9697265625 757.0462646484375 755.12274169921875 753.19573974609375 751.26824951171875 749.3408203125 747.4876708984375 745.8468017578125 744.20587158203125 742.56500244140625 741.95013427734375 741.94384765625 741.93756103515625 741.9312744140625 740.03155517578125 738.124267578125 736.21697998046875 734.84552001953125 734.4091796875 733.97283935546875 733.5364990234375 733.10015869140625 732.663818359375 732.22747802734375 731.79119873046875 731.35528564453125 730.9193115234375 730.4833984375 729.9610595703125 729.34100341796875 728.72088623046875 728.100830078125 727.76275634765625 727.4794921875 727.1961669921875 726.6895751953125 725.32080078125 723.95196533203125 722.58319091796875 721.21661376953125 719.851806640625 718.4869384765625 717.12213134765625 718.3367919921875 719.7095947265625 721.0823974609375 721.93963623046875 721.65240478515625 721.3651123046875 721.07781982421875 719.31146240234375 716.84521484375 714.37896728515625 712.0548095703125 712.60552978515625 713.15618896484375 713.7069091796875 714.488037109375 715.5933837890625 716.69879150390625 717.80413818359375 718.9033203125 720.000732421875 721.09814453125 722.02886962890625 722.02886962890625 
851 851 851.802734375 852.97607421875 854.1494140625 855.39227294921875 857.89068603515625 860.38916015625 862.8875732421875 861.57977294921875 855.0308837890625 848.48193359375 841.9329833984375 836.2122802734375 830.713134765625 825.21392822265625 820.35174560546875 818.90301513671875 817.454345703125 816.005615234375 814.762451171875 813.70489501953125 812.64727783203125 811.5897216796875 810.246826171875 808.8701171875 807.49334716796875 805.59991455078125 802.2518310546875 798.90380859375 795.5557861328125 792.20770263671875 788.85968017578125 785.51165771484375 782.16363525390625 784.235595703125 786.31475830078125 788.39398193359375 790.404296875 792.2957763671875 794.187255859375 796.0787353515625 799.035400390625 802.37554931640625 805.71575927734375 809.222412109375 814.1708984375 819.119384765625 824.06787109375 828.62664794921875 832.74908447265625 836.8714599609375 840.993896484375 839.64501953125 837.25445556640625 834.86395263671875 832.46429443359375 830.02996826171875 827.59564208984375 825.1612548828125 822.81439208984375 820.53179931640625 818.24920654296875 815.96661376953125 812.44268798828125 808.84637451171875 805.25006103515625 802.61529541015625 802.08917236328125 801.56304931640625 801.03692626953125 796.820068359375 790.87811279296875 784.93609619140625 779.19964599609375 777.387939453125 775.57623291015625 773.76458740234375 772.51007080078125 772.03131103515625 771.55255126953125 771.07379150390625 769.3021240234375 767.17913818359375 765.05609130859375 763.1212158203125 762.21539306640625 761.3095703125 760.4036865234375 759.00537109375 757.15771484375 755.31005859375 753.46240234375 751.54364013671875 749.61614990234375 747.688720703125 745.89105224609375 744.4639892578125 743.0369873046875 741.60992431640625 740.99932861328125 740.87286376953125 740.74639892578125 740.6199951171875 739.129150390625 737.6328125 736.136474609375 735.0262451171875 734.58990478515625 734.153564453125 733.71722412109375 733.2808837890625 732.84454345703125 732.408203125 731.97271728515625 731.5445556640625 731.11639404296875 730.68829345703125 730.14306640625 729.4654541015625 728.787841796875 728.11016845703125 727.63580322265625 727.20086669921875 726.76593017578125 726.17010498046875 724.952880859375 723.7357177734375 722.5185546875 721.34716796875 720.20977783203125 719.07244873046875 717.93505859375 719.0914306640625 720.38836669921875 721.68536376953125 722.41973876953125 721.905029296875 721.3902587890625 720.87554931640625 719.19049072265625 716.95172119140625 714.71295166015625 712.60552978515625 713.15618896484375 713.7069091796875 714.25762939453125 715.0701904296875 716.25140380859375 717.4326171875 718.61383056640625 719.669921875 720.6915283203125 721.71319580078125 722.57958984375 722.57958984375 
851 851 851.49151611328125 852.2099609375 852.92840576171875 853.672607421875 854.882080078125 856.09161376953125 857.3011474609375 855.82086181640625 850.63665771484375 845.45245361328125 840.26824951171875 835.2542724609375 830.28582763671875 825.3173828125 820.9739990234375 819.980224609375 818.98638916015625 817.99261474609375 817.12469482421875 816.370361328125 815.61602783203125 814.86175537109375 813.55108642578125 812.17431640625 810.79754638671875 808.82464599609375 805.17327880859375 801.52197265625 797.87066650390625 794.2193603515625 790.56805419921875 786.916748046875 783.26544189453125 784.9583740234375 786.65850830078125 788.35858154296875 790.21240234375 792.33135986328125 794.4503173828125 796.5692138671875 799.4188232421875 802.53155517578125 805.64434814453125 808.89215087890625 813.30987548828125 817.7276611328125 822.1453857421875 826.17340087890625 829.76513671875 833.3568115234375 836.948486328125 836.0242919921875 834.24029541015625 832.456298828125 830.60003662109375 828.46893310546875 826.337890625 824.206787109375 821.94464111328125 819.58624267578125 817.227783203125 814.869384765625 811.57342529296875 808.22283935546875 804.87225341796875 802.49554443359375 802.25445556640625 802.0133056640625 801.772216796875 797.54278564453125 791.44915771484375 785.3555908203125 779.46746826171875 777.504150390625 775.540771484375 773.57745361328125 772.0445556640625 771.11090087890625 770.17724609375 769.2435302734375 767.43426513671875 765.3870849609375 763.33990478515625 761.4573974609375 760.47576904296875 759.49407958984375 758.51239013671875 757.1175537109375 755.345703125 753.5738525390625 751.802001953125 749.8914794921875 747.96405029296875 746.03656005859375 744.29443359375 743.08123779296875 741.8680419921875 740.6549072265625 740.0484619140625 739.8018798828125 739.5552978515625 739.30865478515625 738.2266845703125 737.14129638671875 736.055908203125 735.20697021484375 734.7706298828125 734.33428955078125 733.89794921875 733.46160888671875 733.0252685546875 732.5889892578125 732.15423583984375 731.73388671875 731.3134765625 730.89312744140625 730.3250732421875 729.58990478515625 728.854736328125 728.11956787109375 727.5087890625 726.9222412109375 726.33563232421875 725.65057373046875 724.58502197265625 723.51947021484375 722.4539794921875 721.47772216796875 720.56781005859375 719.65789794921875 718.74798583984375 719.84600830078125 721.06719970703125 722.288330078125 722.8997802734375 722.1575927734375 721.4154052734375 720.67327880859375 719.069580078125 717.0582275390625 715.046875 713.15618896484375 713.7069091796875 714.25762939453125 714.80828857421875 715.65240478515625 716.909423828125 718.16644287109375 719.4234619140625 720.43658447265625 721.38238525390625 722.32818603515625 723.1302490234375 723.1302490234375 
851 851 851.1802978515625 851.44384765625 851.70733642578125 851.952880859375 851.87353515625 851.79412841796875 851.7147216796875 850.0618896484375 846.242431640625 842.4229736328125 838.603515625 834.2962646484375 829.8585205078125 825.42083740234375 821.59625244140625 821.057373046875 820.51849365234375 819.9796142578125 819.48687744140625 819.03582763671875 818.58477783203125 818.1337890625 816.85528564453125 815.478515625 814.10174560546875 812.04937744140625 808.09478759765625 804.14019775390625 800.18560791015625 796.23101806640625 792.27642822265625 788.32183837890625 784.36724853515625 785.68121337890625 787.002197265625 788.3232421875 790.0205078125 792.366943359375 794.71331787109375 797.0596923828125 799.80230712890625 802.6876220703125 805.5728759765625 808.56182861328125 812.4488525390625 816.33587646484375 820.222900390625 823.72021484375 826.78118896484375 829.8421630859375 832.90313720703125 832.403564453125 831.22613525390625 830.0487060546875 828.73577880859375 826.907958984375 825.08013916015625 823.25238037109375 821.07489013671875 818.640625 816.20635986328125 813.77215576171875 810.7042236328125 807.599365234375 804.4945068359375 802.3758544921875 802.41973876953125 802.463623046875 802.50750732421875 798.2655029296875 792.020263671875 785.7750244140625 779.73529052734375 777.62030029296875 775.50531005859375 773.390380859375 771.57904052734375 770.1904296875 768.8018798828125 767.41326904296875 765.56646728515625 763.5950927734375 761.6236572265625 759.7935791015625 758.736083984375 757.6785888671875 756.62115478515625 755.229736328125 753.53375244140625 751.83770751953125 750.14166259765625 748.2393798828125 746.31195068359375 744.38446044921875 742.69781494140625 741.698486328125 740.69915771484375 739.6998291015625 739.09759521484375 738.73089599609375 738.3641357421875 737.99737548828125 737.32421875 736.64984130859375 735.97540283203125 735.3876953125 734.95135498046875 734.5150146484375 734.0787353515625 733.64239501953125 733.2060546875 732.76971435546875 732.33575439453125 731.92315673828125 731.51055908203125 731.09796142578125 730.507080078125 729.71435546875 728.921630859375 728.12890625 727.3818359375 726.64361572265625 725.9053955078125 725.13104248046875 724.2171630859375 723.30322265625 722.38934326171875 721.6082763671875 720.92584228515625 720.24334716796875 719.5609130859375 720.60064697265625 721.7459716796875 722.89129638671875 723.3798828125 722.41021728515625 721.44061279296875 720.470947265625 718.9486083984375 717.16473388671875 715.380859375 713.7069091796875 714.25762939453125 714.80828857421875 715.3590087890625 716.234619140625 717.56744384765625 718.9002685546875 720.23309326171875 721.2032470703125 722.07318115234375 722.94317626953125 723.68096923828125 723.68096923828125 
851.5792236328125 851.5792236328125 851.51373291015625 851.41802978515625 851.32232666015625 851.17999267578125 850.1944580078125 849.20892333984375 848.223388671875 846.4453125 843.575927734375 840.70654296875 837.837158203125 833.99810791015625 829.8997802734375 825.8013916015625 822.2991943359375 821.991943359375 821.6846923828125 821.37744140625 821.08697509765625 820.8116455078125 820.5362548828125 820.26092529296875 818.97259521484375 817.56396484375 816.1552734375 814.0416259765625 809.9432373046875 805.84490966796875 801.74652099609375 797.62799072265625 793.49774169921875 789.36749267578125 785.2371826171875 786.33160400390625 787.43304443359375 788.534423828125 790.08251953125 792.40118408203125 794.7198486328125 797.03857421875 799.5362548828125 802.098388671875 804.6605224609375 807.32135009765625 810.83709716796875 814.3529052734375 817.86865234375 821.02484130859375 823.7783203125 826.5318603515625 829.285400390625 829.40692138671875 829.0274658203125 828.64794921875 828.1495361328125 827.19915771484375 826.248779296875 825.29840087890625 823.54058837890625 821.19000244140625 818.8394775390625 816.4888916015625 813.4322509765625 810.33447265625 807.2366943359375 805.07708740234375 804.97479248046875 804.87249755859375 804.77020263671875 800.50872802734375 794.30322265625 788.09771728515625 782.09136962890625 779.8885498046875 777.68572998046875 775.48291015625 773.39031982421875 771.451171875 769.511962890625 767.57275390625 765.71807861328125 763.88629150390625 762.05450439453125 760.31097412109375 759.05010986328125 757.78924560546875 756.5283203125 755.0128173828125 753.2650146484375 751.5172119140625 749.76947021484375 747.8331298828125 745.873779296875 743.91436767578125 742.22119140625 741.28765869140625 740.35418701171875 739.420654296875 738.83099365234375 738.4451904296875 738.05938720703125 737.673583984375 737.38311767578125 737.093017578125 736.80291748046875 736.48956298828125 736.13568115234375 735.78179931640625 735.4278564453125 735.05059814453125 734.66485595703125 734.279052734375 733.8861083984375 733.42962646484375 732.97308349609375 732.5166015625 731.826904296875 730.87322998046875 729.91961669921875 728.9659423828125 728.03900146484375 727.11724853515625 726.19549560546875 725.3131103515625 724.582763671875 723.8524169921875 723.1220703125 722.45819091796875 721.84368896484375 721.22918701171875 720.61468505859375 721.41387939453125 722.2996826171875 723.18548583984375 723.47161865234375 722.42633056640625 721.38104248046875 720.33575439453125 718.96514892578125 717.44061279296875 715.91607666015625 714.48931884765625 715.03997802734375 715.5906982421875 716.14141845703125 717.08819580078125 718.59259033203125 720.096923828125 721.60125732421875 722.57403564453125 723.400146484375 724.2261962890625 724.92669677734375 724.92669677734375 
852.9559326171875 852.9559326171875 852.73486328125 852.4117431640625 852.08856201171875 851.71087646484375 850.34619140625 848.9815673828125 847.616943359375 845.77874755859375 843.2884521484375 840.79815673828125 838.307861328125 834.608642578125 830.58612060546875 826.56353759765625 823.11334228515625 822.73028564453125 822.34722900390625 821.964111328125 821.6376953125 821.3623046875 821.08697509765625 820.8116455078125 819.45550537109375 817.9710693359375 816.486572265625 814.33685302734375 810.31427001953125 806.291748046875 802.2691650390625 798.1787109375 794.0484619140625 789.91815185546875 785.78790283203125 786.88232421875 787.98370361328125 789.08514404296875 790.494140625 792.4337158203125 794.373291015625 796.3128662109375 798.375732421875 800.48291015625 802.59014892578125 804.82745361328125 808.191650390625 811.5557861328125 814.919921875 817.9959716796875 820.74945068359375 823.50299072265625 826.25653076171875 827.269775390625 827.95172119140625 828.63372802734375 829.3231201171875 830.04071044921875 830.75836181640625 831.47601318359375 830.59930419921875 828.552001953125 826.50469970703125 824.4573974609375 821.1136474609375 817.69427490234375 814.27496337890625 811.66278076171875 810.820556640625 809.9783935546875 809.13616943359375 804.845703125 798.9434814453125 793.04119873046875 787.32305908203125 785.1202392578125 782.91741943359375 780.714599609375 778.33673095703125 775.7152099609375 773.09368896484375 770.47210693359375 768.65045166015625 767.046142578125 765.4417724609375 763.83197021484375 762.19195556640625 760.552001953125 758.9119873046875 757.09674072265625 755.1214599609375 753.146240234375 751.17095947265625 749.14227294921875 747.10711669921875 745.07196044921875 743.2867431640625 742.2152099609375 741.1436767578125 740.0721435546875 739.5064697265625 739.2408447265625 738.97515869140625 738.70953369140625 738.7657470703125 738.8232421875 738.8807373046875 738.8597412109375 738.70184326171875 738.54388427734375 738.385986328125 738.14910888671875 737.88348388671875 737.61785888671875 737.32135009765625 736.749755859375 736.17816162109375 735.6065673828125 734.7135009765625 733.45654296875 732.19964599609375 730.9427490234375 729.7760009765625 728.6268310546875 727.47760009765625 726.4613037109375 725.95843505859375 725.45550537109375 724.95257568359375 724.29864501953125 723.532470703125 722.766357421875 722.00018310546875 722.3077392578125 722.68109130859375 723.05450439453125 723.02874755859375 722.11676025390625 721.204833984375 720.29290771484375 719.1710205078125 717.94976806640625 716.728515625 715.5906982421875 716.14141845703125 716.69207763671875 717.2427978515625 718.31561279296875 720.12322998046875 721.93084716796875 723.73846435546875 724.77685546875 725.6029052734375 726.42901611328125 727.1295166015625 727.1295166015625 
854.33270263671875 854.33270263671875 853.9560546875 853.40545654296875 852.85479736328125 852.24169921875 850.4979248046875 848.75421142578125 847.010498046875 845.1121826171875 843.0009765625 840.8897705078125 838.778564453125 835.21917724609375 831.2724609375 827.32568359375 823.927490234375 823.46856689453125 823.00970458984375 822.55078125 822.1883544921875 821.91302490234375 821.6376953125 821.3623046875 819.9384765625 818.378173828125 816.81787109375 814.632080078125 810.68536376953125 806.73858642578125 802.7918701171875 798.72943115234375 794.59912109375 790.4688720703125 786.338623046875 787.43304443359375 788.534423828125 789.6358642578125 790.90570068359375 792.4661865234375 794.02667236328125 795.58721923828125 797.2152099609375 798.86749267578125 800.51983642578125 802.3336181640625 805.546142578125 808.75860595703125 811.97113037109375 814.96710205078125 817.7205810546875 820.47412109375 823.2276611328125 825.13262939453125 826.87603759765625 828.61944580078125 830.4967041015625 832.88232421875 835.2679443359375 837.65362548828125 837.657958984375 835.9139404296875 834.16986083984375 832.42584228515625 828.79498291015625 825.05413818359375 821.313232421875 818.24847412109375 816.66632080078125 815.084228515625 813.50213623046875 809.1826171875 803.58367919921875 797.9847412109375 792.55474853515625 790.3519287109375 788.14910888671875 785.9462890625 783.283203125 779.979248046875 776.67535400390625 773.3714599609375 771.58282470703125 770.2059326171875 768.8291015625 767.3529052734375 765.3338623046875 763.31475830078125 761.29571533203125 759.18060302734375 756.9779052734375 754.77520751953125 752.57244873046875 750.45147705078125 748.34051513671875 746.2294921875 744.35235595703125 743.14276123046875 741.93316650390625 740.72357177734375 740.18194580078125 740.03643798828125 739.8909912109375 739.7454833984375 740.14837646484375 740.553466796875 740.95855712890625 741.22998046875 741.26800537109375 741.3060302734375 741.34405517578125 741.24761962890625 741.1021728515625 740.9566650390625 740.756591796875 740.06988525390625 739.38323974609375 738.696533203125 737.60009765625 736.03985595703125 734.47967529296875 732.91949462890625 731.51300048828125 730.1363525390625 728.75970458984375 727.6094970703125 727.33404541015625 727.05859375 726.78314208984375 726.1390380859375 725.22125244140625 724.30352783203125 723.3857421875 723.20166015625 723.06256103515625 722.9234619140625 722.5858154296875 721.8072509765625 721.02862548828125 720.25006103515625 719.37689208984375 718.45892333984375 717.54095458984375 716.69207763671875 717.2427978515625 717.79351806640625 718.34423828125 719.54296875 721.65386962890625 723.7647705078125 725.87567138671875 726.97967529296875 727.80572509765625 728.63177490234375 729.33233642578125 729.33233642578125 
855.70947265625 855.70947265625 855.17718505859375 854.39910888671875 853.62103271484375 852.77252197265625 850.64971923828125 848.52685546875 846.404052734375 844.44561767578125 842.7135009765625 840.98138427734375 839.249267578125 835.8297119140625 831.95880126953125 828.08782958984375 824.7415771484375 824.2069091796875 823.67218017578125 823.13751220703125 822.73907470703125 822.4637451171875 822.1883544921875 821.91302490234375 820.42138671875 818.7852783203125 817.149169921875 814.92730712890625 811.056396484375 807.18548583984375 803.31451416015625 799.2801513671875 795.14984130859375 791.01959228515625 786.8892822265625 787.98370361328125 789.08514404296875 790.1865234375 791.31732177734375 792.49871826171875 793.68011474609375 794.86151123046875 796.0546875 797.2520751953125 798.449462890625 799.83978271484375 802.900634765625 805.96148681640625 809.0223388671875 811.938232421875 814.69171142578125 817.44525146484375 820.19879150390625 822.99542236328125 825.80029296875 828.605224609375 831.6702880859375 835.72393798828125 839.777587890625 843.83123779296875 844.71661376953125 843.27587890625 841.8350830078125 840.39434814453125 836.47637939453125 832.4139404296875 828.35150146484375 824.83416748046875 822.51214599609375 820.19012451171875 817.8680419921875 813.51959228515625 808.223876953125 802.92822265625 797.78643798828125 795.5836181640625 793.38079833984375 791.177978515625 788.2296142578125 784.24334716796875 780.257080078125 776.270751953125 774.51513671875 773.36578369140625 772.21636962890625 770.8739013671875 768.4757080078125 766.07757568359375 763.67938232421875 761.26446533203125 758.8343505859375 756.4041748046875 753.9739990234375 751.76068115234375 749.5738525390625 747.3870849609375 745.41796875 744.0703125 742.72271728515625 741.37506103515625 740.85748291015625 740.83209228515625 740.8067626953125 740.7813720703125 741.531005859375 742.28369140625 743.036376953125 743.60015869140625 743.83416748046875 744.06817626953125 744.3021240234375 744.34613037109375 744.32080078125 744.29547119140625 744.19183349609375 743.3900146484375 742.5882568359375 741.7864990234375 740.48663330078125 738.6231689453125 736.75970458984375 734.896240234375 733.25 731.6458740234375 730.041748046875 728.7576904296875 728.709716796875 728.6617431640625 728.61370849609375 727.9794921875 726.9100341796875 725.84063720703125 724.771240234375 724.0955810546875 723.44403076171875 722.79248046875 722.14288330078125 721.4976806640625 720.85247802734375 720.20721435546875 719.582763671875 718.968017578125 718.35333251953125 717.79351806640625 718.34423828125 718.8948974609375 719.44561767578125 720.77032470703125 723.18450927734375 725.59869384765625 728.01287841796875 729.1824951171875 730.008544921875 730.8345947265625 731.53515625 731.53515625 
860.127685546875 860.127685546875 859.6444091796875 858.93798828125 858.2315673828125 857.443603515625 855.18096923828125 852.9183349609375 850.65570068359375 848.4737548828125 846.40289306640625 844.33203125 842.26123046875 838.593994140625 834.499755859375 830.40557861328125 826.76513671875 825.556396484375 824.34771728515625 823.13897705078125 822.32647705078125 821.87164306640625 821.4168701171875 820.9620361328125 819.59747314453125 818.12481689453125 816.65216064453125 814.55511474609375 810.7001953125 806.84527587890625 802.9903564453125 799.33892822265625 795.80682373046875 792.2747802734375 788.74267578125 789.65869140625 790.58062744140625 791.50262451171875 792.424560546875 793.34649658203125 794.2684326171875 795.19036865234375 796.376220703125 797.6571044921875 798.93792724609375 800.4368896484375 803.82470703125 807.21246337890625 810.60028076171875 813.717041015625 816.53033447265625 819.34368896484375 822.15704345703125 825.7042236328125 829.39111328125 833.0780029296875 836.9769287109375 841.681640625 846.3863525390625 851.09112548828125 851.59918212890625 849.0260009765625 846.452880859375 843.8797607421875 839.609130859375 835.23956298828125 830.87005615234375 827.09283447265625 824.61468505859375 822.13653564453125 819.6583251953125 816.07830810546875 811.983154296875 807.8880615234375 803.89306640625 801.80987548828125 799.7266845703125 797.6435546875 794.62957763671875 790.31982421875 786.0101318359375 781.70037841796875 780.19561767578125 779.453125 778.71063232421875 777.57037353515625 774.25469970703125 770.9390869140625 767.6234130859375 764.62060546875 761.90313720703125 759.1856689453125 756.46826171875 753.94287109375 751.44097900390625 748.9390869140625 746.74456787109375 745.4276123046875 744.1107177734375 742.79376220703125 742.64141845703125 743.1798095703125 743.71820068359375 744.25653076171875 745.26019287109375 746.2657470703125 747.271240234375 747.923583984375 747.95965576171875 747.9957275390625 748.03179931640625 747.90997314453125 747.73052978515625 747.55108642578125 747.2581787109375 745.95355224609375 744.64892578125 743.3443603515625 741.74755859375 739.820068359375 737.892578125 735.96514892578125 734.4686279296875 733.0557861328125 731.6429443359375 730.48382568359375 730.30438232421875 730.1248779296875 729.9454345703125 729.0994873046875 727.7587890625 726.4180908203125 725.07745361328125 724.2841796875 723.52447509765625 722.76483154296875 722.21661376953125 722.13787841796875 722.0592041015625 721.98052978515625 721.54083251953125 720.9302978515625 720.31976318359375 719.74420166015625 719.87615966796875 720.00811767578125 720.14007568359375 721.24658203125 723.7247314453125 726.20294189453125 728.68109130859375 730.05206298828125 731.117431640625 732.1827392578125 733.08624267578125 733.08624267578125 
865.359375 865.359375 864.9798583984375 864.425048828125 863.87030029296875 863.22198486328125 860.883544921875 858.54510498046875 856.2066650390625 853.75750732421875 851.15594482421875 848.5543212890625 845.9527587890625 841.93426513671875 837.53680419921875 833.1392822265625 829.11212158203125 827.06939697265625 825.0267333984375 822.9840087890625 821.65625 820.9739990234375 820.29168701171875 819.60943603515625 818.42401123046875 817.1788330078125 815.93365478515625 814.00439453125 810.14947509765625 806.2945556640625 802.43963623046875 799.26617431640625 796.4923095703125 793.7183837890625 790.94451904296875 791.63433837890625 792.328857421875 793.0233154296875 793.71783447265625 794.412353515625 795.1068115234375 795.80133056640625 797.09417724609375 798.60247802734375 800.11077880859375 801.8607177734375 805.70343017578125 809.546142578125 813.38885498046875 816.78167724609375 819.67083740234375 822.55999755859375 825.44915771484375 829.70904541015625 834.22991943359375 838.7508544921875 843.38897705078125 848.47283935546875 853.556640625 858.64044189453125 858.43463134765625 854.3450927734375 850.255615234375 846.16607666015625 841.525390625 836.8525390625 832.17974853515625 828.19427490234375 825.716064453125 823.2379150390625 820.759765625 818.161376953125 815.5068359375 812.852294921875 810.23370361328125 808.3021240234375 806.37060546875 804.4390869140625 801.41827392578125 796.881103515625 792.34393310546875 787.80670166015625 786.611083984375 786.323486328125 786.035888671875 785.1160888671875 780.739013671875 776.36187744140625 771.98480224609375 768.31695556640625 765.29620361328125 762.2755126953125 759.2547607421875 756.35858154296875 753.4775390625 750.5965576171875 748.1409912109375 746.89990234375 745.65875244140625 744.41766357421875 744.72186279296875 745.942626953125 747.16339111328125 748.38409423828125 749.61700439453125 750.8499755859375 752.08294677734375 752.76947021484375 752.50225830078125 752.23504638671875 751.96783447265625 751.59832763671875 751.19140625 750.78448486328125 750.22589111328125 748.314697265625 746.403564453125 744.49237060546875 742.5736083984375 740.6461181640625 738.71868896484375 736.79119873046875 735.54864501953125 734.4390869140625 733.32952880859375 732.364501953125 731.95758056640625 731.5506591796875 731.14373779296875 730.02679443359375 728.38287353515625 726.7388916015625 725.094970703125 724.2841796875 723.52447509765625 722.76483154296875 722.428466796875 723.03216552734375 723.63580322265625 724.239501953125 723.967529296875 723.28118896484375 722.5948486328125 721.9219970703125 721.52325439453125 721.12451171875 720.7257080078125 721.52197265625 724.0001220703125 726.478271484375 728.9564208984375 730.56512451171875 731.9337158203125 733.30230712890625 734.4630126953125 734.4630126953125 
870.591064453125 870.591064453125 870.31524658203125 869.912109375 869.50897216796875 869.00042724609375 866.58612060546875 864.171875 861.75762939453125 859.041259765625 855.908935546875 852.776611328125 849.64434814453125 845.2745361328125 840.57379150390625 835.873046875 831.45916748046875 828.58245849609375 825.7056884765625 822.8289794921875 820.98602294921875 820.0762939453125 819.16656494140625 818.2568359375 817.25054931640625 816.23284912109375 815.215087890625 813.45367431640625 809.5987548828125 805.74383544921875 801.888916015625 799.19342041015625 797.177734375 795.1619873046875 793.14630126953125 793.61004638671875 794.07708740234375 794.5440673828125 795.0111083984375 795.4781494140625 795.9451904296875 796.4122314453125 797.81207275390625 799.5478515625 801.28363037109375 803.28460693359375 807.58221435546875 811.87982177734375 816.17742919921875 819.8463134765625 822.811279296875 825.7762451171875 828.7412109375 833.7138671875 839.06878662109375 844.42364501953125 849.80108642578125 855.26397705078125 860.72686767578125 866.1898193359375 865.27008056640625 859.6641845703125 854.05828857421875 848.45245361328125 843.441650390625 838.46551513671875 833.48944091796875 829.295654296875 826.8175048828125 824.33935546875 821.86114501953125 820.2445068359375 819.03045654296875 817.81646728515625 816.5743408203125 814.79443359375 813.0145263671875 811.234619140625 808.20697021484375 803.44232177734375 798.67767333984375 793.91302490234375 793.0264892578125 793.19384765625 793.36114501953125 792.661865234375 787.2232666015625 781.78472900390625 776.34619140625 772.0133056640625 768.68927001953125 765.36529541015625 762.04132080078125 758.77423095703125 755.51416015625 752.25408935546875 749.53741455078125 748.37213134765625 747.20684814453125 746.04150390625 746.80230712890625 748.7054443359375 750.6085205078125 752.51165771484375 753.97381591796875 755.43426513671875 756.89471435546875 757.61529541015625 757.0447998046875 756.474365234375 755.90386962890625 755.28662109375 754.6522216796875 754.01788330078125 753.19354248046875 750.67584228515625 748.15814208984375 745.64044189453125 743.399658203125 741.47216796875 739.54473876953125 737.61724853515625 736.628662109375 735.8223876953125 735.01611328125 734.24517822265625 733.61077880859375 732.9764404296875 732.342041015625 730.95416259765625 729.0069580078125 727.0596923828125 725.11248779296875 724.2841796875 723.52447509765625 722.76483154296875 722.640380859375 723.9263916015625 725.21246337890625 726.49847412109375 726.39422607421875 725.63201904296875 724.869873046875 724.099853515625 723.17034912109375 722.2408447265625 721.31134033203125 721.79730224609375 724.27545166015625 726.75360107421875 729.2318115234375 731.078125 732.75 734.421875 735.83978271484375 735.83978271484375 
874.95672607421875 874.95672607421875 874.768310546875 874.49298095703125 874.21759033203125 873.827392578125 871.36114501953125 868.89495849609375 866.4287109375 863.4840087890625 859.880615234375 856.2772216796875 852.67376708984375 848.04998779296875 843.15325927734375 838.25653076171875 833.57073974609375 830.0150146484375 826.45928955078125 822.903564453125 820.618896484375 819.481689453125 818.34454345703125 817.20733642578125 816.30560302734375 815.431884765625 814.55810546875 812.91864013671875 809.123291015625 805.3280029296875 801.53271484375 799.31463623046875 798.0213623046875 796.72802734375 795.43475341796875 795.755615234375 796.07867431640625 796.4017333984375 796.702880859375 796.96630859375 797.229736328125 797.4931640625 798.92742919921875 800.78338623046875 802.6392822265625 804.7926025390625 809.521240234375 814.24993896484375 818.97857666015625 822.92779541015625 826.00439453125 829.0809326171875 832.15753173828125 837.6883544921875 843.6865234375 849.68463134765625 855.58807373046875 861.13201904296875 866.67596435546875 872.2198486328125 870.6732177734375 863.9205322265625 857.16790771484375 850.415283203125 845.1787109375 840.03045654296875 834.88226318359375 830.5665283203125 828.07647705078125 825.58636474609375 823.09625244140625 822.34375 822.40338134765625 822.46295166015625 822.439208984375 820.8228759765625 819.20654296875 817.5902099609375 814.5726318359375 809.6043701171875 804.6361083984375 799.66790771484375 798.8704833984375 799.20660400390625 799.54266357421875 798.8587646484375 792.59722900390625 786.335693359375 780.07415771484375 775.258544921875 771.762451171875 768.266357421875 764.770263671875 761.24224853515625 757.71038818359375 754.17852783203125 751.26788330078125 750.1307373046875 748.9935302734375 747.85638427734375 748.98858642578125 751.466796875 753.9449462890625 756.423095703125 758.031005859375 759.63543701171875 761.2398681640625 761.93719482421875 761.051513671875 760.16583251953125 759.2801513671875 758.43817138671875 757.61212158203125 756.78607177734375 755.743896484375 752.774658203125 749.80535888671875 746.83612060546875 744.35003662109375 742.41064453125 740.47125244140625 738.5318603515625 737.7054443359375 737.0950927734375 736.48480224609375 735.830078125 735.0040283203125 734.177978515625 733.3519287109375 731.7698974609375 729.626708984375 727.4835205078125 725.34027099609375 724.55413818359375 723.8511962890625 723.14825439453125 723.24615478515625 725.12200927734375 726.9979248046875 728.873779296875 728.85894775390625 727.94940185546875 727.0399169921875 726.10723876953125 724.7066650390625 723.3060302734375 721.90545654296875 722.08624267578125 724.49285888671875 726.89947509765625 729.30609130859375 731.393310546875 733.392333984375 735.39129638671875 737.08660888671875 737.08660888671875 
874.68133544921875 874.68133544921875 874.49298095703125 874.21759033203125 873.9422607421875 873.5560302734375 871.16558837890625 868.77520751953125 866.384765625 863.42022705078125 859.6651611328125 855.91015625 852.15509033203125 847.79833984375 843.28076171875 838.76312255859375 834.420654296875 831.01654052734375 827.6124267578125 824.2083740234375 821.8760986328125 820.511474609375 819.1468505859375 817.7822265625 816.58526611328125 815.40826416015625 814.231201171875 812.46728515625 809.05108642578125 805.6348876953125 802.2186279296875 800.47528076171875 799.71270751953125 798.95013427734375 798.18756103515625 798.81201171875 799.4383544921875 800.06463623046875 800.530029296875 800.71759033203125 800.90521240234375 801.09283447265625 802.17254638671875 803.57354736328125 804.974609375 806.75140380859375 811.78338623046875 816.8153076171875 821.8472900390625 826.09979248046875 829.4796142578125 832.85943603515625 836.2392578125 841.50018310546875 847.11920166015625 852.73822021484375 858.02569580078125 862.05322265625 866.08074951171875 870.10833740234375 868.40057373046875 862.48193359375 856.5633544921875 850.64471435546875 845.95556640625 841.33807373046875 836.7205810546875 832.74560546875 830.1796875 827.61376953125 825.04791259765625 824.529541015625 824.96826171875 825.406982421875 825.7547607421875 824.3658447265625 822.97698974609375 821.58807373046875 818.67120361328125 813.62713623046875 808.58306884765625 803.53900146484375 801.65234375 800.6236572265625 799.59503173828125 797.82769775390625 792.02105712890625 786.21441650390625 780.40777587890625 776.0867919921875 773.12139892578125 770.156005859375 767.190673828125 763.99072265625 760.7620849609375 757.53350830078125 754.7884521484375 753.423828125 752.0592041015625 750.694580078125 751.74212646484375 754.22027587890625 756.698486328125 759.1766357421875 760.48248291015625 761.78363037109375 763.08477783203125 763.451171875 762.18646240234375 760.92169189453125 759.65692138671875 758.7135009765625 757.887451171875 757.0614013671875 756.05743408203125 753.46728515625 750.87713623046875 748.2869873046875 745.966552734375 743.95135498046875 741.9361572265625 739.92095947265625 738.76470947265625 737.77532958984375 736.785888671875 735.830078125 735.0040283203125 734.177978515625 733.3519287109375 731.98748779296875 730.223388671875 728.45928955078125 726.69512939453125 726.27093505859375 725.92877197265625 725.586669921875 725.9625244140625 727.9324951171875 729.9024658203125 731.8724365234375 731.52752685546875 730.0872802734375 728.64703369140625 727.2015380859375 725.6492919921875 724.0970458984375 722.5447998046875 722.447998046875 724.39971923828125 726.3514404296875 728.3031005859375 730.64837646484375 733.102294921875 735.55621337890625 737.6373291015625 737.6373291015625 
874.406005859375 874.406005859375 874.21759033203125 873.9422607421875 873.66693115234375 873.28466796875 870.97003173828125 868.65545654296875 866.3408203125 863.3564453125 859.44976806640625 855.5430908203125 851.6363525390625 847.5467529296875 843.40826416015625 839.26971435546875 835.2705078125 832.01806640625 828.765625 825.51318359375 823.13330078125 821.541259765625 819.94915771484375 818.3570556640625 816.8648681640625 815.38458251953125 813.904296875 812.01593017578125 808.97882080078125 805.94171142578125 802.90460205078125 801.6358642578125 801.404052734375 801.17218017578125 800.94036865234375 801.868408203125 802.79803466796875 803.72760009765625 804.35711669921875 804.4688720703125 804.5806884765625 804.6925048828125 805.41766357421875 806.36376953125 807.30987548828125 808.71026611328125 814.0455322265625 819.3807373046875 824.7159423828125 829.271728515625 832.954833984375 836.637939453125 840.321044921875 845.31201171875 850.55194091796875 855.7918701171875 860.4632568359375 862.97442626953125 865.485595703125 867.99676513671875 866.12799072265625 861.0433349609375 855.958740234375 850.87408447265625 846.73236083984375 842.6456298828125 838.558837890625 834.9246826171875 832.282958984375 829.6412353515625 826.99951171875 826.71533203125 827.53314208984375 828.3509521484375 829.0703125 827.90887451171875 826.7474365234375 825.58599853515625 822.769775390625 817.64990234375 812.530029296875 807.41015625 804.43414306640625 802.040771484375 799.6473388671875 796.796630859375 791.44488525390625 786.09320068359375 780.741455078125 776.91497802734375 774.4803466796875 772.04571533203125 769.61102294921875 766.7391357421875 763.81378173828125 760.88848876953125 758.30902099609375 756.7169189453125 755.1248779296875 753.53277587890625 754.49566650390625 756.97381591796875 759.45196533203125 761.93011474609375 762.9339599609375 763.93182373046875 764.9296875 764.9652099609375 763.32135009765625 761.677490234375 760.03363037109375 758.9888916015625 758.162841796875 757.33673095703125 756.37103271484375 754.15997314453125 751.94891357421875 749.73785400390625 747.58306884765625 745.4920654296875 743.40106201171875 741.30999755859375 739.82403564453125 738.45550537109375 737.0870361328125 735.830078125 735.0040283203125 734.177978515625 733.3519287109375 732.205078125 730.820068359375 729.43505859375 728.050048828125 727.9876708984375 728.00634765625 728.0250244140625 728.6788330078125 730.742919921875 732.8070068359375 734.87109375 734.1961669921875 732.22515869140625 730.25421142578125 728.2957763671875 726.5919189453125 724.8880615234375 723.18414306640625 722.80975341796875 724.3065185546875 725.8033447265625 727.30010986328125 729.9034423828125 732.81231689453125 735.72113037109375 738.18798828125 738.18798828125 
874.130615234375 874.130615234375 873.9422607421875 873.66693115234375 873.39154052734375 873.0133056640625 870.77447509765625 868.53570556640625 866.29693603515625 863.29266357421875 859.23431396484375 855.17596435546875 851.11767578125 847.295166015625 843.53570556640625 839.77630615234375 836.12042236328125 833.01959228515625 829.9188232421875 826.8179931640625 824.39056396484375 822.57098388671875 820.75146484375 818.931884765625 817.14453125 815.3609619140625 813.577392578125 811.5645751953125 808.90655517578125 806.24853515625 803.59051513671875 802.7965087890625 803.09539794921875 803.394287109375 803.69317626953125 804.9248046875 806.15765380859375 807.39056396484375 808.1842041015625 808.22015380859375 808.25616455078125 808.2921142578125 808.66278076171875 809.15399169921875 809.6451416015625 810.66912841796875 816.3076171875 821.94610595703125 827.5845947265625 832.44366455078125 836.4300537109375 840.41644287109375 844.40283203125 849.12384033203125 853.98468017578125 858.84552001953125 862.90081787109375 863.8956298828125 864.89044189453125 865.88525390625 863.85540771484375 859.604736328125 855.3541259765625 851.103515625 847.50921630859375 843.95318603515625 840.39715576171875 837.103759765625 834.38623046875 831.66864013671875 828.95111083984375 828.90118408203125 830.0980224609375 831.294921875 832.38580322265625 831.45184326171875 830.51788330078125 829.58392333984375 826.868408203125 821.67266845703125 816.47698974609375 811.28125 807.2159423828125 803.45782470703125 799.69970703125 795.76556396484375 790.86871337890625 785.971923828125 781.0750732421875 777.74322509765625 775.83929443359375 773.93536376953125 772.03143310546875 769.487548828125 766.865478515625 764.24346923828125 761.82958984375 760.01007080078125 758.19049072265625 756.3709716796875 757.2491455078125 759.72735595703125 762.20550537109375 764.68365478515625 765.3853759765625 766.0799560546875 766.77459716796875 766.479248046875 764.456298828125 762.433349609375 760.410400390625 759.26422119140625 758.43817138671875 757.61212158203125 756.68463134765625 754.8526611328125 753.02069091796875 751.188720703125 749.19964599609375 747.03277587890625 744.865966796875 742.6990966796875 740.88336181640625 739.1357421875 737.38812255859375 735.830078125 735.0040283203125 734.177978515625 733.3519287109375 732.42266845703125 731.416748046875 730.41082763671875 729.4049072265625 729.70440673828125 730.0838623046875 730.46337890625 731.39520263671875 733.55340576171875 735.7115478515625 737.8697509765625 736.86474609375 734.363037109375 731.861328125 729.39007568359375 727.5345458984375 725.67901611328125 723.823486328125 723.1715087890625 724.21337890625 725.2552490234375 726.29718017578125 729.1585693359375 732.52227783203125 735.88604736328125 738.73870849609375 738.73870849609375 
873.421142578125 873.421142578125 873.20550537109375 872.89031982421875 872.57513427734375 872.15679931640625 869.874267578125 867.591796875 865.30926513671875 862.333251953125 858.4022216796875 854.47113037109375 850.54010009765625 846.8863525390625 843.3067626953125 839.72723388671875 836.25933837890625 833.38983154296875 830.52032470703125 827.65087890625 825.402099609375 823.71368408203125 822.02532958984375 820.3369140625 818.25677490234375 816.13006591796875 814.00341796875 811.8367919921875 809.557861328125 807.2789306640625 805 804.5550537109375 805.18548583984375 805.81585693359375 806.44622802734375 807.86181640625 809.2784423828125 810.69500732421875 811.6649169921875 811.8641357421875 812.0633544921875 812.2625732421875 812.371337890625 812.44744873046875 812.5235595703125 813.177978515625 818.8408203125 824.503662109375 830.16650390625 834.97467041015625 838.8260498046875 842.67742919921875 846.52874755859375 850.54150390625 854.58489990234375 858.62835693359375 861.94482421875 862.4991455078125 863.05340576171875 863.607666015625 862.01007080078125 858.83251953125 855.65496826171875 852.4774169921875 848.991943359375 845.48846435546875 841.98504638671875 838.766357421875 836.1722412109375 833.578125 830.98394775390625 831.367431640625 833.14263916015625 834.9178466796875 836.5596923828125 835.6539306640625 834.74822998046875 833.84246826171875 830.81182861328125 824.82305908203125 818.8343505859375 812.8455810546875 807.976318359375 803.41131591796875 798.8463134765625 794.36810302734375 790.364501953125 786.36090087890625 782.3572998046875 779.645751953125 778.1131591796875 776.58062744140625 775.04803466796875 772.8148193359375 770.49603271484375 768.17724609375 765.91864013671875 763.831787109375 761.74493408203125 759.65814208984375 760.311767578125 762.5906982421875 764.86962890625 767.1485595703125 767.19024658203125 767.22296142578125 767.25567626953125 766.4739990234375 764.27117919921875 762.068359375 759.8656005859375 758.70050048828125 757.914306640625 757.12811279296875 756.2625732421875 754.690185546875 753.11773681640625 751.54534912109375 749.67718505859375 747.474365234375 745.27154541015625 743.0687255859375 741.22998046875 739.4619140625 737.69384765625 736.18505859375 735.67779541015625 735.1705322265625 734.6632080078125 733.995849609375 733.20965576171875 732.42340087890625 731.63720703125 732.03558349609375 732.506591796875 732.9776611328125 733.924560546875 735.9281005859375 737.93170166015625 739.935302734375 738.709716796875 735.95623779296875 733.20269775390625 730.4918212890625 728.64404296875 726.7962646484375 724.94854736328125 724.19482421875 724.98101806640625 725.7672119140625 726.553466796875 729.46624755859375 732.96612548828125 736.46600341796875 739.43414306640625 739.43414306640625 
872.31976318359375 872.31976318359375 872.05224609375 871.6612548828125 871.27020263671875 870.7720947265625 868.33795166015625 865.90380859375 863.46966552734375 860.56524658203125 857.0133056640625 853.46136474609375 849.909423828125 846.33563232421875 842.756103515625 839.176513671875 835.75628662109375 833.19012451171875 830.6239013671875 828.05767822265625 826.19189453125 824.9583740234375 823.72491455078125 822.491455078125 820.1207275390625 817.614990234375 815.10919189453125 812.76220703125 810.86236572265625 808.9625244140625 807.06268310546875 806.85345458984375 807.635498046875 808.41754150390625 809.1995849609375 810.6910400390625 812.1834716796875 813.6759033203125 814.8328857421875 815.41119384765625 815.989501953125 816.56787109375 816.49822998046875 816.19525146484375 815.89227294921875 816.18328857421875 821.61865234375 827.0540771484375 832.48944091796875 836.9271240234375 840.24774169921875 843.568359375 846.88897705078125 849.7977294921875 852.62811279296875 855.45843505859375 857.9251708984375 859.0101318359375 860.09515380859375 861.18017578125 860.55047607421875 858.661865234375 856.773193359375 854.88458251953125 851.11187744140625 847.2293701171875 843.3468017578125 839.9627685546875 837.67193603515625 835.38104248046875 833.0902099609375 834.0869140625 836.620361328125 839.15374755859375 841.50848388671875 840.45111083984375 839.39373779296875 838.33636474609375 834.61529541015625 827.18597412109375 819.75665283203125 812.32733154296875 806.91180419921875 802.04351806640625 797.17523193359375 792.639892578125 789.92523193359375 787.21051025390625 784.495849609375 782.5181884765625 781.21307373046875 779.907958984375 778.60284423828125 776.6646728515625 774.649169921875 772.6336669921875 770.52093505859375 768.130859375 765.74072265625 763.3505859375 763.65338134765625 765.55322265625 767.45306396484375 769.3529052734375 768.411376953125 767.45843505859375 766.5054931640625 765.09722900390625 762.89447021484375 760.691650390625 758.48883056640625 757.3792724609375 756.66888427734375 755.95849609375 755.17645263671875 753.75567626953125 752.33489990234375 750.91412353515625 749.12646484375 746.9237060546875 744.72088623046875 742.51806640625 740.9332275390625 739.46844482421875 738.003662109375 736.86053466796875 736.95977783203125 737.05908203125 737.1583251953125 736.7928466796875 736.08245849609375 735.3720703125 734.66168212890625 734.92156982421875 735.240966796875 735.56036376953125 736.28497314453125 737.90948486328125 739.53399658203125 741.158447265625 739.8111572265625 737.0576171875 734.30413818359375 731.60040283203125 729.90423583984375 728.2081298828125 726.511962890625 725.8154296875 726.52581787109375 727.2362060546875 727.94659423828125 730.72412109375 734.0723876953125 737.420654296875 740.26019287109375 740.26019287109375 
871.21832275390625 871.21832275390625 870.89898681640625 870.43212890625 869.96527099609375 869.38739013671875 866.8016357421875 864.2158203125 861.63006591796875 858.79730224609375 855.62445068359375 852.4515380859375 849.2786865234375 845.78497314453125 842.20538330078125 838.62579345703125 835.2532958984375 832.9903564453125 830.7274169921875 828.4644775390625 826.98162841796875 826.20306396484375 825.42449951171875 824.64599609375 821.9847412109375 819.099853515625 816.2149658203125 813.6876220703125 812.1668701171875 810.6461181640625 809.1253662109375 809.15185546875 810.0855712890625 811.01922607421875 811.952880859375 813.520263671875 815.0885009765625 816.65673828125 818.0008544921875 818.958251953125 819.91571044921875 820.87310791015625 820.6251220703125 819.94305419921875 819.260986328125 819.1885986328125 824.39654541015625 829.6044921875 834.81243896484375 838.8795166015625 841.66943359375 844.4593505859375 847.24920654296875 849.05401611328125 850.6712646484375 852.28851318359375 853.90545654296875 855.52117919921875 857.13690185546875 858.75262451171875 859.09088134765625 858.49114990234375 857.8914794921875 857.291748046875 853.23187255859375 848.97021484375 844.70855712890625 841.1591796875 839.17156982421875 837.1839599609375 835.1964111328125 836.80645751953125 840.0980224609375 843.38958740234375 846.457275390625 845.24822998046875 844.03924560546875 842.8302001953125 838.418701171875 829.548828125 820.678955078125 811.80914306640625 805.8472900390625 800.67572021484375 795.504150390625 790.91168212890625 789.48590087890625 788.0601806640625 786.6343994140625 785.390625 784.31298828125 783.2353515625 782.15765380859375 780.5145263671875 778.80224609375 777.09002685546875 775.12322998046875 772.42987060546875 769.7364501953125 767.0430908203125 766.9949951171875 768.5157470703125 770.03643798828125 771.55718994140625 769.63250732421875 767.69390869140625 765.75531005859375 763.72052001953125 761.5177001953125 759.31488037109375 757.112060546875 756.05804443359375 755.42352294921875 754.7889404296875 754.09039306640625 752.82122802734375 751.55206298828125 750.282958984375 748.5758056640625 746.37298583984375 744.170166015625 741.96734619140625 740.63653564453125 739.4749755859375 738.3134765625 737.5360107421875 738.2418212890625 738.9476318359375 739.6534423828125 739.58990478515625 738.955322265625 738.32073974609375 737.68621826171875 737.8076171875 737.975341796875 738.14306640625 738.64544677734375 739.890869140625 741.13623046875 742.38165283203125 740.91253662109375 738.1590576171875 735.405517578125 732.70892333984375 731.1644287109375 729.61993408203125 728.075439453125 727.43603515625 728.07061767578125 728.7052001953125 729.33978271484375 731.9820556640625 735.1787109375 738.37530517578125 741.08624267578125 741.08624267578125 
870.116943359375 870.116943359375 869.74566650390625 869.20306396484375 868.660400390625 868.002685546875 865.2652587890625 862.52783203125 859.7904052734375 857.029296875 854.23553466796875 851.4417724609375 848.64801025390625 845.2342529296875 841.6546630859375 838.07513427734375 834.75030517578125 832.7906494140625 830.83099365234375 828.87127685546875 827.77142333984375 827.44775390625 827.1241455078125 826.80047607421875 823.84869384765625 820.584716796875 817.32073974609375 814.613037109375 813.47137451171875 812.32977294921875 811.1881103515625 811.45025634765625 812.53558349609375 813.62091064453125 814.7061767578125 816.3494873046875 817.99359130859375 819.63763427734375 821.1688232421875 822.50537109375 823.84185791015625 825.1783447265625 824.75201416015625 823.69085693359375 822.62969970703125 822.19390869140625 827.1744384765625 832.1549072265625 837.1353759765625 840.83197021484375 843.09112548828125 845.35028076171875 847.60943603515625 848.310302734375 848.71441650390625 849.11859130859375 849.8857421875 852.0322265625 854.17864990234375 856.32513427734375 857.63128662109375 858.32049560546875 859.00970458984375 859.69891357421875 855.351806640625 850.7110595703125 846.07037353515625 842.35552978515625 840.67120361328125 838.9869384765625 837.3026123046875 839.52593994140625 843.57568359375 847.62548828125 851.40606689453125 850.04541015625 848.68475341796875 847.3240966796875 842.22210693359375 831.91168212890625 821.601318359375 811.2908935546875 804.78277587890625 799.30792236328125 793.83306884765625 789.1834716796875 789.046630859375 788.9097900390625 788.77294921875 788.2630615234375 787.41290283203125 786.56268310546875 785.71246337890625 784.36431884765625 782.95538330078125 781.54638671875 779.72552490234375 776.7288818359375 773.73223876953125 770.73553466796875 770.3365478515625 771.47821044921875 772.619873046875 773.76153564453125 770.85357666015625 767.92938232421875 765.00518798828125 762.34375 760.14093017578125 757.9381103515625 755.73529052734375 754.73687744140625 754.1781005859375 753.61932373046875 753.0042724609375 751.88671875 750.76922607421875 749.6517333984375 748.02508544921875 745.822265625 743.61944580078125 741.4166259765625 740.33978271484375 739.48150634765625 738.62322998046875 738.21148681640625 739.5238037109375 740.836181640625 742.1485595703125 742.386962890625 741.82818603515625 741.2694091796875 740.710693359375 740.693603515625 740.70965576171875 740.72576904296875 741.005859375 741.8721923828125 742.738525390625 743.60479736328125 742.01397705078125 739.26043701171875 736.50689697265625 733.81744384765625 732.42462158203125 731.03173828125 729.638916015625 729.05670166015625 729.61541748046875 730.1741943359375 730.73291015625 733.239990234375 736.28497314453125 739.3299560546875 741.91229248046875 741.91229248046875 
870.49224853515625 870.49224853515625 870.115478515625 869.56475830078125 869.0140380859375 868.3514404296875 865.66571044921875 862.97991943359375 860.294189453125 857.494384765625 854.53759765625 851.58074951171875 848.62396240234375 845.3896484375 842.0811767578125 838.77264404296875 835.798583984375 834.6165771484375 833.4345703125 832.2525634765625 831.2620849609375 830.444580078125 829.62713623046875 828.80963134765625 825.7088623046875 822.33685302734375 818.96484375 816.13470458984375 814.83001708984375 813.52532958984375 812.2205810546875 812.38995361328125 813.423583984375 814.45721435546875 815.4908447265625 817.61590576171875 819.74237060546875 821.86883544921875 823.894287109375 825.74542236328125 827.59661865234375 829.44775390625 829.427001953125 828.73223876953125 828.03741455078125 827.91357421875 832.73431396484375 837.55511474609375 842.37591552734375 845.3861083984375 846.36907958984375 847.35205078125 848.33502197265625 847.86956787109375 847.12841796875 846.38726806640625 846.400634765625 849.2811279296875 852.16162109375 855.0421142578125 856.73797607421875 857.56402587890625 858.39007568359375 859.21612548828125 855.350830078125 851.21197509765625 847.07318115234375 843.8829345703125 842.77301025390625 841.66302490234375 840.55303955078125 842.5523681640625 846.00494384765625 849.45751953125 852.6630859375 851.15081787109375 849.63848876953125 848.126220703125 843.04205322265625 832.98529052734375 822.92852783203125 812.87176513671875 806.605712890625 801.3697509765625 796.1337890625 791.73870849609375 791.9420166015625 792.14532470703125 792.3486328125 791.8719482421875 790.77484130859375 789.677734375 788.58056640625 787.0531005859375 785.4730224609375 783.8929443359375 781.97216796875 779.078857421875 776.18548583984375 773.29217529296875 772.56610107421875 773.1253662109375 773.68463134765625 774.243896484375 771.296875 768.33575439453125 765.3746337890625 762.813232421875 760.94927978515625 759.08526611328125 757.2213134765625 756.31939697265625 755.7686767578125 755.21795654296875 754.56390380859375 752.98809814453125 751.412353515625 749.8365478515625 747.9425048828125 745.688232421875 743.4339599609375 741.17974853515625 740.5050048828125 740.13702392578125 739.76904296875 739.80169677734375 741.38177490234375 742.9617919921875 744.5418701171875 744.8211669921875 744.13494873046875 743.44866943359375 742.762451171875 742.97821044921875 743.24932861328125 743.5203857421875 743.8375244140625 744.2569580078125 744.6763916015625 745.09588623046875 743.49951171875 740.94927978515625 738.3990478515625 735.90411376953125 734.52734375 733.15057373046875 731.7738037109375 731.141357421875 731.5565185546875 731.9716796875 732.38690185546875 734.7440185546875 737.63739013671875 740.53070068359375 742.98443603515625 742.98443603515625 
871.04290771484375 871.04290771484375 870.66619873046875 870.115478515625 869.56475830078125 868.9061279296875 866.29620361328125 863.686279296875 861.07635498046875 858.22479248046875 855.04046630859375 851.856201171875 848.67193603515625 845.62890625 842.62371826171875 839.61846923828125 837.0311279296875 836.68316650390625 836.33514404296875 835.98712158203125 835.0736083984375 833.64959716796875 832.22552490234375 830.80145263671875 827.56854248046875 824.1207275390625 820.67291259765625 817.72723388671875 816.195068359375 814.66290283203125 813.1307373046875 813.168212890625 814.12603759765625 815.0838623046875 816.04168701171875 818.69659423828125 821.35382080078125 824.01104736328125 826.56719970703125 828.9490966796875 831.3309326171875 833.71282958984375 834.1671142578125 833.92724609375 833.68731689453125 833.95556640625 838.624755859375 843.29388427734375 847.96307373046875 850.249267578125 849.86749267578125 849.4857177734375 849.10400390625 847.46490478515625 845.58642578125 843.7080078125 842.97906494140625 846.61773681640625 850.25640869140625 853.89508056640625 855.91192626953125 856.73797607421875 857.56402587890625 858.39007568359375 855.097900390625 851.56561279296875 848.0333251953125 845.44964599609375 844.9462890625 844.44287109375 843.939453125 845.615234375 848.30963134765625 851.0040283203125 853.48162841796875 851.81768798828125 850.15374755859375 848.48980712890625 843.507568359375 833.90570068359375 824.30389404296875 814.7020263671875 808.7716064453125 803.83892822265625 798.90625 794.802734375 795.2335205078125 795.66424560546875 796.09503173828125 795.56829833984375 794.16790771484375 792.76751708984375 791.36712646484375 789.6038818359375 787.79638671875 785.98883056640625 783.93896484375 781.197265625 778.45556640625 775.7138671875 774.66351318359375 774.6162109375 774.5689697265625 774.52166748046875 771.647705078125 768.762451171875 765.877197265625 763.50201416015625 762.01715087890625 760.53228759765625 759.04736328125 758.246826171875 757.6961669921875 757.14544677734375 756.4378662109375 754.33135986328125 752.22479248046875 750.1182861328125 747.91546630859375 745.60369873046875 743.29193115234375 740.9801025390625 740.72515869140625 740.86962890625 741.01409912109375 741.5006103515625 743.30810546875 745.1156005859375 746.92315673828125 747.2122802734375 746.37445068359375 745.53656005859375 744.69866943359375 745.19146728515625 745.76580810546875 746.34014892578125 746.72515869140625 746.68963623046875 746.6541748046875 746.61871337890625 745.0306396484375 742.7078857421875 740.3851318359375 738.10693359375 736.73016357421875 735.3533935546875 733.97662353515625 733.28118896484375 733.54473876953125 733.80828857421875 734.07177734375 736.27734375 739.01904296875 741.7607421875 744.08587646484375 744.08587646484375 
871.5936279296875 871.5936279296875 871.21685791015625 870.66619873046875 870.115478515625 869.4608154296875 866.92669677734375 864.392578125 861.85845947265625 858.95513916015625 855.54339599609375 852.13165283203125 848.71990966796875 845.86822509765625 843.166259765625 840.46429443359375 838.26373291015625 838.74969482421875 839.2357177734375 839.7216796875 838.8851318359375 836.85455322265625 834.82391357421875 832.7933349609375 829.42822265625 825.90460205078125 822.3809814453125 819.3197021484375 817.56005859375 815.80047607421875 814.04083251953125 813.94647216796875 814.82843017578125 815.71044921875 816.59246826171875 819.77734375 822.96527099609375 826.15325927734375 829.24017333984375 832.1527099609375 835.0653076171875 837.9779052734375 838.9072265625 839.12225341796875 839.3372802734375 839.99761962890625 844.51513671875 849.03265380859375 853.5501708984375 855.1124267578125 853.36590576171875 851.61944580078125 849.8729248046875 847.06024169921875 844.04449462890625 841.02874755859375 839.55743408203125 843.95428466796875 848.3511962890625 852.748046875 855.08587646484375 855.91192626953125 856.73797607421875 857.56402587890625 854.844970703125 851.91925048828125 848.9935302734375 847.01641845703125 847.1195068359375 847.22265625 847.3258056640625 848.67816162109375 850.6143798828125 852.55059814453125 854.30010986328125 852.48455810546875 850.66900634765625 848.8533935546875 843.97308349609375 834.826171875 825.67919921875 816.53228759765625 810.93756103515625 806.30816650390625 801.6787109375 797.86676025390625 798.52496337890625 799.1832275390625 799.8414306640625 799.2646484375 797.56097412109375 795.8572998046875 794.15362548828125 792.15472412109375 790.1197509765625 788.08477783203125 785.90576171875 783.31573486328125 780.72564697265625 778.1356201171875 776.76092529296875 776.10711669921875 775.4532470703125 774.7994384765625 771.99859619140625 769.18914794921875 766.37969970703125 764.1907958984375 763.08502197265625 761.979248046875 760.87347412109375 760.17431640625 759.62359619140625 759.0728759765625 758.311767578125 755.674560546875 753.03729248046875 750.40008544921875 747.88848876953125 745.5191650390625 743.14984130859375 740.78045654296875 740.9453125 741.60223388671875 742.2591552734375 743.199462890625 745.23443603515625 747.2694091796875 749.30438232421875 749.60345458984375 748.6138916015625 747.6243896484375 746.6348876953125 747.4046630859375 748.28228759765625 749.159912109375 749.61273193359375 749.12237548828125 748.6319580078125 748.1416015625 746.561767578125 744.46649169921875 742.3712158203125 740.30975341796875 738.9329833984375 737.55621337890625 736.179443359375 735.4210205078125 735.53289794921875 735.64483642578125 735.7567138671875 737.81060791015625 740.40069580078125 742.99072265625 745.187255859375 745.187255859375 
872.6495361328125 872.6495361328125 872.27276611328125 871.72210693359375 871.17138671875 870.517578125 867.9996337890625 865.48175048828125 862.96380615234375 859.97418212890625 856.33502197265625 852.69580078125 849.056640625 846.490234375 844.2108154296875 841.93133544921875 840.18048095703125 841.26202392578125 842.34356689453125 843.42510986328125 842.5836181640625 840.006103515625 837.4285888671875 834.85101318359375 831.360107421875 827.76068115234375 824.16119384765625 821.01043701171875 819.1226806640625 817.2349853515625 815.3472900390625 815.04803466796875 815.68011474609375 816.312255859375 816.94439697265625 820.5152587890625 824.09002685546875 827.664794921875 831.19866943359375 834.661865234375 838.12506103515625 841.5882568359375 843.1146240234375 843.94354248046875 844.7724609375 845.95721435546875 850.2237548828125 854.490234375 858.75677490234375 859.533203125 856.402099609375 853.27099609375 850.139892578125 846.36737060546875 842.47265625 838.5780029296875 836.56060791015625 841.6759033203125 846.79119873046875 851.906494140625 854.5599365234375 855.4058837890625 856.2518310546875 857.09771728515625 854.91534423828125 852.55645751953125 850.197509765625 848.7125244140625 849.14398193359375 849.575439453125 850.00689697265625 850.78460693359375 851.72418212890625 852.66375732421875 853.46466064453125 851.61663818359375 849.7686767578125 847.92071533203125 843.41107177734375 835.19598388671875 826.98089599609375 818.76580810546875 813.48370361328125 808.99853515625 804.513427734375 800.82177734375 801.468994140625 802.11614990234375 802.76336669921875 802.053955078125 800.10662841796875 798.1593017578125 796.21197509765625 794.03692626953125 791.8341064453125 789.63134765625 787.3519287109375 784.8538818359375 782.3558349609375 779.8577880859375 778.21148681640625 777.07037353515625 775.92919921875 774.78802490234375 772.15972900390625 769.52545166015625 766.89117431640625 764.901123046875 764.03533935546875 763.16949462890625 762.3037109375 761.6396484375 761.0491943359375 760.458740234375 759.62640380859375 756.63726806640625 753.64813232421875 750.6590576171875 748.0130615234375 745.7554931640625 743.49786376953125 741.240234375 741.7938232421875 742.893310546875 743.99273681640625 745.29052734375 747.354248046875 749.41790771484375 751.48162841796875 751.797119140625 750.81494140625 749.832763671875 748.8505859375 749.75677490234375 750.7786865234375 751.80059814453125 752.27337646484375 751.52679443359375 750.78021240234375 750.03369140625 748.51251220703125 746.624755859375 744.737060546875 742.87060546875 741.4342041015625 739.99786376953125 738.56146240234375 737.71343994140625 737.693603515625 737.6737060546875 737.65380859375 739.49810791015625 741.8570556640625 744.2159423828125 746.21649169921875 746.21649169921875 
875.127685546875 875.127685546875 874.7509765625 874.20025634765625 873.6495361328125 872.98779296875 870.3182373046875 867.648681640625 864.9791259765625 861.80596923828125 857.9393310546875 854.07269287109375 850.20599365234375 848.1898193359375 846.6685791015625 845.1473388671875 844.02349853515625 845.0291748046875 846.034912109375 847.0406494140625 845.9639892578125 843.00732421875 840.05072021484375 837.0941162109375 833.4951171875 829.81988525390625 826.14459228515625 822.97760009765625 821.24151611328125 819.5054931640625 817.7694091796875 817.05975341796875 816.95196533203125 816.84417724609375 816.73638916015625 820.28802490234375 823.844482421875 827.4010009765625 831.1458740234375 835.21563720703125 839.28533935546875 843.3551025390625 845.822509765625 847.712890625 849.603271484375 851.6846923828125 855.42047119140625 859.15625 862.89202880859375 862.70849609375 858.1368408203125 853.565185546875 848.9935302734375 844.86322021484375 840.81689453125 836.77056884765625 834.759521484375 840.4813232421875 846.20318603515625 851.925048828125 854.8790283203125 855.80078125 856.7225341796875 857.644287109375 855.89593505859375 853.99188232421875 852.087890625 850.7728271484375 850.7493896484375 850.7259521484375 850.7025146484375 850.1986083984375 849.47021484375 848.74176025390625 847.97271728515625 846.427978515625 844.88330078125 843.338623046875 839.956298828125 834.0157470703125 828.07525634765625 822.13470458984375 817.10015869140625 812.311767578125 807.52337646484375 803.46978759765625 803.43463134765625 803.39947509765625 803.36431884765625 802.2896728515625 800.26654052734375 798.24334716796875 796.22021484375 794.03692626953125 791.8341064453125 789.63134765625 787.332275390625 784.75836181640625 782.18450927734375 779.61065673828125 777.8409423828125 776.54815673828125 775.25537109375 773.96258544921875 771.78680419921875 769.607421875 767.42803955078125 765.67193603515625 764.65447998046875 763.6370849609375 762.61962890625 761.80389404296875 761.06182861328125 760.3197021484375 759.3663330078125 756.52886962890625 753.69134521484375 750.8538818359375 748.56439208984375 746.89508056640625 745.2257080078125 743.556396484375 744.41143798828125 745.756591796875 747.10174560546875 748.485595703125 750.0185546875 751.551513671875 753.08453369140625 753.43499755859375 752.90771484375 752.3804931640625 751.85321044921875 752.4998779296875 753.218505859375 753.93719482421875 754.29498291015625 753.8516845703125 753.408447265625 752.96514892578125 751.644287109375 749.908203125 748.172119140625 746.439453125 744.775634765625 743.11181640625 741.44793701171875 740.43548583984375 740.33978271484375 740.24407958984375 740.1484375 741.61981201171875 743.5238037109375 745.42779541015625 747.04254150390625 747.04254150390625 
877.60589599609375 877.60589599609375 877.2291259765625 876.67840576171875 876.127685546875 875.4580078125 872.63677978515625 869.81561279296875 866.99444580078125 863.63775634765625 859.54364013671875 855.44952392578125 851.35540771484375 849.88946533203125 849.12640380859375 848.36328125 847.866455078125 848.79638671875 849.72625732421875 850.65618896484375 849.34429931640625 846.00860595703125 842.6728515625 839.337158203125 835.63018798828125 831.87908935546875 828.1280517578125 824.94482421875 823.36041259765625 821.77593994140625 820.1915283203125 819.07147216796875 818.22381591796875 817.3760986328125 816.52838134765625 820.060791015625 823.5989990234375 827.13720703125 831.09307861328125 835.76934814453125 840.4456787109375 845.1219482421875 848.5303955078125 851.48223876953125 854.43408203125 857.412109375 860.6171875 863.82220458984375 867.02728271484375 865.88372802734375 859.87158203125 853.859375 847.84716796875 843.35906982421875 839.1611328125 834.96319580078125 832.9583740234375 839.28680419921875 845.615234375 851.943603515625 855.1981201171875 856.1956787109375 857.1932373046875 858.1907958984375 856.87646484375 855.4273681640625 853.978271484375 852.83319091796875 852.35479736328125 851.87646484375 851.39813232421875 849.61260986328125 847.2161865234375 844.8197021484375 842.48077392578125 841.23931884765625 839.9979248046875 838.7564697265625 836.50152587890625 832.8355712890625 829.1695556640625 825.50360107421875 820.71661376953125 815.62493896484375 810.53326416015625 806.1177978515625 805.4002685546875 804.6827392578125 803.9652099609375 802.525390625 800.4263916015625 798.32745361328125 796.22845458984375 794.03692626953125 791.8341064453125 789.63134765625 787.31256103515625 784.66290283203125 782.01324462890625 779.363525390625 777.470458984375 776.0260009765625 774.58160400390625 773.13714599609375 771.413818359375 769.6893310546875 767.96490478515625 766.4427490234375 765.273681640625 764.1046142578125 762.935546875 761.9681396484375 761.074462890625 760.18072509765625 759.10626220703125 756.42041015625 753.73455810546875 751.0487060546875 749.11572265625 748.03466796875 746.95361328125 745.87255859375 747.02899169921875 748.619873046875 750.2108154296875 751.6806640625 752.682861328125 753.68511962890625 754.6873779296875 755.0728759765625 755.00048828125 754.92816162109375 754.85577392578125 755.24298095703125 755.65838623046875 756.07373046875 756.316650390625 756.1766357421875 756.03662109375 755.8966064453125 754.77606201171875 753.191650390625 751.607177734375 750.00830078125 748.11700439453125 746.22576904296875 744.33447265625 743.15753173828125 742.98602294921875 742.81451416015625 742.64300537109375 743.741455078125 745.1905517578125 746.6396484375 747.86865234375 747.86865234375 
880.08404541015625 880.08404541015625 879.707275390625 879.15655517578125 878.60589599609375 877.92822265625 874.95538330078125 871.9825439453125 869.00970458984375 865.469482421875 861.14794921875 856.82635498046875 852.50482177734375 851.58905029296875 851.58416748046875 851.57928466796875 851.70947265625 852.56353759765625 853.41766357421875 854.271728515625 852.72467041015625 849.00982666015625 845.2950439453125 841.5802001953125 837.7652587890625 833.9383544921875 830.1114501953125 826.91204833984375 825.479248046875 824.04644775390625 822.6136474609375 821.083251953125 819.49560546875 817.90802001953125 816.32037353515625 819.83355712890625 823.353515625 826.87347412109375 831.040283203125 836.3231201171875 841.60595703125 846.88885498046875 851.23828125 855.2515869140625 859.26483154296875 863.13958740234375 865.81390380859375 868.48822021484375 871.16253662109375 869.05902099609375 861.60626220703125 854.153564453125 846.7008056640625 841.85491943359375 837.50531005859375 833.15576171875 831.15728759765625 838.09228515625 845.0272216796875 851.962158203125 855.51715087890625 856.590576171875 857.6639404296875 858.7373046875 857.85699462890625 856.86285400390625 855.86865234375 854.89349365234375 853.96026611328125 853.0269775390625 852.09375 849.026611328125 844.962158203125 840.897705078125 836.98883056640625 836.0506591796875 835.11248779296875 834.17437744140625 833.0467529296875 831.65533447265625 830.263916015625 828.87249755859375 824.33306884765625 818.9381103515625 813.54315185546875 808.765869140625 807.365966796875 805.966064453125 804.566162109375 802.7611083984375 800.5863037109375 798.4114990234375 796.2366943359375 794.03692626953125 791.8341064453125 789.63134765625 787.29290771484375 784.5673828125 781.8419189453125 779.116455078125 777.09991455078125 775.50384521484375 773.90777587890625 772.31170654296875 771.04083251953125 769.77130126953125 768.50177001953125 767.21356201171875 765.89288330078125 764.5721435546875 763.25146484375 762.1324462890625 761.08709716796875 760.041748046875 758.84619140625 756.31201171875 753.77777099609375 751.24359130859375 749.66705322265625 749.17425537109375 748.68145751953125 748.188720703125 749.64654541015625 751.48321533203125 753.31982421875 754.87567138671875 755.34722900390625 755.8187255859375 756.29022216796875 756.710693359375 757.09326171875 757.475830078125 757.8583984375 757.986083984375 758.09820556640625 758.21026611328125 758.3382568359375 758.50152587890625 758.664794921875 758.82806396484375 757.90789794921875 756.47509765625 755.04229736328125 753.5771484375 751.45843505859375 749.33966064453125 747.220947265625 745.8795166015625 745.6322021484375 745.3848876953125 745.1375732421875 745.8631591796875 746.85736083984375 747.85150146484375 748.6947021484375 748.6947021484375 
883.6036376953125 883.6036376953125 883.1614990234375 882.51519775390625 881.868896484375 881.0802001953125 877.71673583984375 874.35333251953125 870.9898681640625 867.24835205078125 862.986083984375 858.723876953125 854.46160888671875 853.8548583984375 854.225830078125 854.59674072265625 855.001708984375 855.5887451171875 856.17584228515625 856.762939453125 854.88995361328125 850.7960205078125 846.7021484375 842.6082763671875 838.9842529296875 835.4161376953125 831.84796142578125 828.86669921875 827.53778076171875 826.20880126953125 824.87982177734375 823.0574951171875 820.9459228515625 818.8343505859375 816.72271728515625 819.85809326171875 823.00048828125 826.142822265625 830.15289306640625 835.659912109375 841.1669921875 846.67401123046875 851.230712890625 855.44512939453125 859.65960693359375 863.60528564453125 865.22314453125 866.84100341796875 868.45880126953125 865.88433837890625 858.61602783203125 851.3477783203125 844.0794677734375 839.37664794921875 835.16217041015625 830.94775390625 828.9337158203125 835.28033447265625 841.626953125 847.97357177734375 850.9649658203125 851.4927978515625 852.02069091796875 852.54852294921875 851.88739013671875 851.15692138671875 850.42645263671875 849.59478759765625 848.54119873046875 847.487548828125 846.4339599609375 843.13641357421875 838.78997802734375 834.44354248046875 830.28656005859375 829.747314453125 829.2080078125 828.668701171875 828.46429443359375 828.72613525390625 828.9879150390625 829.249755859375 824.9378662109375 819.38299560546875 813.82818603515625 808.81756591796875 806.78314208984375 804.7486572265625 802.71417236328125 800.5916748046875 798.38885498046875 796.18603515625 793.9832763671875 791.61004638671875 789.216064453125 786.82208251953125 784.4237060546875 782.01287841796875 779.60198974609375 777.19110107421875 775.3890380859375 773.94793701171875 772.5068359375 771.0657958984375 770.0780029296875 769.092041015625 768.1060791015625 766.94293212890625 765.4705810546875 763.99822998046875 762.52587890625 761.395263671875 760.38946533203125 759.3836669921875 758.28240966796875 756.3299560546875 754.3775634765625 752.42510986328125 751.483642578125 751.686279296875 751.88885498046875 752.0914306640625 753.45831298828125 755.05120849609375 756.64410400390625 757.91680908203125 757.95318603515625 757.98956298828125 758.02593994140625 758.52215576171875 759.359619140625 760.19708251953125 761.0345458984375 760.99285888671875 760.89727783203125 760.80169677734375 760.7767333984375 760.90875244140625 761.04071044921875 761.17266845703125 760.248046875 758.823486328125 757.39892578125 755.937744140625 753.73492431640625 751.5321044921875 749.32928466796875 747.88739013671875 747.51641845703125 747.1455078125 746.7745361328125 747.0419921875 747.4857177734375 747.92938232421875 748.3056640625 748.3056640625 
887.73394775390625 887.73394775390625 887.18804931640625 886.39013671875 885.5921630859375 884.6319580078125 880.73779296875 876.8436279296875 872.949462890625 868.99615478515625 864.96136474609375 860.92657470703125 856.89178466796875 856.45269775390625 856.9752197265625 857.497802734375 857.970947265625 858.17889404296875 858.38690185546875 858.59490966796875 856.34283447265625 851.86981201171875 847.3968505859375 842.923828125 839.666259765625 836.552978515625 833.43975830078125 830.81402587890625 829.5609130859375 828.3077392578125 827.05462646484375 825.00982666015625 822.5008544921875 819.991943359375 817.48297119140625 820.0302734375 822.58441162109375 825.13848876953125 828.776123046875 834.283203125 839.79022216796875 845.2972412109375 849.6309814453125 853.5421142578125 857.45330810546875 860.98583984375 861.23895263671875 861.4920654296875 861.74517822265625 858.98638916015625 852.8553466796875 846.724365234375 840.5933837890625 836.32720947265625 832.416015625 828.50482177734375 826.46234130859375 831.52008056640625 836.5777587890625 841.635498046875 843.5565185546875 843.174560546875 842.7926025390625 842.41064453125 841.8426513671875 841.26385498046875 840.68499755859375 839.98126220703125 839.00341796875 838.025634765625 837.0478515625 834.1361083984375 830.3204345703125 826.5047607421875 822.87469482421875 822.79034423828125 822.7059326171875 822.62158203125 823.22076416015625 824.771484375 826.32220458984375 827.8729248046875 823.77679443359375 818.14617919921875 812.5155029296875 807.3470458984375 804.7060546875 802.06500244140625 799.42401123046875 797.01214599609375 794.809326171875 792.60650634765625 790.4036865234375 787.76025390625 785.06298828125 782.36572265625 779.88372802734375 778.0164794921875 776.149169921875 774.2818603515625 772.89227294921875 771.78594970703125 770.67962646484375 769.57330322265625 768.769287109375 767.9664306640625 767.16357421875 766.0616455078125 764.4376220703125 762.81365966796875 761.189697265625 760.129638671875 759.27545166015625 758.4212646484375 757.5404052734375 756.4219970703125 755.3035888671875 754.1851806640625 754.04217529296875 755.0029296875 755.9637451171875 756.92449951171875 757.97021484375 759.0323486328125 760.09454345703125 760.86773681640625 760.5250244140625 760.18231201171875 759.839599609375 760.43536376953125 761.72772216796875 763.0201416015625 764.3125 764.1541748046875 763.906982421875 763.65972900390625 763.45965576171875 763.3641357421875 763.2686767578125 763.17315673828125 762.1240234375 760.6236572265625 759.123291015625 757.58984375 755.38702392578125 753.1842041015625 750.98138427734375 749.47650146484375 748.95391845703125 748.43133544921875 747.90875244140625 747.6680908203125 747.5052490234375 747.3424072265625 747.20428466796875 747.20428466796875 
891.86419677734375 891.86419677734375 891.214599609375 890.2650146484375 889.3154296875 888.1837158203125 883.7587890625 879.33392333984375 874.90899658203125 870.74395751953125 866.93658447265625 863.1292724609375 859.32196044921875 859.05047607421875 859.72467041015625 860.39892578125 860.940185546875 860.76910400390625 860.59796142578125 860.4268798828125 857.79571533203125 852.943603515625 848.091552734375 843.23944091796875 840.34820556640625 837.68988037109375 835.03155517578125 832.76141357421875 831.58404541015625 830.40673828125 829.22943115234375 826.962158203125 824.05584716796875 821.14947509765625 818.2431640625 820.2025146484375 822.1683349609375 824.1341552734375 827.3994140625 832.90643310546875 838.4134521484375 843.92047119140625 848.03125 851.63909912109375 855.24700927734375 858.36639404296875 857.25482177734375 856.1431884765625 855.03155517578125 852.08843994140625 847.0947265625 842.10101318359375 837.1072998046875 833.27777099609375 829.66986083984375 826.06195068359375 823.990966796875 827.759765625 831.528564453125 835.29736328125 836.1480712890625 834.8563232421875 833.56451416015625 832.27276611328125 831.79791259765625 831.3707275390625 830.94354248046875 830.36767578125 829.4656982421875 828.563720703125 827.6617431640625 825.1358642578125 821.85089111328125 818.56591796875 815.46282958984375 815.8333740234375 816.20391845703125 816.574462890625 817.9771728515625 820.81683349609375 823.65643310546875 826.49609375 822.61578369140625 816.9093017578125 811.202880859375 805.87652587890625 802.62896728515625 799.38140869140625 796.13385009765625 793.43255615234375 791.229736328125 789.02691650390625 786.8240966796875 783.910400390625 780.90985107421875 777.9093017578125 775.34381103515625 774.02008056640625 772.69635009765625 771.37261962890625 770.3955078125 769.62396240234375 768.8524169921875 768.08087158203125 767.46051025390625 766.8408203125 766.22113037109375 765.18035888671875 763.40472412109375 761.62908935546875 759.85345458984375 758.86395263671875 758.161376953125 757.4588623046875 756.7984619140625 756.5140380859375 756.22967529296875 755.94525146484375 756.60064697265625 758.31964111328125 760.03857421875 761.757568359375 762.48211669921875 763.0135498046875 763.54498291015625 763.818603515625 763.0968017578125 762.375 761.6531982421875 762.34857177734375 764.09588623046875 765.8431396484375 767.5904541015625 767.3155517578125 766.91668701171875 766.517822265625 766.14251708984375 765.819580078125 765.49664306640625 765.1737060546875 764.00006103515625 762.423828125 760.84765625 759.241943359375 757.03912353515625 754.83636474609375 752.633544921875 751.06561279296875 750.39141845703125 749.71722412109375 749.04296875 748.294189453125 747.5247802734375 746.75537109375 746.1029052734375 746.1029052734375 
895.9945068359375 895.9945068359375 895.2410888671875 894.139892578125 893.0386962890625 891.7354736328125 886.77984619140625 881.82421875 876.86859130859375 872.49176025390625 868.911865234375 865.33197021484375 861.75213623046875 861.64825439453125 862.47412109375 863.29998779296875 863.909423828125 863.3592529296875 862.80902099609375 862.25885009765625 859.24859619140625 854.01739501953125 848.7862548828125 843.5550537109375 841.0301513671875 838.82672119140625 836.62335205078125 834.708740234375 833.60723876953125 832.50567626953125 831.4041748046875 828.91448974609375 825.61077880859375 822.30706787109375 819.00341796875 820.37469482421875 821.75225830078125 823.1297607421875 826.02264404296875 831.5296630859375 837.03668212890625 842.543701171875 846.43145751953125 849.736083984375 853.04071044921875 855.74700927734375 853.2706298828125 850.7943115234375 848.31793212890625 845.19049072265625 841.33404541015625 837.47760009765625 833.62115478515625 830.228271484375 826.92364501953125 823.6190185546875 821.51959228515625 823.99951171875 826.4793701171875 828.95928955078125 828.73968505859375 826.5380859375 824.33648681640625 822.1348876953125 821.75323486328125 821.4776611328125 821.20208740234375 820.75408935546875 819.927978515625 819.101806640625 818.275634765625 816.13555908203125 813.38134765625 810.62713623046875 808.05096435546875 808.87640380859375 809.701904296875 810.52734375 812.73358154296875 816.86212158203125 820.99072265625 825.1192626953125 821.45477294921875 815.6724853515625 809.89019775390625 804.406005859375 800.5518798828125 796.69775390625 792.84368896484375 789.85296630859375 787.650146484375 785.44732666015625 783.2445068359375 780.060546875 776.7567138671875 773.45294189453125 770.8038330078125 770.023681640625 769.2435302734375 768.46337890625 767.89874267578125 767.46197509765625 767.025146484375 766.58837890625 766.15179443359375 765.7152099609375 765.27862548828125 764.29901123046875 762.37176513671875 760.44451904296875 758.51727294921875 757.5982666015625 757.04736328125 756.4964599609375 756.0565185546875 756.60614013671875 757.15570068359375 757.705322265625 759.15911865234375 761.63629150390625 764.11346435546875 766.59063720703125 766.99395751953125 766.99468994140625 766.99542236328125 766.76953125 765.66864013671875 764.5677490234375 763.466796875 764.26177978515625 766.4639892578125 768.66619873046875 770.868408203125 770.47686767578125 769.9263916015625 769.3758544921875 768.825439453125 768.2750244140625 767.724609375 767.1741943359375 765.87603759765625 764.2239990234375 762.572021484375 760.89410400390625 758.6912841796875 756.48846435546875 754.28564453125 752.65478515625 751.82891845703125 751.0030517578125 750.17718505859375 748.9202880859375 747.5443115234375 746.16839599609375 745.00146484375 745.00146484375 
897.64990234375 897.64990234375 897 896.050048828125 895.10003662109375 893.98370361328125 889.86029052734375 885.73681640625 881.6134033203125 877.62322998046875 873.81646728515625 870.009765625 866.20306396484375 865.81256103515625 866.335693359375 866.85888671875 867.10601806640625 865.8739013671875 864.6417236328125 863.4095458984375 860.2744140625 855.42132568359375 850.5682373046875 845.71514892578125 843.50164794921875 841.60174560546875 839.7017822265625 837.89202880859375 836.33636474609375 834.7806396484375 833.22491455078125 830.99658203125 828.373779296875 825.75103759765625 823.12823486328125 824.12158203125 825.1197509765625 826.117919921875 828.65948486328125 833.8636474609375 839.06781005859375 844.27197265625 847.6339111328125 850.3323974609375 853.0308837890625 855.13079833984375 852.04693603515625 848.9630126953125 845.87908935546875 842.395751953125 838.465087890625 834.534423828125 830.60382080078125 827.2845458984375 824.0816650390625 820.87884521484375 818.692626953125 820.36932373046875 822.04608154296875 823.7227783203125 823.44256591796875 821.7254638671875 820.0084228515625 818.2913818359375 817.894775390625 817.57513427734375 817.2554931640625 816.81085205078125 816.09197998046875 815.373046875 814.6541748046875 812.918701171875 810.7080078125 808.497314453125 806.42047119140625 806.8994140625 807.3782958984375 807.85723876953125 809.33758544921875 812.21209716796875 815.086669921875 817.961181640625 814.56451416015625 809.46356201171875 804.36260986328125 799.5596923828125 796.38623046875 793.2127685546875 790.039306640625 787.49212646484375 785.5164794921875 783.540771484375 781.56512451171875 778.77056884765625 775.87603759765625 772.9814453125 770.70281982421875 770.182373046875 769.66192626953125 769.1414794921875 768.98675537109375 769.04901123046875 769.11126708984375 769.1734619140625 768.70782470703125 768.24005126953125 767.772216796875 766.69000244140625 764.53533935546875 762.3807373046875 760.22613525390625 759.2464599609375 758.69580078125 758.14508056640625 757.75128173828125 758.75628662109375 759.76129150390625 760.76629638671875 762.46240234375 764.9405517578125 767.418701171875 769.8968505859375 770.1729736328125 770.02154541015625 769.8701171875 769.46099853515625 768.0567626953125 766.6524658203125 765.2481689453125 766.00115966796875 768.35540771484375 770.70965576171875 773.06390380859375 772.82366943359375 772.42437744140625 772.025146484375 771.4613037109375 770.531982421875 769.60272216796875 768.67340087890625 767.0478515625 765.0928955078125 763.137939453125 761.18194580078125 759.206298828125 757.23065185546875 755.2550048828125 753.7568359375 752.9307861328125 752.104736328125 751.2786865234375 749.96173095703125 748.50921630859375 747.0567626953125 745.824951171875 745.824951171875 
899.302001953125 899.302001953125 898.755859375 897.95751953125 897.1591796875 896.230224609375 892.9407958984375 889.6513671875 886.3619384765625 882.75921630859375 878.72503662109375 874.69085693359375 870.65667724609375 869.9788818359375 870.19879150390625 870.418701171875 870.302978515625 868.388427734375 866.473876953125 864.55938720703125 861.29974365234375 856.82574462890625 852.35174560546875 847.87774658203125 845.97552490234375 844.37890625 842.7822265625 841.0770263671875 839.06640625 837.0557861328125 835.045166015625 833.07879638671875 831.138427734375 829.197998046875 827.25762939453125 827.873291015625 828.49237060546875 829.1114501953125 831.3017578125 836.20263671875 841.103515625 846.00439453125 848.840087890625 850.9320068359375 853.02392578125 854.517333984375 850.826904296875 847.13641357421875 843.44598388671875 839.6064453125 835.5999755859375 831.593505859375 827.5870361328125 824.3409423828125 821.23956298828125 818.13818359375 815.8651123046875 816.73931884765625 817.613525390625 818.48779296875 818.14825439453125 816.9176025390625 815.68695068359375 814.45623779296875 814.0445556640625 813.68060302734375 813.316650390625 812.87518310546875 812.26361083984375 811.65203857421875 811.0404052734375 809.70953369140625 808.04241943359375 806.37530517578125 804.79766845703125 804.92901611328125 805.060302734375 805.191650390625 805.944091796875 807.5611572265625 809.17828369140625 810.79534912109375 807.66656494140625 803.24798583984375 798.82940673828125 794.7088623046875 792.21771240234375 789.72662353515625 787.23553466796875 785.13287353515625 783.38470458984375 781.636474609375 779.88824462890625 777.4840087890625 774.99969482421875 772.51531982421875 770.60772705078125 770.34661865234375 770.08551025390625 769.8243408203125 770.07958984375 770.64105224609375 771.2025146484375 771.7640380859375 771.26898193359375 770.76971435546875 770.27044677734375 769.08526611328125 766.70318603515625 764.3211669921875 761.9390869140625 760.89862060546875 760.347900390625 759.79718017578125 759.44921875 760.9091796875 762.36907958984375 763.8289794921875 765.7666015625 768.2447509765625 770.722900390625 773.20111083984375 773.3502197265625 773.04718017578125 772.74407958984375 772.15216064453125 770.444580078125 768.737060546875 767.02947998046875 767.74029541015625 770.2462158203125 772.7520751953125 775.2579345703125 775.16937255859375 774.9217529296875 774.674072265625 774.0970458984375 772.7886962890625 771.48028564453125 770.17193603515625 768.21875 765.96051025390625 763.7022705078125 761.468017578125 759.71978759765625 757.97161865234375 756.223388671875 754.85821533203125 754.03216552734375 753.20611572265625 752.38006591796875 751.00372314453125 749.47540283203125 747.94708251953125 746.6510009765625 746.6510009765625 
900.9541015625 900.9541015625 900.51171875 899.864990234375 899.21832275390625 898.476806640625 896.0213623046875 893.56591796875 891.1104736328125 887.89520263671875 883.633544921875 879.3719482421875 875.11029052734375 874.14520263671875 874.0618896484375 873.978515625 873.4998779296875 870.9029541015625 868.30609130859375 865.70916748046875 862.32501220703125 858.2301025390625 854.13519287109375 850.040283203125 848.449462890625 847.15606689453125 845.8626708984375 844.26202392578125 841.7965087890625 839.3309326171875 836.86541748046875 835.16107177734375 833.903076171875 832.64501953125 831.38702392578125 831.625 831.864990234375 832.10498046875 833.9439697265625 838.54156494140625 843.13916015625 847.73681640625 850.04620361328125 851.5316162109375 853.0169677734375 853.90386962890625 849.60687255859375 845.30987548828125 841.0128173828125 836.817138671875 832.73486328125 828.652587890625 824.5703125 821.3973388671875 818.3974609375 815.3975830078125 813.03765869140625 813.109375 813.1810302734375 813.25274658203125 812.85394287109375 812.10968017578125 811.36541748046875 810.62115478515625 810.19439697265625 809.7861328125 809.3778076171875 808.93951416015625 808.43524169921875 807.93096923828125 807.42669677734375 806.5003662109375 805.3768310546875 804.2532958984375 803.1749267578125 802.9586181640625 802.7423095703125 802.52606201171875 802.550537109375 802.91021728515625 803.2698974609375 803.62957763671875 800.76861572265625 797.03240966796875 793.29620361328125 789.85797119140625 788.04925537109375 786.24053955078125 784.43182373046875 782.77362060546875 781.25286865234375 779.73211669921875 778.21142578125 776.19744873046875 774.123291015625 772.0491943359375 770.51263427734375 770.5108642578125 770.509033203125 770.50726318359375 771.17242431640625 772.23309326171875 773.2938232421875 774.35455322265625 773.83013916015625 773.29937744140625 772.76861572265625 771.4805908203125 768.87109375 766.26153564453125 763.65203857421875 762.55072021484375 762 761.44927978515625 761.147216796875 763.06207275390625 764.97686767578125 766.8917236328125 769.07080078125 771.5489501953125 774.02716064453125 776.50531005859375 776.5274658203125 776.07275390625 775.6180419921875 774.84326171875 772.83245849609375 770.8216552734375 768.810791015625 769.47943115234375 772.136962890625 774.79449462890625 777.4520263671875 777.51507568359375 777.4190673828125 777.32305908203125 776.73284912109375 775.04541015625 773.35791015625 771.67047119140625 769.3896484375 766.828125 764.2666015625 761.75408935546875 760.23333740234375 758.71258544921875 757.19183349609375 755.95965576171875 755.13360595703125 754.3074951171875 753.4814453125 752.04571533203125 750.44158935546875 748.83746337890625 747.47705078125 747.47705078125 
904.4249267578125 904.4249267578125 904.06719970703125 903.5443115234375 903.021484375 902.41180419921875 900.23394775390625 898.05609130859375 895.87823486328125 892.70465087890625 888.159912109375 883.61517333984375 879.0704345703125 877.58685302734375 876.9219970703125 876.2572021484375 875.20306396484375 872.06292724609375 868.9227294921875 865.7825927734375 862.34344482421875 858.63433837890625 854.92523193359375 851.216064453125 850.005859375 849.092529296875 848.17913818359375 846.95123291015625 844.83758544921875 842.72393798828125 840.6103515625 839.4837646484375 838.9359130859375 838.3880615234375 837.8402099609375 837.25604248046875 836.6717529296875 836.0875244140625 837.03826904296875 840.63702392578125 844.23583984375 847.83465576171875 849.5408935546875 850.5655517578125 851.59014892578125 852.08111572265625 847.94989013671875 843.818603515625 839.6873779296875 835.6221923828125 831.63104248046875 827.639892578125 823.648681640625 820.37274169921875 817.23297119140625 814.0931396484375 811.5050048828125 811.01287841796875 810.520751953125 810.02862548828125 809.56866455078125 809.13232421875 808.69598388671875 808.2596435546875 807.86956787109375 807.482177734375 807.09478759765625 806.81915283203125 806.78857421875 806.75799560546875 806.7274169921875 806.0316162109375 805.02490234375 804.0181884765625 803.03509521484375 802.5037841796875 801.972412109375 801.4410400390625 800.8980712890625 800.3388671875 799.77972412109375 799.22052001953125 796.5684814453125 793.3477783203125 790.12701416015625 787.19989013671875 785.8787841796875 784.55767822265625 783.236572265625 781.90093994140625 780.552001953125 779.20306396484375 777.8541259765625 776.10491943359375 774.30682373046875 772.5087890625 771.2872314453125 771.71142578125 772.13555908203125 772.55975341796875 773.52947998046875 774.82281494140625 776.1160888671875 777.40936279296875 776.67205810546875 775.9266357421875 775.18115234375 773.694091796875 770.91278076171875 768.13140869140625 765.35009765625 764.24359130859375 763.74853515625 763.25347900390625 763.03607177734375 765.29449462890625 767.552978515625 769.8114013671875 772.1337890625 774.52850341796875 776.9232177734375 779.31793212890625 779.17620849609375 778.54205322265625 777.90789794921875 776.99114990234375 774.98309326171875 772.9749755859375 770.9669189453125 771.6759033203125 774.40155029296875 777.12725830078125 779.85296630859375 779.98419189453125 779.95635986328125 779.92852783203125 779.328125 777.456298828125 775.58447265625 773.712646484375 771.20458984375 768.3953857421875 765.58624267578125 762.83538818359375 761.26385498046875 759.69232177734375 758.120849609375 756.847412109375 755.9935302734375 755.1396484375 754.2857666015625 752.87176513671875 751.3031005859375 749.7344970703125 748.4041748046875 748.4041748046875 
911.03338623046875 911.03338623046875 910.7275390625 910.28045654296875 909.83343505859375 909.25982666015625 906.39959716796875 903.5394287109375 900.67919921875 896.9508056640625 892.0269775390625 887.1031494140625 882.1793212890625 879.77825927734375 878.05194091796875 876.32562255859375 874.32928466796875 870.8858642578125 867.44244384765625 863.9990234375 860.62481689453125 857.31304931640625 854.00128173828125 850.6895751953125 849.9796142578125 849.57867431640625 849.17779541015625 848.7850341796875 848.41522216796875 848.04541015625 847.6756591796875 847.67156982421875 847.88189697265625 848.09222412109375 848.3026123046875 846.12933349609375 843.952880859375 841.77642822265625 840.91241455078125 842.31243896484375 843.7125244140625 845.11260986328125 846.0828857421875 846.8983154296875 847.71380615234375 848.17230224609375 845.53912353515625 842.906005859375 840.2728271484375 837.17779541015625 833.56573486328125 829.95367431640625 826.34161376953125 822.65887451171875 818.962646484375 815.26641845703125 812.20611572265625 811.56201171875 810.9178466796875 810.27374267578125 809.7493896484375 809.31304931640625 808.876708984375 808.4404296875 808.17633056640625 807.92230224609375 807.66827392578125 807.83050537109375 808.90576171875 809.98095703125 811.05615234375 810.29052734375 808.6644287109375 807.038330078125 805.45379638671875 804.6634521484375 803.8731689453125 803.0828857421875 802.249267578125 801.35528564453125 800.46136474609375 799.56744384765625 797.022705078125 794.0294189453125 791.0361328125 788.32476806640625 787.1552734375 785.98583984375 784.81634521484375 783.5926513671875 782.31951904296875 781.04644775390625 779.7733154296875 778.07220458984375 776.31884765625 774.56549072265625 773.56219482421875 774.6998291015625 775.83746337890625 776.97509765625 778.06768798828125 779.133544921875 780.19940185546875 781.26519775390625 779.9984130859375 778.72222900390625 777.446044921875 775.59393310546875 772.73675537109375 769.879638671875 767.0224609375 766.00677490234375 765.663330078125 765.3199462890625 765.254150390625 767.66424560546875 770.0743408203125 772.48443603515625 774.7806396484375 776.9478759765625 779.1151123046875 781.2823486328125 780.9132080078125 780.05157470703125 779.18994140625 778.20172119140625 776.724365234375 775.24700927734375 773.76971435546875 774.6612548828125 777.31109619140625 779.96099853515625 782.61083984375 782.666259765625 782.5626220703125 782.458984375 781.85333251953125 780.1331787109375 778.41302490234375 776.69281005859375 774.1304931640625 771.169677734375 768.20892333984375 765.28851318359375 763.186279296875 761.08404541015625 758.9818115234375 757.36663818359375 756.43695068359375 755.5072021484375 754.5775146484375 753.32537841796875 751.98419189453125 750.64300537109375 749.50555419921875 749.50555419921875 
917.641845703125 917.641845703125 917.3878173828125 917.0166015625 916.64532470703125 916.10784912109375 912.56524658203125 909.022705078125 905.4801025390625 901.19696044921875 895.89404296875 890.59112548828125 885.2882080078125 881.96966552734375 879.181884765625 876.39410400390625 873.45556640625 869.7088623046875 865.962158203125 862.2154541015625 858.90618896484375 855.9918212890625 853.077392578125 850.16302490234375 849.95330810546875 850.06488037109375 850.1763916015625 850.61883544921875 851.99285888671875 853.36688232421875 854.740966796875 855.859375 856.827880859375 857.79638671875 858.76495361328125 855.00262451171875 851.2340087890625 847.46539306640625 844.78656005859375 843.9879150390625 843.189208984375 842.39056396484375 842.62481689453125 843.23114013671875 843.83740234375 844.263427734375 843.12841796875 841.99334716796875 840.8582763671875 838.7333984375 835.50042724609375 832.2674560546875 829.03448486328125 824.9449462890625 820.69232177734375 816.43975830078125 812.90728759765625 812.11114501953125 811.31500244140625 810.518798828125 809.93017578125 809.49383544921875 809.0574951171875 808.62115478515625 808.48309326171875 808.36236572265625 808.24169921875 808.8419189453125 811.02288818359375 813.20391845703125 815.38494873046875 814.54937744140625 812.30389404296875 810.05841064453125 807.8724365234375 806.82318115234375 805.77392578125 804.72467041015625 803.60040283203125 802.3717041015625 801.14300537109375 799.914306640625 797.4769287109375 794.7110595703125 791.94525146484375 789.44964599609375 788.4317626953125 787.4139404296875 786.3961181640625 785.284423828125 784.08709716796875 782.88983154296875 781.6925048828125 780.03955078125 778.33087158203125 776.6221923828125 775.83709716796875 777.688232421875 779.53936767578125 781.3905029296875 782.60589599609375 783.44427490234375 784.28265380859375 785.12103271484375 783.32470703125 781.517822265625 779.71087646484375 777.4937744140625 774.560791015625 771.6278076171875 768.69482421875 767.76995849609375 767.57818603515625 767.38641357421875 767.4722900390625 770.03399658203125 772.595703125 775.157470703125 777.42742919921875 779.3671875 781.3070068359375 783.24676513671875 782.65020751953125 781.56109619140625 780.4720458984375 779.41229248046875 778.46563720703125 777.51904296875 776.57244873046875 777.6466064453125 780.22064208984375 782.794677734375 785.3687744140625 785.34832763671875 785.16888427734375 784.98944091796875 784.37860107421875 782.81005859375 781.24151611328125 779.6729736328125 777.05645751953125 773.9439697265625 770.83154296875 767.74169921875 765.1087646484375 762.47576904296875 759.84283447265625 757.88580322265625 756.88031005859375 755.87481689453125 754.8692626953125 753.77899169921875 752.66522216796875 751.551513671875 750.60699462890625 750.60699462890625 
924.250244140625 924.250244140625 924.04815673828125 923.75274658203125 923.457275390625 922.95587158203125 918.73095703125 914.5059814453125 910.281005859375 905.44305419921875 899.76104736328125 894.07904052734375 888.39703369140625 884.16107177734375 880.31182861328125 876.46258544921875 872.581787109375 868.53179931640625 864.48187255859375 860.431884765625 857.18756103515625 854.6705322265625 852.15350341796875 849.63653564453125 849.927001953125 850.551025390625 851.175048828125 852.45269775390625 855.570556640625 858.68841552734375 861.80621337890625 864.047119140625 865.77386474609375 867.50054931640625 869.227294921875 863.87591552734375 858.51507568359375 853.154296875 848.66070556640625 845.663330078125 842.6658935546875 839.66851806640625 839.16680908203125 839.56390380859375 839.9610595703125 840.3546142578125 840.7176513671875 841.0806884765625 841.4437255859375 840.2890625 837.43511962890625 834.58123779296875 831.72735595703125 827.23101806640625 822.42205810546875 817.613037109375 813.6083984375 812.6602783203125 811.71209716796875 810.763916015625 810.11090087890625 809.674560546875 809.23822021484375 808.8018798828125 808.789794921875 808.802490234375 808.815185546875 809.85333251953125 813.14007568359375 816.4268798828125 819.71368408203125 818.80828857421875 815.94342041015625 813.07855224609375 810.29107666015625 808.98291015625 807.67474365234375 806.36651611328125 804.95159912109375 803.38812255859375 801.82464599609375 800.26116943359375 797.93109130859375 795.39276123046875 792.8543701171875 790.574462890625 789.708251953125 788.842041015625 787.975830078125 786.9761962890625 785.85467529296875 784.73321533203125 783.61175537109375 782.0068359375 780.3428955078125 778.678955078125 778.11199951171875 780.6766357421875 783.24127197265625 785.80584716796875 787.14410400390625 787.7550048828125 788.365966796875 788.97686767578125 786.65106201171875 784.31341552734375 781.97576904296875 779.39361572265625 776.38482666015625 773.37603759765625 770.36724853515625 769.53314208984375 769.49298095703125 769.452880859375 769.69036865234375 772.40374755859375 775.11712646484375 777.83050537109375 780.07421875 781.78656005859375 783.4989013671875 785.21124267578125 784.38720703125 783.0706787109375 781.754150390625 780.62286376953125 780.20697021484375 779.79107666015625 779.375244140625 780.6319580078125 783.13018798828125 785.62841796875 788.12664794921875 788.0303955078125 787.775146484375 787.51983642578125 786.90386962890625 785.4869384765625 784.070068359375 782.65313720703125 779.98236083984375 776.71832275390625 773.4542236328125 770.19488525390625 767.03118896484375 763.86749267578125 760.70379638671875 758.405029296875 757.32373046875 756.24237060546875 755.16107177734375 754.2325439453125 753.3463134765625 752.46002197265625 751.7083740234375 751.7083740234375 
923.7730712890625 923.7730712890625 923.47027587890625 923.0277099609375 922.58514404296875 921.95819091796875 917.99853515625 914.038818359375 910.07916259765625 905.587158203125 900.36224365234375 895.13726806640625 889.912353515625 885.24322509765625 880.72271728515625 876.20220947265625 871.74310302734375 867.61285400390625 863.4825439453125 859.352294921875 856.44036865234375 854.6282958984375 852.81622314453125 851.00421142578125 851.50286865234375 852.27593994140625 853.049072265625 854.5870361328125 858.278076171875 861.9691162109375 865.66021728515625 868.16925048828125 869.9852294921875 871.8011474609375 873.61712646484375 867.5108642578125 861.39404296875 855.27716064453125 850.0828857421875 846.48016357421875 842.87744140625 839.27471923828125 838.548095703125 838.85723876953125 839.16632080078125 839.5220947265625 840.28179931640625 841.04150390625 841.8011474609375 840.9296875 838.23187255859375 835.53411865234375 832.83636474609375 828.33489990234375 823.49005126953125 818.64520263671875 814.56500244140625 813.39019775390625 812.21539306640625 811.04058837890625 810.32147216796875 809.9368896484375 809.55224609375 809.16766357421875 809.26641845703125 809.393310546875 809.52020263671875 810.78082275390625 814.527587890625 818.2744140625 822.021240234375 821.0745849609375 817.93426513671875 814.79388427734375 811.74127197265625 810.364501953125 808.98779296875 807.61102294921875 806.119140625 804.467041015625 802.81494140625 801.162841796875 798.90496826171875 796.48260498046875 794.0601806640625 791.89312744140625 791.122802734375 790.3525390625 789.58221435546875 788.58050537109375 787.36761474609375 786.15472412109375 784.9417724609375 783.2381591796875 781.47454833984375 779.7109375 779.1192626953125 781.872802734375 784.62628173828125 787.37982177734375 788.78558349609375 789.39202880859375 789.99847412109375 790.60491943359375 788.08355712890625 785.5496826171875 783.0157470703125 780.32183837890625 777.34869384765625 774.3756103515625 771.4024658203125 770.60736083984375 770.60736083984375 770.60736083984375 770.890625 773.69989013671875 776.5091552734375 779.31842041015625 781.55865478515625 783.155029296875 784.75140380859375 786.3477783203125 785.4544677734375 784.07769775390625 782.700927734375 781.56219482421875 781.34259033203125 781.1229248046875 780.9033203125 782.16815185546875 784.53485107421875 786.90155029296875 789.2681884765625 789.0928955078125 788.7618408203125 788.43072509765625 787.77490234375 786.398193359375 785.02142333984375 783.6446533203125 780.92169189453125 777.56170654296875 774.2017822265625 770.841796875 767.4818115234375 764.12188720703125 760.76190185546875 758.36322021484375 757.31756591796875 756.27191162109375 755.22625732421875 754.52740478515625 753.92431640625 753.32122802734375 752.809814453125 752.809814453125 
920.74420166015625 920.74420166015625 920.28582763671875 919.61578369140625 918.94573974609375 918.13507080078125 914.78192138671875 911.42877197265625 908.07568359375 904.2540283203125 899.78729248046875 895.32049560546875 890.853759765625 885.9259033203125 880.8746337890625 875.82342529296875 870.91705322265625 866.78680419921875 862.656494140625 858.5262451171875 856.04296875 855.04669189453125 854.05035400390625 853.05401611328125 853.6556396484375 854.447021484375 855.2384033203125 856.82958984375 860.6722412109375 864.51495361328125 868.357666015625 870.8271484375 872.49151611328125 874.15582275390625 875.8201904296875 869.2593994140625 862.6876220703125 856.1158447265625 850.62200927734375 846.98779296875 843.35357666015625 839.7193603515625 838.95184326171875 839.21661376953125 839.4814453125 839.7974853515625 840.55712890625 841.31683349609375 842.0765380859375 841.24078369140625 838.61883544921875 835.99688720703125 833.37493896484375 829.01300048828125 824.31976318359375 819.6265869140625 815.61358642578125 814.185302734375 812.7569580078125 811.32867431640625 810.54278564453125 810.22857666015625 809.91436767578125 809.60015869140625 809.80413818359375 810.038330078125 810.27252197265625 811.6781005859375 815.65234375 819.62664794921875 823.60089111328125 822.6234130859375 819.33135986328125 816.03936767578125 812.84271240234375 811.4659423828125 810.08917236328125 808.71240234375 807.2205810546875 805.56842041015625 803.91632080078125 802.26422119140625 800.0660400390625 797.71942138671875 795.372802734375 793.2816162109375 792.587158203125 791.89263916015625 791.1981201171875 790.1533203125 788.78875732421875 787.42425537109375 786.0596923828125 784.20440673828125 782.2891845703125 780.37396240234375 779.66998291015625 782.4234619140625 785.177001953125 787.9305419921875 789.38385009765625 790.066162109375 790.7484130859375 791.4306640625 788.8341064453125 786.224365234375 783.6146240234375 780.900146484375 778.00286865234375 775.10552978515625 772.208251953125 771.43341064453125 771.43341064453125 771.43341064453125 771.72430419921875 774.60943603515625 777.4945068359375 780.37957763671875 782.62451171875 784.14508056640625 785.66558837890625 787.1861572265625 786.280517578125 784.90374755859375 783.5269775390625 782.40380859375 782.260009765625 782.1162109375 781.97247314453125 783.18255615234375 785.3975830078125 787.61260986328125 789.82763671875 789.57220458984375 789.165283203125 788.75836181640625 788.05029296875 786.67352294921875 785.2967529296875 783.91998291015625 781.14556884765625 777.70977783203125 774.27398681640625 770.83819580078125 767.4024658203125 763.9666748046875 760.5308837890625 758.119384765625 757.1495361328125 756.1796875 755.2098388671875 754.76507568359375 754.46527099609375 754.16546630859375 753.91119384765625 753.91119384765625 
917.71533203125 917.71533203125 917.101318359375 916.203857421875 915.30633544921875 914.31195068359375 911.56536865234375 908.81878662109375 906.07220458984375 902.9208984375 899.21234130859375 895.50372314453125 891.795166015625 886.6085205078125 881.026611328125 875.44464111328125 870.09100341796875 865.96075439453125 861.8304443359375 857.7001953125 855.6456298828125 855.46502685546875 855.28448486328125 855.1038818359375 855.80841064453125 856.6180419921875 857.427734375 859.0721435546875 863.06646728515625 867.060791015625 871.05511474609375 873.485107421875 874.997802734375 876.510498046875 878.023193359375 871.00787353515625 863.981201171875 856.95452880859375 851.16119384765625 847.4954833984375 843.82977294921875 840.1640625 839.3555908203125 839.5760498046875 839.7965087890625 840.07281494140625 840.83251953125 841.5921630859375 842.35186767578125 841.55194091796875 839.00579833984375 836.45965576171875 833.91351318359375 829.6910400390625 825.14947509765625 820.60791015625 816.66217041015625 814.9803466796875 813.29852294921875 811.61669921875 810.76409912109375 810.520263671875 810.27642822265625 810.0325927734375 810.34185791015625 810.68341064453125 811.02490234375 812.57537841796875 816.777099609375 820.97882080078125 825.1805419921875 824.17218017578125 820.728515625 817.284912109375 813.944091796875 812.56732177734375 811.19061279296875 809.8138427734375 808.32196044921875 806.66986083984375 805.01776123046875 803.3656005859375 801.22705078125 798.95623779296875 796.68548583984375 794.67010498046875 794.05145263671875 793.4327392578125 792.8140869140625 791.72613525390625 790.2099609375 788.69378662109375 787.1776123046875 785.17071533203125 783.10382080078125 781.03692626953125 780.22064208984375 782.97418212890625 785.72772216796875 788.481201171875 789.982177734375 790.740234375 791.49835205078125 792.25640869140625 789.58465576171875 786.89910888671875 784.21356201171875 781.478515625 778.656982421875 775.83551025390625 773.0140380859375 772.25946044921875 772.25946044921875 772.25946044921875 772.55804443359375 775.5189208984375 778.47979736328125 781.44073486328125 783.69036865234375 785.13507080078125 786.579833984375 788.0245361328125 787.1065673828125 785.72979736328125 784.35302734375 783.2454833984375 783.177490234375 783.1094970703125 783.04156494140625 784.1968994140625 786.26031494140625 788.32373046875 790.38714599609375 790.05145263671875 789.5687255859375 789.08599853515625 788.32562255859375 786.9488525390625 785.5721435546875 784.19537353515625 781.36944580078125 777.85784912109375 774.34625244140625 770.83465576171875 767.32305908203125 763.81146240234375 760.29986572265625 757.87548828125 756.98150634765625 756.08746337890625 755.19342041015625 755.00274658203125 755.00616455078125 755.0096435546875 755.0125732421875 755.0125732421875 
915.2850341796875 915.2850341796875 914.547607421875 913.4697265625 912.391845703125 911.254638671875 909.0439453125 906.83331298828125 904.62261962890625 902.02813720703125 898.90509033203125 895.78204345703125 892.65899658203125 887.23291015625 881.19091796875 875.14886474609375 869.42352294921875 865.395263671875 861.36700439453125 857.3387451171875 855.74578857421875 856.3514404296875 856.95709228515625 857.562744140625 858.35833740234375 859.17657470703125 859.9947509765625 861.65435791015625 865.6826171875 869.71087646484375 873.7391357421875 876.03155517578125 877.30633544921875 878.5810546875 879.85577392578125 872.44073486328125 865.01409912109375 857.58746337890625 851.54656982421875 847.896484375 844.24639892578125 840.59625244140625 839.7626953125 839.94342041015625 840.1241455078125 840.363525390625 841.11077880859375 841.8580322265625 842.60528564453125 841.830810546875 839.3526611328125 836.87451171875 834.3963623046875 830.3450927734375 825.99444580078125 821.64373779296875 817.79510498046875 815.85406494140625 813.9130859375 811.9720458984375 811.03997802734375 810.84869384765625 810.6573486328125 810.466064453125 810.87957763671875 811.32843017578125 811.7772216796875 813.46533203125 817.87091064453125 822.27655029296875 826.68218994140625 825.66217041015625 822.10614013671875 818.55010986328125 815.1029052734375 813.7340087890625 812.36505126953125 810.99615478515625 809.51873779296875 807.89013671875 806.2615966796875 804.63299560546875 802.5714111328125 800.39215087890625 798.212890625 796.28778076171875 795.7528076171875 795.2177734375 794.68280029296875 793.5472412109375 791.86376953125 790.18023681640625 788.49676513671875 786.28753662109375 784.01409912109375 781.7406005859375 780.76116943359375 783.4754638671875 786.18975830078125 788.90399169921875 790.4576416015625 791.32293701171875 792.188232421875 793.05352783203125 790.36138916015625 787.65496826171875 784.94854736328125 782.2335205078125 779.5035400390625 776.7735595703125 774.04364013671875 773.31353759765625 773.31353759765625 773.31353759765625 773.61895751953125 776.6478271484375 779.67669677734375 782.70556640625 784.9520263671875 786.31304931640625 787.67413330078125 789.03521728515625 788.1036376953125 786.72686767578125 785.35009765625 784.2532958984375 784.23760986328125 784.22186279296875 784.2061767578125 785.27874755859375 787.1591796875 789.03955078125 790.919921875 790.47265625 789.8826904296875 789.292724609375 788.4462890625 787.0302734375 785.61431884765625 784.19830322265625 781.32965087890625 777.77362060546875 774.21759033203125 770.662353515625 767.12396240234375 763.58551025390625 760.04705810546875 757.64422607421875 756.83984375 756.03546142578125 755.23101806640625 755.3096923828125 755.63214111328125 755.95452880859375 756.22802734375 756.22802734375 
918.03851318359375 918.03851318359375 917.45672607421875 916.6063232421875 915.75592041015625 914.8302001953125 912.54376220703125 910.25726318359375 907.97076416015625 904.9495849609375 900.916748046875 896.88385009765625 892.85101318359375 887.35260009765625 881.462158203125 875.57177734375 870.12921142578125 867.08660888671875 864.04400634765625 861.00140380859375 860.155029296875 861.2913818359375 862.427734375 863.5640869140625 864.34832763671875 865.0906982421875 865.8331298828125 867.17840576171875 870.22100830078125 873.26361083984375 876.30621337890625 877.613037109375 877.90216064453125 878.1912841796875 878.4803466796875 871.13970947265625 863.78887939453125 856.43804931640625 850.6005859375 847.3739013671875 844.14715576171875 840.92047119140625 840.19903564453125 840.3797607421875 840.56048583984375 840.78741455078125 841.41455078125 842.0416259765625 842.66876220703125 841.830810546875 839.3526611328125 836.87451171875 834.3963623046875 830.79095458984375 826.97100830078125 823.15106201171875 819.6583251953125 817.40899658203125 815.15966796875 812.9102783203125 811.7886962890625 811.49517822265625 811.20159912109375 810.90802001953125 811.4173583984375 811.97344970703125 812.52960205078125 814.2913818359375 818.697021484375 823.10260009765625 827.50823974609375 826.64324951171875 823.31463623046875 819.986083984375 816.7587890625 815.4656982421875 814.172607421875 812.8795166015625 811.541259765625 810.14013671875 808.739013671875 807.33795166015625 805.5037841796875 803.552001953125 801.60015869140625 799.89080810546875 799.5074462890625 799.12408447265625 798.74072265625 797.51898193359375 795.53216552734375 793.54541015625 791.55865478515625 788.70831298828125 785.75250244140625 782.79669189453125 781.21356201171875 783.5487060546875 785.8839111328125 788.2191162109375 789.86956787109375 791.11395263671875 792.35833740234375 793.60272216796875 791.36517333984375 789.1136474609375 786.8621826171875 784.51922607421875 782.01666259765625 779.51416015625 777.01165771484375 776.3424072265625 776.3424072265625 776.3424072265625 776.6478271484375 779.67669677734375 782.70556640625 785.73443603515625 787.90972900390625 789.11920166015625 790.32861328125 791.53802490234375 790.581787109375 789.20501708984375 787.8282470703125 786.70025634765625 786.53289794921875 786.3656005859375 786.1982421875 786.94512939453125 788.37060546875 789.79608154296875 791.22149658203125 790.39080810546875 789.4217529296875 788.45269775390625 787.2271728515625 785.43206787109375 783.636962890625 781.8419189453125 779.005859375 775.67730712890625 772.3487548828125 769.02899169921875 765.88787841796875 762.746826171875 759.60577392578125 757.52215576171875 756.92694091796875 756.33172607421875 755.73651123046875 756.21685791015625 756.99420166015625 757.77154541015625 758.43084716796875 758.43084716796875 
920.79205322265625 920.79205322265625 920.3658447265625 919.742919921875 919.11993408203125 918.40582275390625 916.04351806640625 913.68121337890625 911.31890869140625 907.87103271484375 902.9283447265625 897.98565673828125 893.04296875 887.47222900390625 881.73345947265625 875.99468994140625 870.83489990234375 868.7779541015625 866.72100830078125 864.66400146484375 864.564208984375 866.2313232421875 867.89837646484375 869.56549072265625 870.33831787109375 871.0048828125 871.67144775390625 872.70245361328125 874.7593994140625 876.81640625 878.87335205078125 879.19451904296875 878.49798583984375 877.80145263671875 877.10491943359375 869.83868408203125 862.56365966796875 855.28863525390625 849.654541015625 846.85125732421875 844.0479736328125 841.2447509765625 840.6353759765625 840.81610107421875 840.996826171875 841.21136474609375 841.71832275390625 842.22528076171875 842.73223876953125 841.830810546875 839.3526611328125 836.87451171875 834.3963623046875 831.23681640625 827.94757080078125 824.6583251953125 821.52154541015625 818.9638671875 816.40618896484375 813.8485107421875 812.53741455078125 812.1416015625 811.74578857421875 811.3499755859375 811.955078125 812.6185302734375 813.281982421875 815.117431640625 819.5230712890625 823.92864990234375 828.33428955078125 827.624267578125 824.523193359375 821.42205810546875 818.4146728515625 817.1973876953125 815.9801025390625 814.7628173828125 813.56378173828125 812.39013671875 811.21649169921875 810.0428466796875 808.4361572265625 806.7117919921875 804.9874267578125 803.49383544921875 803.2620849609375 803.0303955078125 802.79864501953125 801.49066162109375 799.20062255859375 796.91058349609375 794.6204833984375 791.12908935546875 787.49090576171875 783.85272216796875 781.6658935546875 783.62200927734375 785.57806396484375 787.5341796875 789.281494140625 790.90496826171875 792.5284423828125 794.15191650390625 792.3690185546875 790.5723876953125 788.7757568359375 786.80487060546875 784.52984619140625 782.2547607421875 779.97967529296875 779.37127685546875 779.37127685546875 779.37127685546875 779.67669677734375 782.70556640625 785.73443603515625 788.7633056640625 790.86749267578125 791.92529296875 792.9830322265625 794.04083251953125 793.0599365234375 791.68316650390625 790.306396484375 789.147216796875 788.8282470703125 788.50927734375 788.1903076171875 788.61151123046875 789.58203125 790.5526123046875 791.52313232421875 790.3089599609375 788.9608154296875 787.6126708984375 786.008056640625 783.8338623046875 781.65966796875 779.4854736328125 776.68212890625 773.58099365234375 770.4798583984375 767.39556884765625 764.65185546875 761.90814208984375 759.16448974609375 757.4000244140625 757.0140380859375 756.62799072265625 756.241943359375 757.12408447265625 758.3563232421875 759.58856201171875 760.63360595703125 760.63360595703125 
923.5455322265625 923.5455322265625 923.27496337890625 922.8795166015625 922.4840087890625 921.9814453125 919.5433349609375 917.10516357421875 914.66705322265625 910.79254150390625 904.94000244140625 899.08746337890625 893.2349853515625 887.59185791015625 882.00469970703125 876.4176025390625 871.5406494140625 870.46929931640625 869.39794921875 868.32666015625 868.973388671875 871.17120361328125 873.36907958984375 875.56689453125 876.3282470703125 876.91900634765625 877.509765625 878.22650146484375 879.29779052734375 880.369140625 881.44049072265625 880.7760009765625 879.09381103515625 877.41162109375 875.7294921875 868.53765869140625 861.33843994140625 854.13922119140625 848.70849609375 846.32867431640625 843.94879150390625 841.5689697265625 841.07171630859375 841.25244140625 841.43316650390625 841.63525390625 842.02203369140625 842.40887451171875 842.795654296875 841.830810546875 839.3526611328125 836.87451171875 834.3963623046875 831.68267822265625 828.92413330078125 826.1656494140625 823.384765625 820.51873779296875 817.65277099609375 814.7867431640625 813.28619384765625 812.7880859375 812.2900390625 811.79193115234375 812.4927978515625 813.2635498046875 814.0343017578125 815.9434814453125 820.34912109375 824.7547607421875 829.16033935546875 828.6053466796875 825.731689453125 822.8580322265625 820.070556640625 818.9290771484375 817.78765869140625 816.64617919921875 815.58636474609375 814.64013671875 813.6939697265625 812.74774169921875 811.3685302734375 809.87164306640625 808.37469482421875 807.09686279296875 807.0167236328125 806.9366455078125 806.8565673828125 805.46234130859375 802.8690185546875 800.27569580078125 797.682373046875 793.5498046875 789.22930908203125 784.90875244140625 782.11822509765625 783.69525146484375 785.272216796875 786.8492431640625 788.693359375 790.69598388671875 792.69854736328125 794.70111083984375 793.372802734375 792.03106689453125 790.68939208984375 789.090576171875 787.04296875 784.995361328125 782.94775390625 782.400146484375 782.400146484375 782.400146484375 782.70556640625 785.73443603515625 788.7633056640625 791.79217529296875 793.8251953125 794.73138427734375 795.63751220703125 796.54364013671875 795.5380859375 794.161376953125 792.78460693359375 791.59423828125 791.12359619140625 790.65301513671875 790.182373046875 790.27783203125 790.79351806640625 791.30914306640625 791.82476806640625 790.22711181640625 788.4998779296875 786.77264404296875 784.7889404296875 782.23565673828125 779.682373046875 777.12908935546875 774.35833740234375 771.48468017578125 768.61102294921875 765.76220703125 763.41583251953125 761.06951904296875 758.72314453125 757.2779541015625 757.10107421875 756.92425537109375 756.74737548828125 758.03125 759.71844482421875 761.40557861328125 762.83642578125 762.83642578125 
926.299072265625 926.299072265625 926.08624267578125 925.77508544921875 925.4639892578125 925.03173828125 922.4105224609375 919.78924560546875 917.16802978515625 913.0604248046875 906.90618896484375 900.751953125 894.59771728515625 889.0670166015625 883.70306396484375 878.339111328125 873.788330078125 873.5953369140625 873.40234375 873.2093505859375 874.344970703125 876.6800537109375 879.01513671875 881.3502197265625 881.8345947265625 882.09912109375 882.36370849609375 882.5438232421875 882.4864501953125 882.4290771484375 882.3717041015625 880.84912109375 878.4674072265625 876.08575439453125 873.7041015625 867.0157470703125 860.32159423828125 853.62744140625 848.66192626953125 846.67852783203125 844.69512939453125 842.71173095703125 842.27587890625 842.39739990234375 842.51885986328125 842.6531982421875 842.89874267578125 843.14434814453125 843.389892578125 842.41796875 840.0828857421875 837.747802734375 835.4127197265625 832.77716064453125 830.0843505859375 827.39154052734375 824.6156005859375 821.52362060546875 818.431640625 815.3397216796875 813.7401123046875 813.23626708984375 812.732421875 812.2286376953125 813.165771484375 814.1868896484375 815.2080078125 817.26678466796875 821.600830078125 825.9349365234375 830.26904296875 829.9437255859375 827.44061279296875 824.9375 822.51123046875 821.55291748046875 820.59454345703125 819.63623046875 818.82293701171875 818.21148681640625 817.60003662109375 816.9886474609375 815.52227783203125 813.82354736328125 812.1248779296875 810.677734375 810.606201171875 810.53466796875 810.463134765625 808.9144287109375 806.017822265625 803.1212158203125 800.224609375 795.769775390625 791.12451171875 786.47930908203125 783.34075927734375 784.5029296875 785.6650390625 786.8271484375 788.6650390625 790.90362548828125 793.1422119140625 795.3807373046875 794.39959716796875 793.405517578125 792.41143798828125 791.18157958984375 789.540283203125 787.89898681640625 786.25762939453125 785.92352294921875 786.06658935546875 786.209716796875 786.6510009765625 789.75140380859375 792.851806640625 795.95220947265625 797.90179443359375 798.5489501953125 799.1961669921875 799.8433837890625 798.7657470703125 797.35321044921875 795.94073486328125 794.63922119140625 793.7666015625 792.8939208984375 792.02130126953125 791.7254638671875 791.85772705078125 791.989990234375 792.12225341796875 790.34747314453125 788.455810546875 786.5640869140625 784.3714599609375 781.5106201171875 778.6497802734375 775.78900146484375 773.049560546875 770.3675537109375 767.68560791015625 765.04071044921875 763.14599609375 761.2513427734375 759.356689453125 758.25469970703125 758.26849365234375 758.28228759765625 758.29608154296875 759.75347900390625 761.609375 763.46533203125 765.03924560546875 765.03924560546875 
929.0526123046875 929.0526123046875 928.78790283203125 928.40093994140625 928.01397705078125 927.4940185546875 924.56951904296875 921.64495849609375 918.720458984375 914.5966796875 908.821533203125 903.04638671875 897.271240234375 892.059814453125 886.9991455078125 881.9384765625 877.76251220703125 878.32769775390625 878.89288330078125 879.45806884765625 880.79400634765625 882.82586669921875 884.857666015625 886.88946533203125 886.79949951171875 886.45745849609375 886.115478515625 885.51025390625 884.1639404296875 882.817626953125 881.4713134765625 879.23333740234375 876.47259521484375 873.71185302734375 870.95111083984375 865.24652099609375 859.53802490234375 853.82952880859375 849.62237548828125 848.0052490234375 846.3880615234375 844.77093505859375 844.33978271484375 844.33563232421875 844.33154296875 844.33624267578125 844.41693115234375 844.4976806640625 844.57843017578125 843.6624755859375 841.630615234375 839.59881591796875 837.5670166015625 834.5977783203125 831.4500732421875 828.3023681640625 825.138427734375 821.9127197265625 818.68701171875 815.4613037109375 813.86407470703125 813.46246337890625 813.0609130859375 812.6593017578125 813.99005126953125 815.4217529296875 816.853515625 819.146728515625 823.32916259765625 827.5115966796875 831.694091796875 831.68218994140625 829.70977783203125 827.73736572265625 825.83050537109375 825.17547607421875 824.52044677734375 823.8653564453125 823.418701171875 823.26220703125 823.10565185546875 822.94915771484375 821.04345703125 818.66241455078125 816.28131103515625 814.23388671875 814.01068115234375 813.78753662109375 813.5643310546875 811.78472900390625 808.5848388671875 805.38494873046875 802.18511962890625 797.7647705078125 793.19537353515625 788.6259765625 785.425537109375 786.1328125 786.84002685546875 787.5472412109375 789.2633056640625 791.57769775390625 793.89208984375 796.20654296875 795.45220947265625 794.685546875 793.9189453125 793.05462646484375 792.0198974609375 790.985107421875 789.95037841796875 790.0006103515625 790.44696044921875 790.893310546875 791.62261962890625 794.8746337890625 798.126708984375 801.37872314453125 803.23095703125 803.49908447265625 803.7672119140625 804.0352783203125 802.83251953125 801.34417724609375 799.8558349609375 798.35382080078125 796.79876708984375 795.2437744140625 793.68878173828125 792.92816162109375 792.75714111328125 792.58612060546875 792.4151611328125 790.69427490234375 788.87841796875 787.0625 784.85150146484375 781.76324462890625 778.67498779296875 775.586669921875 772.87713623046875 770.3468017578125 767.81646728515625 765.34014892578125 763.95794677734375 762.57574462890625 761.19354248046875 760.46173095703125 760.64544677734375 760.82916259765625 761.01287841796875 762.38818359375 764.0924072265625 765.79669189453125 767.2420654296875 767.2420654296875 
931.80609130859375 931.80609130859375 931.489501953125 931.0267333984375 930.56402587890625 929.956298828125 926.728515625 923.500732421875 920.27288818359375 916.1329345703125 910.73687744140625 905.3408203125 899.94476318359375 895.0526123046875 890.29522705078125 885.53778076171875 881.7366943359375 883.06005859375 884.3834228515625 885.706787109375 887.24310302734375 888.97161865234375 890.70013427734375 892.4287109375 891.764404296875 890.8157958984375 889.86724853515625 888.47662353515625 885.8414306640625 883.2061767578125 880.57098388671875 877.61761474609375 874.477783203125 871.33795166015625 868.19805908203125 863.47735595703125 858.7545166015625 854.0316162109375 850.58282470703125 849.3319091796875 848.0810546875 846.83013916015625 846.40362548828125 846.27392578125 846.14422607421875 846.019287109375 845.9351806640625 845.85101318359375 845.76690673828125 844.90692138671875 843.17840576171875 841.44989013671875 839.7213134765625 836.41845703125 832.81585693359375 829.2132568359375 825.6612548828125 822.30181884765625 818.9423828125 815.58294677734375 813.988037109375 813.688720703125 813.38934326171875 813.09002685546875 814.8143310546875 816.65667724609375 818.49896240234375 821.02667236328125 825.0574951171875 829.08831787109375 833.119140625 833.42059326171875 831.97894287109375 830.53729248046875 829.14984130859375 828.79803466796875 828.4462890625 828.094482421875 828.0145263671875 828.31292724609375 828.61126708984375 828.90966796875 826.56463623046875 823.501220703125 820.43780517578125 817.78997802734375 817.4151611328125 817.04034423828125 816.66552734375 814.655029296875 811.15185546875 807.64874267578125 804.14556884765625 799.75982666015625 795.2662353515625 790.77264404296875 787.5103759765625 787.76263427734375 788.01495361328125 788.26727294921875 789.86163330078125 792.2518310546875 794.64202880859375 797.03228759765625 796.50482177734375 795.96563720703125 795.42645263671875 794.92767333984375 794.49945068359375 794.0712890625 793.64306640625 794.07769775390625 794.82733154296875 795.57696533203125 796.59423828125 799.9979248046875 803.401611328125 806.8052978515625 808.5601806640625 808.44915771484375 808.33819580078125 808.22723388671875 806.89935302734375 805.33514404296875 803.77099609375 802.068359375 799.83099365234375 797.5936279296875 795.35626220703125 794.130859375 793.65655517578125 793.18231201171875 792.7080078125 791.04107666015625 789.301025390625 787.56097412109375 785.33160400390625 782.015869140625 778.70013427734375 775.3843994140625 772.7047119140625 770.32598876953125 767.94732666015625 765.6396484375 764.7698974609375 763.900146484375 763.03033447265625 762.66876220703125 763.02239990234375 763.3759765625 763.7296142578125 765.0228271484375 766.57550048828125 768.12811279296875 769.44488525390625 769.44488525390625 
934.55963134765625 934.55963134765625 934.191162109375 933.652587890625 933.114013671875 932.4185791015625 928.88751220703125 925.3564453125 921.82537841796875 917.669189453125 912.6522216796875 907.63525390625 902.6182861328125 898.04541015625 893.59124755859375 889.13714599609375 885.7108154296875 887.79241943359375 889.87396240234375 891.95550537109375 893.692138671875 895.117431640625 896.54266357421875 897.96795654296875 896.729248046875 895.17413330078125 893.61907958984375 891.4429931640625 887.51885986328125 883.5947265625 879.67059326171875 876.00189208984375 872.48297119140625 868.9639892578125 865.445068359375 861.7081298828125 857.970947265625 854.2337646484375 851.54327392578125 850.65863037109375 849.77398681640625 848.889404296875 848.46746826171875 848.21221923828125 847.95697021484375 847.70233154296875 847.453369140625 847.204345703125 846.95538330078125 846.15142822265625 844.7261962890625 843.3009033203125 841.87567138671875 838.23907470703125 834.18157958984375 830.12408447265625 826.18414306640625 822.69091796875 819.19775390625 815.70452880859375 814.11199951171875 813.9149169921875 813.71783447265625 813.520751953125 815.638671875 817.89154052734375 820.1444091796875 822.90667724609375 826.78582763671875 830.6650390625 834.544189453125 835.1590576171875 834.24810791015625 833.337158203125 832.4691162109375 832.420654296875 832.37213134765625 832.3236083984375 832.61029052734375 833.36358642578125 834.116943359375 834.8702392578125 832.0858154296875 828.34002685546875 824.59423828125 821.34613037109375 820.8197021484375 820.293212890625 819.76678466796875 817.52532958984375 813.7188720703125 809.9124755859375 806.10601806640625 801.75482177734375 797.33709716796875 792.9193115234375 789.59515380859375 789.39251708984375 789.18994140625 788.98736572265625 790.45989990234375 792.92596435546875 795.3919677734375 797.8580322265625 797.55743408203125 797.24566650390625 796.9339599609375 796.80072021484375 796.97906494140625 797.15740966796875 797.33575439453125 798.15478515625 799.20770263671875 800.2606201171875 801.56585693359375 805.12115478515625 808.676513671875 812.2318115234375 813.88934326171875 813.3992919921875 812.9091796875 812.41912841796875 810.96612548828125 809.32611083984375 807.6861572265625 805.782958984375 802.86322021484375 799.9434814453125 797.02374267578125 795.33355712890625 794.55596923828125 793.7784423828125 793.0008544921875 791.3878173828125 789.7236328125 788.05938720703125 785.8116455078125 782.26849365234375 778.72528076171875 775.18206787109375 772.53228759765625 770.30523681640625 768.07818603515625 765.93914794921875 765.58184814453125 765.22454833984375 764.8671875 764.87579345703125 765.3992919921875 765.9228515625 766.44635009765625 767.65753173828125 769.05853271484375 770.45953369140625 771.647705078125 771.647705078125 
933.84344482421875 933.84344482421875 933.3795166015625 932.701416015625 932.0233154296875 931.1998291015625 927.74761962890625 924.29547119140625 920.84326171875 916.94586181640625 912.43536376953125 907.9249267578125 903.4144287109375 899.63995361328125 896.06231689453125 892.4847412109375 889.856201171875 892.31378173828125 894.7713623046875 897.22894287109375 898.951171875 900.00946044921875 901.0677490234375 902.12603759765625 900.135498046875 897.78271484375 895.42999267578125 892.6280517578125 888.56146240234375 884.49493408203125 880.4283447265625 876.58843994140625 872.8814697265625 869.174560546875 865.46759033203125 862.20587158203125 858.94476318359375 855.68365478515625 853.31610107421875 852.49005126953125 851.66400146484375 850.837890625 850.416748046875 850.14141845703125 849.86602783203125 849.5643310546875 849.0341796875 848.50408935546875 847.97393798828125 847.04443359375 845.66766357421875 844.2908935546875 842.91412353515625 839.33123779296875 835.328369140625 831.325439453125 827.44769287109375 824.04547119140625 820.64324951171875 817.24102783203125 815.6470947265625 815.3807373046875 815.11444091796875 814.84814453125 816.99896240234375 819.290771484375 821.58258056640625 824.38385009765625 828.302490234375 832.2210693359375 836.13970947265625 837.3458251953125 837.2840576171875 837.22235107421875 837.16680908203125 837.23052978515625 837.294189453125 837.35791015625 837.55389404296875 837.93414306640625 838.3143310546875 838.69451904296875 835.74456787109375 831.8896484375 828.03472900390625 824.60198974609375 823.47808837890625 822.3541259765625 821.230224609375 818.64501953125 814.72637939453125 810.8077392578125 806.88916015625 802.7635498046875 798.61273193359375 794.46185302734375 791.33294677734375 791.121337890625 790.90966796875 790.697998046875 792.334716796875 795.067626953125 797.80059814453125 800.53350830078125 800.58740234375 800.6304931640625 800.67364501953125 800.9405517578125 801.59808349609375 802.25555419921875 802.9130859375 803.84912109375 804.8868408203125 805.924560546875 807.15435791015625 810.09698486328125 813.03961181640625 815.9822998046875 817.375732421875 817.01611328125 816.656494140625 816.296875 814.69488525390625 812.85174560546875 811.008544921875 808.9345703125 805.96942138671875 803.00421142578125 800.0390625 797.93609619140625 796.47308349609375 795.0101318359375 793.547119140625 791.6658935546875 789.75897216796875 787.85211181640625 785.48516845703125 782.0966796875 778.70819091796875 775.3197021484375 772.95220947265625 771.06787109375 769.18353271484375 767.38092041015625 767.23297119140625 767.0849609375 766.93701171875 767.105712890625 767.7200927734375 768.33453369140625 768.94891357421875 770.3603515625 771.99188232421875 773.6234130859375 775.007080078125 775.007080078125 
932.4666748046875 932.4666748046875 931.8990478515625 931.06927490234375 930.23956298828125 929.28033447265625 925.97979736328125 922.67919921875 919.378662109375 915.7923583984375 911.8126220703125 907.8328857421875 903.8531494140625 900.96832275390625 898.3763427734375 895.78436279296875 894.0341796875 896.7950439453125 899.555908203125 902.3167724609375 903.98358154296875 904.66278076171875 905.342041015625 906.021240234375 903.24493408203125 900.0582275390625 896.8714599609375 893.4739990234375 889.48321533203125 885.49249267578125 881.501708984375 877.59423828125 873.73565673828125 869.8770751953125 866.01849365234375 863.1351318359375 860.253173828125 857.37115478515625 855.2435302734375 854.41748046875 853.5914306640625 852.765380859375 852.34423828125 852.06884765625 851.79351806640625 851.46038818359375 850.62701416015625 849.7935791015625 848.960205078125 847.8704833984375 846.49371337890625 845.116943359375 843.74017333984375 840.28466796875 836.43341064453125 832.5821533203125 828.85235595703125 825.5838623046875 822.31536865234375 819.046875 817.4508056640625 817.08258056640625 816.71441650390625 816.34625244140625 818.46136474609375 820.7213134765625 822.981201171875 825.78436279296875 829.77880859375 833.77325439453125 837.76763916015625 839.617919921875 840.46600341796875 841.3140869140625 842.126953125 842.26641845703125 842.40594482421875 842.54547119140625 842.563720703125 842.4132080078125 842.2626953125 842.1121826171875 839.048828125 835.19390869140625 831.3389892578125 827.80072021484375 825.99444580078125 824.1881103515625 822.3818359375 819.431396484375 815.43695068359375 811.4425048828125 807.4481201171875 803.58453369140625 799.7369384765625 795.88934326171875 793.0047607421875 792.868896484375 792.73309326171875 792.59722900390625 794.45257568359375 797.48876953125 800.52496337890625 803.5611572265625 803.99383544921875 804.41607666015625 804.8382568359375 805.51190185546875 806.62432861328125 807.73675537109375 808.84918212890625 809.851318359375 810.81317138671875 811.77508544921875 812.86029052734375 815.04473876953125 817.22918701171875 819.41363525390625 820.5113525390625 820.379150390625 820.24700927734375 820.11480712890625 818.359375 816.2886962890625 814.21807861328125 811.97906494140625 809.08966064453125 806.2003173828125 803.31097412109375 800.80511474609375 798.583984375 796.36279296875 794.1416015625 791.93084716796875 789.72064208984375 787.510498046875 785.00506591796875 781.84405517578125 778.6829833984375 775.52197265625 773.48486328125 771.9796142578125 770.474365234375 769.0401611328125 769.0438232421875 769.0474853515625 769.05120849609375 769.34002685546875 770.03021240234375 770.720458984375 771.41064453125 773.076171875 775.010986328125 776.94580078125 778.586669921875 778.586669921875 
931.08990478515625 931.08990478515625 930.41851806640625 929.4371337890625 928.455810546875 927.36077880859375 924.2119140625 921.06298828125 917.9140625 914.638916015625 911.18988037109375 907.7408447265625 904.2918701171875 902.29669189453125 900.6903076171875 899.083984375 898.212158203125 901.27630615234375 904.34039306640625 907.404541015625 909.01605224609375 909.316162109375 909.61627197265625 909.9163818359375 906.35443115234375 902.33367919921875 898.31292724609375 894.3199462890625 890.40496826171875 886.49005126953125 882.5750732421875 878.60009765625 874.58984375 870.57958984375 866.56939697265625 864.064453125 861.5615234375 859.05859375 857.1710205078125 856.344970703125 855.5189208984375 854.69287109375 854.27166748046875 853.996337890625 853.720947265625 853.3564453125 852.21978759765625 851.0831298828125 849.94647216796875 848.696533203125 847.31976318359375 845.9429931640625 844.56622314453125 841.23809814453125 837.53851318359375 833.8388671875 830.2569580078125 827.1221923828125 823.98748779296875 820.85272216796875 819.2545166015625 818.78448486328125 818.31439208984375 817.8443603515625 819.92376708984375 822.15179443359375 824.37982177734375 827.18487548828125 831.255126953125 835.32537841796875 839.3956298828125 841.89007568359375 843.64794921875 845.4058837890625 847.0870361328125 847.3023681640625 847.5177001953125 847.7330322265625 847.57354736328125 846.89227294921875 846.2110595703125 845.52978515625 842.35302734375 838.49810791015625 834.6431884765625 830.99945068359375 828.51080322265625 826.02215576171875 823.533447265625 820.21783447265625 816.1475830078125 812.07733154296875 808.007080078125 804.405517578125 800.8612060546875 797.31689453125 794.676513671875 794.61651611328125 794.5565185546875 794.4964599609375 796.57037353515625 799.90985107421875 803.24932861328125 806.58880615234375 807.4002685546875 808.20159912109375 809.00286865234375 810.083251953125 811.65057373046875 813.2178955078125 814.78521728515625 815.853515625 816.73956298828125 817.62567138671875 818.56622314453125 819.99249267578125 821.41876220703125 822.84503173828125 823.64691162109375 823.7421875 823.83746337890625 823.9327392578125 822.0238037109375 819.7257080078125 817.4276123046875 815.02349853515625 812.2099609375 809.39642333984375 806.5828857421875 803.6741943359375 800.69482421875 797.7154541015625 794.736083984375 792.19580078125 789.68231201171875 787.16888427734375 784.5250244140625 781.5914306640625 778.6578369140625 775.7242431640625 774.017578125 772.89141845703125 771.7652587890625 770.69940185546875 770.854736328125 771.010009765625 771.16534423828125 771.5743408203125 772.34033203125 773.10638427734375 773.8724365234375 775.79205322265625 778.03009033203125 780.2681884765625 782.166259765625 782.166259765625 
930.51629638671875 930.51629638671875 929.77362060546875 928.68798828125 927.6024169921875 926.41241455078125 923.336181640625 920.2598876953125 917.18365478515625 914.13397216796875 911.12091064453125 908.10784912109375 905.09478759765625 903.88201904296875 903.15069580078125 902.41943359375 902.30792236328125 905.517333984375 908.726806640625 911.93621826171875 913.39251708984375 913.26617431640625 913.1397705078125 913.013427734375 908.8160400390625 904.13507080078125 899.45404052734375 894.9813232421875 891.09478759765625 887.20831298828125 883.32177734375 879.3214111328125 875.25433349609375 871.187255859375 867.12017822265625 865.009521484375 862.9014892578125 860.79345703125 859.1268310546875 858.2218017578125 857.3167724609375 856.4117431640625 855.9464111328125 855.63946533203125 855.33251953125 854.92303466796875 853.625244140625 852.3275146484375 851.02972412109375 849.7244873046875 848.410888671875 847.09735107421875 845.78375244140625 842.5533447265625 838.95794677734375 835.36260986328125 831.878662109375 828.8182373046875 825.75775146484375 822.697265625 821.12957763671875 820.6578369140625 820.1861572265625 819.71441650390625 821.74005126953125 823.9112548828125 826.08245849609375 828.85736083984375 832.9560546875 837.05474853515625 841.1534423828125 844.1907958984375 846.732177734375 849.27349853515625 851.7005615234375 851.9443359375 852.18804931640625 852.43182373046875 852.0406494140625 850.76544189453125 849.49029541015625 848.215087890625 844.8865966796875 841.00006103515625 837.11358642578125 833.352294921875 830.27606201171875 827.19976806640625 824.12353515625 820.553955078125 816.5343017578125 812.51458740234375 808.494873046875 805.2113037109375 802.0177001953125 798.82403564453125 796.4835205078125 796.57830810546875 796.673095703125 796.76788330078125 799.05010986328125 802.62969970703125 806.20928955078125 809.78887939453125 811.041748046875 812.28533935546875 813.5289306640625 815.06768798828125 817.12152099609375 819.17535400390625 821.22918701171875 822.3604736328125 823.1549072265625 823.9493408203125 824.7279052734375 825.3643798828125 826.00091552734375 826.63739013671875 827.03778076171875 827.17095947265625 827.30413818359375 827.43731689453125 825.330810546875 822.78948974609375 820.24810791015625 817.65985107421875 814.89056396484375 812.12127685546875 809.3519287109375 806.17193603515625 802.68719482421875 799.202392578125 795.71759033203125 793.0408935546875 790.41375732421875 787.78662109375 785.1153564453125 782.34600830078125 779.57672119140625 776.807373046875 775.27142333984375 774.3189697265625 773.36651611328125 772.47418212890625 772.796875 773.11962890625 773.4423828125 773.97418212890625 774.80023193359375 775.62628173828125 776.45233154296875 778.54833984375 780.994873046875 783.44146728515625 785.51629638671875 785.51629638671875 
932.9945068359375 932.9945068359375 932.30364990234375 931.29388427734375 930.2840576171875 929.154052734375 925.850341796875 922.54656982421875 919.24285888671875 916.09332275390625 913.15606689453125 910.21881103515625 907.28155517578125 906.4437255859375 906.1673583984375 905.8909912109375 906.09130859375 908.8458251953125 911.600341796875 914.3548583984375 915.276611328125 914.54364013671875 913.81072998046875 913.07781982421875 908.8160400390625 904.13507080078125 899.45404052734375 894.94158935546875 890.9034423828125 886.86529541015625 882.82708740234375 878.9619140625 875.1981201171875 871.43426513671875 867.67047119140625 866.0145263671875 864.36138916015625 862.70831298828125 861.1905517578125 859.90643310546875 858.622314453125 857.33819580078125 856.6610107421875 856.202392578125 855.74383544921875 855.23760986328125 854.3189697265625 853.4002685546875 852.4815673828125 851.5196533203125 850.5093994140625 849.49908447265625 848.48876953125 845.2431640625 841.57196044921875 837.9007568359375 834.32525634765625 831.1131591796875 827.90106201171875 824.68896484375 823.275634765625 823.1829833984375 823.09039306640625 822.99774169921875 824.9010009765625 826.92059326171875 828.94012451171875 831.56341552734375 835.51043701171875 839.45745849609375 843.404541015625 846.60028076171875 849.4449462890625 852.28955078125 854.99725341796875 855.08935546875 855.18145751953125 855.27362060546875 854.44549560546875 852.3363037109375 850.2271728515625 848.11798095703125 844.49200439453125 840.453857421875 836.41571044921875 832.4910888671875 829.1873779296875 825.8836669921875 822.5799560546875 819.17938232421875 815.6904296875 812.201416015625 808.71246337890625 805.95965576171875 803.2967529296875 800.63385009765625 798.80438232421875 799.35406494140625 799.90374755859375 800.45343017578125 802.90509033203125 806.484619140625 810.064208984375 813.643798828125 815.57635498046875 817.50225830078125 819.42822265625 821.6217041015625 824.2821044921875 826.9425048828125 829.60284423828125 830.7852783203125 831.4281005859375 832.0709228515625 832.621337890625 832.3480224609375 832.07470703125 831.8013916015625 831.39862060546875 830.84942626953125 830.30023193359375 829.75103759765625 827.2796630859375 824.43505859375 821.59039306640625 818.74566650390625 815.90057373046875 813.055419921875 810.21026611328125 807.25909423828125 804.229248046875 801.1993408203125 798.16949462890625 796.090576171875 794.07000732421875 792.0494384765625 789.77276611328125 786.92767333984375 784.08251953125 781.23736572265625 779.26531982421875 777.706298828125 776.1473388671875 774.68768310546875 775.23785400390625 775.7880859375 776.3382568359375 777.0030517578125 777.8291015625 778.6551513671875 779.481201171875 781.4583740234375 783.7532958984375 786.0482177734375 787.9945068359375 787.9945068359375 
935.47265625 935.47265625 934.83367919921875 933.89971923828125 932.96575927734375 931.8956298828125 928.36444091796875 924.833251953125 921.3021240234375 918.05267333984375 915.1912841796875 912.329833984375 909.4683837890625 909.00543212890625 909.18402099609375 909.362548828125 909.87469482421875 912.17425537109375 914.473876953125 916.77349853515625 917.16064453125 915.8211669921875 914.481689453125 913.1422119140625 908.8160400390625 904.13507080078125 899.45404052734375 894.90185546875 890.7120361328125 886.52227783203125 882.33245849609375 878.60235595703125 875.141845703125 871.6812744140625 868.22076416015625 867.01953125 865.82135009765625 864.62310791015625 863.2542724609375 861.591064453125 859.92779541015625 858.26458740234375 857.37554931640625 856.76531982421875 856.1551513671875 855.55224609375 855.01263427734375 854.4730224609375 853.9334716796875 853.31488037109375 852.60784912109375 851.90081787109375 851.19378662109375 847.9329833984375 844.18597412109375 840.43896484375 836.7718505859375 833.4080810546875 830.04437255859375 826.68060302734375 825.42169189453125 825.70819091796875 825.99462890625 826.28106689453125 828.0618896484375 829.92987060546875 831.79779052734375 834.2694091796875 838.0648193359375 841.8602294921875 845.6556396484375 849.009765625 852.15771484375 855.30560302734375 858.29388427734375 858.234375 858.17486572265625 858.1153564453125 856.85040283203125 853.9072265625 850.96405029296875 848.02081298828125 844.097412109375 839.90765380859375 835.71783447265625 831.6298828125 828.09869384765625 824.56756591796875 821.036376953125 817.80474853515625 814.8465576171875 811.8883056640625 808.9300537109375 806.70794677734375 804.5758056640625 802.443603515625 801.125244140625 802.12982177734375 803.1343994140625 804.1390380859375 806.760009765625 810.33953857421875 813.91912841796875 817.49871826171875 820.11090087890625 822.71923828125 825.3275146484375 828.17578125 831.44268798828125 834.7095947265625 837.9765625 839.2100830078125 839.7012939453125 840.19244384765625 840.51483154296875 839.3316650390625 838.14849853515625 836.96533203125 835.759521484375 834.5279541015625 833.29638671875 832.0648193359375 829.228515625 826.08062744140625 822.9327392578125 819.83148193359375 816.9105224609375 813.9896240234375 811.06866455078125 808.34625244140625 805.77130126953125 803.19635009765625 800.62139892578125 799.1402587890625 797.72625732421875 796.31219482421875 794.43023681640625 791.50927734375 788.58831787109375 785.6673583984375 783.25921630859375 781.09368896484375 778.92816162109375 776.90118408203125 777.6788330078125 778.45648193359375 779.234130859375 780.03192138671875 780.85797119140625 781.68402099609375 782.51007080078125 784.368408203125 786.51171875 788.65496826171875 790.47265625 790.47265625 
937.9508056640625 937.9508056640625 937.36370849609375 936.50555419921875 935.64739990234375 934.63720703125 930.87860107421875 927.11993408203125 923.361328125 920.0120849609375 917.2264404296875 914.44085693359375 911.65521240234375 911.56719970703125 912.20062255859375 912.8341064453125 913.65802001953125 915.50274658203125 917.34747314453125 919.192138671875 919.044677734375 917.0986328125 915.15264892578125 913.20660400390625 908.8160400390625 904.13507080078125 899.45404052734375 894.862060546875 890.52069091796875 886.17926025390625 881.83782958984375 878.24285888671875 875.0855712890625 871.9283447265625 868.77105712890625 868.0245361328125 867.28125 866.5379638671875 865.3179931640625 863.275634765625 861.23333740234375 859.1910400390625 858.09014892578125 857.32830810546875 856.56640625 855.8668212890625 855.706298828125 855.54583740234375 855.38531494140625 855.11004638671875 854.706298828125 854.30255126953125 853.8988037109375 850.622802734375 846.79998779296875 842.9771728515625 839.2183837890625 835.7030029296875 832.1876220703125 828.67230224609375 827.5677490234375 828.23333740234375 828.89886474609375 829.564453125 831.22283935546875 832.93914794921875 834.65545654296875 836.9754638671875 840.61920166015625 844.26300048828125 847.90673828125 851.41925048828125 854.8704833984375 858.3216552734375 861.590576171875 861.37945556640625 861.16827392578125 860.9571533203125 859.2552490234375 855.47808837890625 851.70086669921875 847.9237060546875 843.70281982421875 839.36138916015625 835.01995849609375 830.7686767578125 827.010009765625 823.25140380859375 819.4927978515625 816.43017578125 814.002685546875 811.57513427734375 809.14764404296875 807.456298828125 805.85479736328125 804.25335693359375 803.446044921875 804.90557861328125 806.36505126953125 807.8245849609375 810.61492919921875 814.1944580078125 817.7740478515625 821.3536376953125 824.64544677734375 827.9361572265625 831.226806640625 834.72979736328125 838.603271484375 842.47674560546875 846.3502197265625 847.6348876953125 847.97442626953125 848.31402587890625 848.40826416015625 846.3153076171875 844.2222900390625 842.12933349609375 840.120361328125 838.2064208984375 836.29254150390625 834.37860107421875 831.1773681640625 827.7261962890625 824.2750244140625 820.91729736328125 817.9205322265625 814.92376708984375 811.927001953125 809.43341064453125 807.3133544921875 805.19329833984375 803.0732421875 802.18994140625 801.3824462890625 800.574951171875 799.087646484375 796.09088134765625 793.0941162109375 790.09735107421875 787.25311279296875 784.48101806640625 781.70892333984375 779.11474609375 780.11981201171875 781.12493896484375 782.13006591796875 783.060791015625 783.8868408203125 784.712890625 785.5389404296875 787.2784423828125 789.27008056640625 791.26177978515625 792.9508056640625 792.9508056640625 
939.6351318359375 939.6351318359375 939.1297607421875 938.39117431640625 937.65252685546875 936.76434326171875 933.17169189453125 929.5791015625 925.98651123046875 922.74688720703125 919.993408203125 917.2398681640625 914.486328125 914.2811279296875 914.75738525390625 915.23370361328125 915.826171875 917.04107666015625 918.2559814453125 919.470947265625 918.8896484375 916.68682861328125 914.48406982421875 912.28125 908.09783935546875 903.67919921875 899.260498046875 894.91400146484375 890.77069091796875 886.62738037109375 882.48406982421875 879.09844970703125 876.156982421875 873.215576171875 870.27410888671875 869.763916015625 869.25689697265625 868.74993896484375 867.57257080078125 865.23858642578125 862.90460205078125 860.57061767578125 859.3453369140625 858.519287109375 857.6932373046875 856.95263671875 856.95263671875 856.95263671875 856.95263671875 856.8021240234375 856.4830322265625 856.16400146484375 855.84490966796875 852.33514404296875 848.2178955078125 844.10064697265625 840.17742919921875 836.99127197265625 833.80517578125 830.61907958984375 829.69610595703125 830.43475341796875 831.17333984375 831.9119873046875 833.51373291015625 835.1658935546875 836.8179931640625 839.1285400390625 842.88299560546875 846.63739013671875 850.391845703125 853.72918701171875 856.87158203125 860.01397705078125 862.98193359375 862.619140625 862.25634765625 861.8935546875 860.0472412109375 856.13555908203125 852.223876953125 848.31219482421875 844.08087158203125 839.7626953125 835.44451904296875 831.16412353515625 827.09063720703125 823.01708984375 818.943603515625 815.9853515625 814.04486083984375 812.1043701171875 810.16387939453125 809.076416015625 808.0931396484375 807.10980224609375 806.764892578125 808.24212646484375 809.7193603515625 811.19659423828125 814.04840087890625 817.71539306640625 821.38238525390625 825.0494384765625 828.97772216796875 832.90704345703125 836.83636474609375 840.6318359375 844.19378662109375 847.75567626953125 851.317626953125 852.471923828125 852.74725341796875 853.02264404296875 853.08642578125 851.2640380859375 849.44171142578125 847.61932373046875 845.65948486328125 843.54412841796875 841.4287109375 839.3133544921875 835.715576171875 831.8299560546875 827.94439697265625 824.22601318359375 821.15338134765625 818.080810546875 815.00823974609375 812.542724609375 810.52783203125 808.512939453125 806.498046875 805.6156005859375 804.80255126953125 803.98956298828125 802.406982421875 799.11578369140625 795.82464599609375 792.533447265625 789.53900146484375 786.68505859375 783.8310546875 781.16949462890625 782.40203857421875 783.63458251953125 784.8671875 785.94903564453125 786.81878662109375 787.6885986328125 788.558349609375 790.291259765625 792.262451171875 794.233642578125 795.90533447265625 795.90533447265625 
940.73651123046875 940.73651123046875 940.3349609375 939.74798583984375 939.16094970703125 938.4403076171875 935.3026123046875 932.1649169921875 929.0272216796875 926.0511474609375 923.297607421875 920.5440673828125 917.79058837890625 917.10675048828125 916.97650146484375 916.84625244140625 916.808349609375 917.26507568359375 917.7218017578125 918.17852783203125 917.237548828125 915.03472900390625 912.8319091796875 910.62908935546875 906.85235595703125 902.88861083984375 898.9248046875 895.03326416015625 891.3448486328125 887.65643310546875 883.96807861328125 880.84613037109375 878.05633544921875 875.26654052734375 872.47674560546875 872.04241943359375 871.61126708984375 871.18011474609375 869.96722412109375 867.40582275390625 864.8443603515625 862.282958984375 860.9974365234375 860.17138671875 859.3453369140625 858.60479736328125 858.60479736328125 858.60479736328125 858.60479736328125 858.41845703125 858.0235595703125 857.628662109375 857.2337646484375 853.3297119140625 848.757568359375 844.1854248046875 840.044189453125 837.54046630859375 835.0367431640625 832.53302001953125 831.8115234375 832.39849853515625 832.9854736328125 833.57244873046875 835.1658935546875 836.8179931640625 838.4700927734375 840.8756103515625 844.933349609375 848.9910888671875 853.04876708984375 855.966064453125 858.3502197265625 860.73443603515625 862.97442626953125 862.4599609375 861.945556640625 861.43115234375 859.655029296875 856.1224365234375 852.58984375 849.0572509765625 845.02618408203125 840.859619140625 836.69305419921875 832.4822998046875 828.0296630859375 823.57708740234375 819.12445068359375 816.22320556640625 814.73760986328125 813.2520751953125 811.7664794921875 811.33660888671875 811.03570556640625 810.7347412109375 810.81646728515625 811.99041748046875 813.1644287109375 814.33837890625 817.17242431640625 820.9910888671875 824.80975341796875 828.62835693359375 833.161376953125 837.697265625 842.233154296875 846.05517578125 848.6314697265625 851.207763671875 853.78399658203125 854.67474365234375 854.9500732421875 855.2254638671875 855.4039306640625 854.71881103515625 854.03375244140625 853.3486328125 852.063720703125 850.0999755859375 848.13623046875 846.1724853515625 842.15496826171875 837.73858642578125 833.322265625 829.166748046875 826.018310546875 822.86993408203125 819.72149658203125 817.13665771484375 814.97015380859375 812.8035888671875 810.63702392578125 809.31719970703125 808.04931640625 806.7813720703125 804.743896484375 800.997802734375 797.251708984375 793.505615234375 790.5709228515625 788.02020263671875 785.469482421875 783.107666015625 784.56768798828125 786.0277099609375 787.48773193359375 788.73406982421875 789.67962646484375 790.625244140625 791.57080078125 793.3795166015625 795.426513671875 797.4735107421875 799.20953369140625 799.20953369140625 
941.837890625 941.837890625 941.54010009765625 941.104736328125 940.66937255859375 940.11627197265625 937.4334716796875 934.75067138671875 932.06787109375 929.3553466796875 926.601806640625 923.84832763671875 921.09478759765625 919.93243408203125 919.19561767578125 918.4588623046875 917.79052734375 917.48907470703125 917.1876220703125 916.88616943359375 915.58544921875 913.38262939453125 911.1798095703125 908.97698974609375 905.6068115234375 902.0980224609375 898.58917236328125 895.1524658203125 891.91900634765625 888.68548583984375 885.4520263671875 882.59381103515625 879.9556884765625 877.3175048828125 874.67938232421875 874.32098388671875 873.96563720703125 873.61029052734375 872.3619384765625 869.57305908203125 866.7841796875 863.99530029296875 862.6495361328125 861.823486328125 860.9974365234375 860.25689697265625 860.25689697265625 860.25689697265625 860.25689697265625 860.0347900390625 859.5640869140625 859.0933837890625 858.6226806640625 854.3243408203125 849.2972412109375 844.27020263671875 839.9110107421875 838.08966064453125 836.268310546875 834.44696044921875 833.9268798828125 834.3621826171875 834.79754638671875 835.23291015625 836.8179931640625 838.4700927734375 840.1221923828125 842.6226806640625 846.98370361328125 851.3447265625 855.7056884765625 858.202880859375 859.828857421875 861.45489501953125 862.96685791015625 862.30078125 861.63470458984375 860.96868896484375 859.26275634765625 856.1092529296875 852.955810546875 849.80230712890625 845.971435546875 841.95654296875 837.941650390625 833.8004150390625 828.96875 824.13702392578125 819.3052978515625 816.4610595703125 815.430419921875 814.39971923828125 813.36907958984375 813.5968017578125 813.978271484375 814.35968017578125 814.86810302734375 815.73876953125 816.60943603515625 817.48016357421875 820.2965087890625 824.26678466796875 828.237060546875 832.20733642578125 837.3450927734375 842.48748779296875 847.62994384765625 851.478515625 853.06915283203125 854.6597900390625 856.25042724609375 856.8775634765625 857.15289306640625 857.42822265625 857.721435546875 858.17364501953125 858.62579345703125 859.0780029296875 858.46795654296875 856.65582275390625 854.84375 853.0316162109375 848.59429931640625 843.647216796875 838.7001953125 834.10748291015625 830.88323974609375 827.65899658203125 824.434814453125 821.7305908203125 819.41241455078125 817.09423828125 814.77606201171875 813.01885986328125 811.2960205078125 809.57318115234375 807.080810546875 802.87982177734375 798.67877197265625 794.477783203125 791.60284423828125 789.35540771484375 787.10797119140625 785.04583740234375 786.7332763671875 788.4207763671875 790.10821533203125 791.51904296875 792.54046630859375 793.5618896484375 794.58331298828125 796.46783447265625 798.59063720703125 800.71343994140625 802.51373291015625 802.51373291015625 
942.9393310546875 942.9393310546875 942.7452392578125 942.4615478515625 942.17779541015625 941.79217529296875 939.5643310546875 937.33642578125 935.10858154296875 932.6595458984375 929.90606689453125 927.15252685546875 924.39898681640625 922.75811767578125 921.41473388671875 920.0714111328125 918.772705078125 917.71307373046875 916.65338134765625 915.59375 913.933349609375 911.73052978515625 909.5277099609375 907.32489013671875 904.361328125 901.30743408203125 898.25347900390625 895.271728515625 892.4931640625 889.71453857421875 886.93597412109375 884.341552734375 881.85498046875 879.36846923828125 876.8819580078125 876.5994873046875 876.3199462890625 876.04046630859375 874.75665283203125 871.74029541015625 868.7239990234375 865.7076416015625 864.3016357421875 863.4755859375 862.6495361328125 861.90899658203125 861.90899658203125 861.90899658203125 861.90899658203125 861.651123046875 861.1046142578125 860.55810546875 860.01153564453125 855.31890869140625 849.8369140625 844.35498046875 839.77783203125 838.63885498046875 837.4998779296875 836.36083984375 836.042236328125 836.325927734375 836.60968017578125 836.89337158203125 838.4700927734375 840.1221923828125 841.7742919921875 844.36981201171875 849.0340576171875 853.6983642578125 858.36260986328125 860.439697265625 861.30755615234375 862.17535400390625 862.95928955078125 862.1416015625 861.32391357421875 860.5062255859375 858.87054443359375 856.09613037109375 853.32171630859375 850.54736328125 846.916748046875 843.053466796875 839.190185546875 835.11859130859375 829.90777587890625 824.697021484375 819.4862060546875 816.698974609375 816.1231689453125 815.54742431640625 814.9716796875 815.85699462890625 816.92083740234375 817.984619140625 818.919677734375 819.487060546875 820.05450439453125 820.62188720703125 823.4205322265625 827.54248046875 831.66436767578125 835.78631591796875 841.52874755859375 847.27777099609375 853.0267333984375 856.90185546875 857.5068359375 858.11187744140625 858.71685791015625 859.08038330078125 859.355712890625 859.63104248046875 860.0389404296875 861.62841796875 863.21783447265625 864.80731201171875 864.87213134765625 863.211669921875 861.55120849609375 859.8907470703125 855.03369140625 849.55584716796875 844.07806396484375 839.0482177734375 835.7481689453125 832.4481201171875 829.1480712890625 826.32452392578125 823.854736328125 821.38494873046875 818.91510009765625 816.72052001953125 814.542724609375 812.364990234375 809.417724609375 804.76177978515625 800.10589599609375 795.449951171875 792.634765625 790.69061279296875 788.7464599609375 786.9840087890625 788.89892578125 790.8138427734375 792.728759765625 794.3040771484375 795.40130615234375 796.49853515625 797.59576416015625 799.55609130859375 801.7547607421875 803.953369140625 805.8179931640625 805.8179931640625 
942.73980712890625 942.73980712890625 942.55145263671875 942.27606201171875 942.000732421875 941.6356201171875 939.647705078125 937.65985107421875 935.67193603515625 933.39208984375 930.710205078125 928.0283203125 925.34649658203125 923.58123779296875 922.06121826171875 920.54119873046875 919.064453125 917.81976318359375 916.5750732421875 915.33038330078125 913.5821533203125 911.37933349609375 909.176513671875 906.97369384765625 904.16058349609375 901.2750244140625 898.38946533203125 895.59478759765625 893.05621337890625 890.51763916015625 887.97900390625 885.523681640625 883.1171875 880.71063232421875 878.30413818359375 877.95440673828125 877.60736083984375 877.2603759765625 875.95556640625 872.99835205078125 870.0411376953125 867.08392333984375 865.64093017578125 864.74322509765625 863.84552001953125 863.02587890625 862.88262939453125 862.73931884765625 862.5960693359375 862.22674560546875 861.60443115234375 860.9820556640625 860.3597412109375 855.7542724609375 850.3905029296875 845.0267333984375 840.61077880859375 839.79595947265625 838.9810791015625 838.166259765625 837.938720703125 838.1424560546875 838.34619140625 838.54986572265625 839.98681640625 841.49560546875 843.00445556640625 845.4619140625 849.99957275390625 854.53729248046875 859.07501220703125 860.9486083984375 861.5770263671875 862.20538330078125 862.7677001953125 862.06768798828125 861.36761474609375 860.6676025390625 859.198974609375 856.660400390625 854.12176513671875 851.58319091796875 847.840576171875 843.77069091796875 839.70086669921875 835.484619140625 830.46783447265625 825.45111083984375 820.434326171875 817.71533203125 817.09295654296875 816.47064208984375 815.8482666015625 816.8897705078125 818.13446044921875 819.379150390625 820.46240234375 821.084716796875 821.70709228515625 822.32940673828125 825.06378173828125 829.05078125 833.03778076171875 837.0247802734375 842.79998779296875 848.58233642578125 854.36474609375 858.11083984375 858.3033447265625 858.495849609375 858.6883544921875 858.8890380859375 859.0927734375 859.29644775390625 859.66070556640625 861.4560546875 863.25146484375 865.046875 865.2249755859375 863.5728759765625 861.92071533203125 860.26861572265625 855.4483642578125 850.01300048828125 844.57763671875 839.59527587890625 836.36273193359375 833.130126953125 829.8975830078125 827.13909912109375 824.73260498046875 822.3260498046875 819.9195556640625 817.50244140625 815.084716796875 812.6669921875 809.56866455078125 804.9593505859375 800.35003662109375 795.74066162109375 793.09771728515625 791.38519287109375 789.672607421875 788.124755859375 789.908935546875 791.693115234375 793.477294921875 794.97784423828125 796.07928466796875 797.1806640625 798.28204345703125 800.24658203125 802.44940185546875 804.6522216796875 806.5203857421875 806.5203857421875 
942.4644775390625 942.4644775390625 942.27606201171875 942.000732421875 941.72540283203125 941.3721923828125 939.61175537109375 937.851318359375 936.09088134765625 933.97467041015625 931.36865234375 928.7625732421875 926.15655517578125 924.28765869140625 922.61602783203125 920.9443359375 919.31591796875 917.91961669921875 916.5233154296875 915.126953125 913.3067626953125 911.10400390625 908.90118408203125 906.6983642578125 904.02081298828125 901.286865234375 898.55291748046875 895.92974853515625 893.61865234375 891.3074951171875 888.996337890625 886.67291259765625 884.3421630859375 882.011474609375 879.6807861328125 879.25543212890625 878.8326416015625 878.4097900390625 877.0848388671875 874.20343017578125 871.322021484375 868.44061279296875 866.9619140625 865.9884033203125 865.014892578125 864.11163330078125 863.81671142578125 863.52178955078125 863.22686767578125 862.74169921875 862.04351806640625 861.3453369140625 860.647216796875 856.156982421875 850.94488525390625 845.7327880859375 841.5 840.98846435546875 840.47686767578125 839.96533203125 839.822509765625 839.95037841796875 840.0782470703125 840.2061767578125 841.49560546875 842.85284423828125 844.21002197265625 846.51580810546875 850.90185546875 855.2879638671875 859.67401123046875 861.35675048828125 861.77593994140625 862.1951904296875 862.56536865234375 861.9986572265625 861.4320068359375 860.86529541015625 859.56939697265625 857.25823974609375 854.9471435546875 852.635986328125 848.76312255859375 844.4658203125 840.16851806640625 835.79510498046875 831.005859375 826.216552734375 821.42724609375 818.777099609375 818.07891845703125 817.3807373046875 816.6826171875 817.8509521484375 819.24725341796875 820.64361572265625 821.85882568359375 822.55694580078125 823.255126953125 823.95330810546875 826.6207275390625 830.4560546875 834.29144287109375 838.12677001953125 843.9013671875 849.68377685546875 855.4661865234375 859.07415771484375 858.8875732421875 858.70098876953125 858.51434326171875 858.55816650390625 858.68603515625 858.81396484375 859.125244140625 861.07232666015625 863.01934814453125 864.96636962890625 865.2249755859375 863.5728759765625 861.92071533203125 860.26861572265625 855.51190185546875 850.15228271484375 844.792724609375 839.88623046875 836.7294921875 833.57275390625 830.41595458984375 827.73333740234375 825.40264892578125 823.0718994140625 820.7412109375 818.11419677734375 815.468994140625 812.82379150390625 809.59222412109375 805.0587158203125 800.52520751953125 795.99169921875 793.5274658203125 792.0423583984375 790.55731201171875 789.218994140625 790.8515625 792.48406982421875 794.11663818359375 795.528564453125 796.62994384765625 797.73138427734375 798.832763671875 800.79730224609375 803.0001220703125 805.20294189453125 807.071044921875 807.071044921875 
942.1890869140625 942.1890869140625 942.000732421875 941.72540283203125 941.45001220703125 941.1087646484375 939.5758056640625 938.04278564453125 936.50982666015625 934.55731201171875 932.02703857421875 929.496826171875 926.96661376953125 924.99407958984375 923.1707763671875 921.34747314453125 919.56744384765625 918.01947021484375 916.47149658203125 914.923583984375 913.03143310546875 910.82861328125 908.62579345703125 906.4229736328125 903.8809814453125 901.29864501953125 898.71636962890625 896.2647705078125 894.18109130859375 892.097412109375 890.01373291015625 887.82208251953125 885.56719970703125 883.31231689453125 881.05743408203125 880.55645751953125 880.057861328125 879.5592041015625 878.21405029296875 875.408447265625 872.60284423828125 869.79730224609375 868.282958984375 867.23358154296875 866.18426513671875 865.19732666015625 864.75079345703125 864.30419921875 863.857666015625 863.256591796875 862.48260498046875 861.70867919921875 860.9346923828125 856.55975341796875 851.499267578125 846.43878173828125 842.3892822265625 842.18096923828125 841.97265625 841.764404296875 841.70623779296875 841.75830078125 841.81036376953125 841.8624267578125 843.00445556640625 844.21002197265625 845.41558837890625 847.56976318359375 851.80413818359375 856.03857421875 860.27301025390625 861.764892578125 861.97491455078125 862.18499755859375 862.36297607421875 861.9296875 861.49639892578125 861.06304931640625 859.9398193359375 857.85614013671875 855.7724609375 853.68878173828125 849.6856689453125 845.160888671875 840.6361083984375 836.10565185546875 831.5438232421875 826.98193359375 822.42010498046875 819.8388671875 819.06488037109375 818.2908935546875 817.51690673828125 818.8121337890625 820.360107421875 821.9080810546875 823.2552490234375 824.02923583984375 824.80322265625 825.5771484375 828.17767333984375 831.86138916015625 835.54510498046875 839.22882080078125 845.0028076171875 850.78515625 856.56756591796875 860.0374755859375 859.4718017578125 858.90606689453125 858.34039306640625 858.22723388671875 858.27935791015625 858.3314208984375 858.58984375 860.68853759765625 862.78717041015625 864.8858642578125 865.2249755859375 863.5728759765625 861.92071533203125 860.26861572265625 855.57537841796875 850.2916259765625 845.00787353515625 840.17718505859375 837.09625244140625 834.01531982421875 830.93438720703125 828.32757568359375 826.07269287109375 823.8177490234375 821.5628662109375 818.72589111328125 815.853271484375 812.9805908203125 809.61578369140625 805.1580810546875 800.70037841796875 796.24267578125 793.95721435546875 792.6995849609375 791.44195556640625 790.31329345703125 791.794189453125 793.27508544921875 794.7559814453125 796.07928466796875 797.1806640625 798.28204345703125 799.38348388671875 801.3480224609375 803.55084228515625 805.75360107421875 807.62176513671875 807.62176513671875 
941.91375732421875 941.91375732421875 941.72540283203125 941.45001220703125 941.1746826171875 940.84161376953125 939.46484375 938.08807373046875 936.7113037109375 934.9111328125 932.5279541015625 930.144775390625 927.7615966796875 925.77545166015625 923.8955078125 922.0155029296875 920.16387939453125 918.46429443359375 916.76470947265625 915.06512451171875 913.113525390625 910.9344482421875 908.75537109375 906.5762939453125 904.23602294921875 901.8765869140625 899.51715087890625 897.27716064453125 895.37347412109375 893.4697265625 891.5660400390625 889.53363037109375 887.42578125 885.3179931640625 883.21014404296875 882.68109130859375 882.15411376953125 881.62713623046875 880.30059814453125 877.5946044921875 874.8885498046875 872.18255615234375 870.621337890625 869.47247314453125 868.32354736328125 867.20709228515625 866.37139892578125 865.5357666015625 864.70013427734375 863.8690185546875 863.04290771484375 862.21685791015625 861.39080810546875 857.2945556640625 852.57568359375 847.8568115234375 844.15570068359375 844.32196044921875 844.4881591796875 844.65435791015625 844.6973876953125 844.64990234375 844.6024169921875 844.55487060546875 845.4808349609375 846.4635009765625 847.4461669921875 849.325439453125 853.1707763671875 857.01605224609375 860.86138916015625 862.20849609375 862.38787841796875 862.56719970703125 862.72332763671875 862.434814453125 862.14630126953125 861.8577880859375 860.8841552734375 858.95672607421875 857.02923583984375 855.10174560546875 850.89715576171875 846.07366943359375 841.250244140625 836.54278564453125 832.4696044921875 828.39642333984375 824.3232421875 821.898193359375 820.9771728515625 820.05615234375 819.1351318359375 820.4224853515625 821.9796142578125 823.5367431640625 824.9534912109375 825.96954345703125 826.98553466796875 828.0015869140625 830.50750732421875 833.89715576171875 837.2867431640625 840.67633056640625 846.3072509765625 851.9471435546875 857.58709716796875 860.83697509765625 859.9158935546875 858.994873046875 858.0738525390625 857.7579345703125 857.6629638671875 857.5679931640625 857.67596435546875 859.59381103515625 861.51171875 863.4295654296875 863.650390625 861.9508056640625 860.251220703125 858.55157470703125 854.05328369140625 849.0115966796875 843.9698486328125 839.3714599609375 836.48504638671875 833.59869384765625 830.7122802734375 828.23187255859375 826.05279541015625 823.87371826171875 821.69464111328125 818.7596435546875 815.77825927734375 812.796875 809.4395751953125 805.2476806640625 801.0557861328125 796.86383056640625 794.88262939453125 793.94744873046875 793.01226806640625 792.177001953125 793.36376953125 794.550537109375 795.73736572265625 796.8492431640625 797.85565185546875 798.862060546875 799.86846923828125 801.7752685546875 803.93060302734375 806.08587646484375 807.91375732421875 807.91375732421875 
941.638427734375 941.638427734375 941.45001220703125 941.1746826171875 940.89935302734375 940.56622314453125 939.189453125 937.812744140625 936.43597412109375 934.76336669921875 932.6834716796875 930.60357666015625 928.523681640625 926.72113037109375 924.9927978515625 923.26446533203125 921.516845703125 919.66558837890625 917.8143310546875 915.96307373046875 913.97943115234375 911.87615966796875 909.77294921875 907.669677734375 905.67626953125 903.6959228515625 901.715576171875 899.77520751953125 897.94732666015625 896.119384765625 894.29150390625 892.47833251953125 890.67376708984375 888.86920166015625 887.06463623046875 886.6116943359375 886.16058349609375 885.70941162109375 884.48651123046875 881.93212890625 879.37774658203125 876.8233642578125 875.19085693359375 873.89031982421875 872.58978271484375 871.2431640625 869.4976806640625 867.752197265625 866.00677490234375 864.695068359375 863.8690185546875 863.04290771484375 862.21685791015625 858.75750732421875 854.79681396484375 850.83612060546875 847.84588623046875 848.5428466796875 849.23974609375 849.93670654296875 850.116943359375 849.9178466796875 849.71868896484375 849.51959228515625 850.0789794921875 850.68255615234375 851.2861328125 852.62005615234375 855.5555419921875 858.49102783203125 861.42657470703125 862.729736328125 863.2698974609375 863.81011962890625 864.3175048828125 864.19891357421875 864.080322265625 863.96173095703125 863.08697509765625 861.15948486328125 859.2320556640625 857.3045654296875 852.74224853515625 847.4638671875 842.185546875 837.257568359375 834.245849609375 831.234130859375 828.222412109375 826.145263671875 824.92095947265625 823.6966552734375 822.47235107421875 823.45648193359375 824.7103271484375 825.96417236328125 827.31365966796875 828.93621826171875 830.558837890625 832.181396484375 834.53240966796875 837.31549072265625 840.0985107421875 842.881591796875 848.05694580078125 853.241943359375 858.42694091796875 861.27716064453125 860.0528564453125 858.82855224609375 857.604248046875 856.98504638671875 856.5867919921875 856.18853759765625 855.93212890625 856.940185546875 857.94818115234375 858.95623779296875 858.6229248046875 856.77166748046875 854.92047119140625 853.0692138671875 849.05419921875 844.6190185546875 840.183837890625 836.16082763671875 833.72930908203125 831.2978515625 828.8663330078125 826.623291015625 824.52001953125 822.416748046875 820.31353759765625 817.5257568359375 814.69598388671875 811.86627197265625 808.825439453125 805.31585693359375 801.80633544921875 798.29681396484375 796.89501953125 796.49053955078125 796.0860595703125 795.72796630859375 796.3082275390625 796.88848876953125 797.46868896484375 798.10003662109375 798.80316162109375 799.50628662109375 800.20947265625 801.9317626953125 803.93548583984375 805.93914794921875 807.638427734375 807.638427734375 
941.363037109375 941.363037109375 941.1746826171875 940.89935302734375 940.62396240234375 940.2908935546875 938.91412353515625 937.537353515625 936.16058349609375 934.6156005859375 932.8389892578125 931.0623779296875 929.28570556640625 927.66680908203125 926.09014892578125 924.513427734375 922.8697509765625 920.86688232421875 918.86395263671875 916.861083984375 914.8453369140625 912.81787109375 910.79046630859375 908.76300048828125 907.11651611328125 905.5152587890625 903.91400146484375 902.27325439453125 900.52117919921875 898.76910400390625 897.01702880859375 895.42303466796875 893.9217529296875 892.42047119140625 890.919189453125 890.5423583984375 890.16705322265625 889.791748046875 888.67242431640625 886.26971435546875 883.866943359375 881.46417236328125 879.76031494140625 878.30816650390625 876.85595703125 875.279296875 872.62396240234375 869.96868896484375 867.3133544921875 865.5211181640625 864.695068359375 863.8690185546875 863.04290771484375 860.22052001953125 857.01800537109375 853.81549072265625 851.5360107421875 852.76373291015625 853.99139404296875 855.21905517578125 855.53656005859375 855.185791015625 854.83502197265625 854.4842529296875 854.67706298828125 854.90155029296875 855.12603759765625 855.9146728515625 857.94036865234375 859.96600341796875 861.99169921875 863.2509765625 864.1519775390625 865.052978515625 865.91168212890625 865.9630126953125 866.01434326171875 866.065673828125 865.289794921875 863.3623046875 861.43487548828125 859.50738525390625 854.58734130859375 848.85406494140625 843.120849609375 837.97235107421875 836.0220947265625 834.07183837890625 832.12158203125 830.392333984375 828.86474609375 827.337158203125 825.8095703125 826.49041748046875 827.44097900390625 828.39154052734375 829.673828125 831.9029541015625 834.132080078125 836.3612060546875 838.55731201171875 840.73382568359375 842.91033935546875 845.08685302734375 849.80670166015625 854.53680419921875 859.266845703125 861.7174072265625 860.1898193359375 858.6622314453125 857.1346435546875 856.21221923828125 855.51068115234375 854.80914306640625 854.188232421875 854.2864990234375 854.38470458984375 854.48291015625 853.595458984375 851.59259033203125 849.5897216796875 847.58685302734375 844.0550537109375 840.2264404296875 836.3978271484375 832.95013427734375 830.97357177734375 828.99700927734375 827.02044677734375 825.01470947265625 822.98724365234375 820.9598388671875 818.932373046875 816.2918701171875 813.61376953125 810.9356689453125 808.21124267578125 805.38409423828125 802.556884765625 799.729736328125 798.9073486328125 799.03363037109375 799.159912109375 799.27899169921875 799.252685546875 799.22637939453125 799.2000732421875 799.350830078125 799.75067138671875 800.15057373046875 800.5504150390625 802.08831787109375 803.94036865234375 805.79241943359375 807.363037109375 807.363037109375 
941.08770751953125 941.08770751953125 940.89935302734375 940.62396240234375 940.3486328125 940.01556396484375 938.6387939453125 937.26202392578125 935.88525390625 934.46783447265625 932.9945068359375 931.5211181640625 930.04779052734375 928.612548828125 927.1875 925.76239013671875 924.22265625 922.068115234375 919.91363525390625 917.75909423828125 915.71124267578125 913.75958251953125 911.8079833984375 909.85638427734375 908.5567626953125 907.3345947265625 906.11248779296875 904.77130126953125 903.09503173828125 901.41876220703125 899.74249267578125 898.36773681640625 897.16973876953125 895.9716796875 894.773681640625 894.4730224609375 894.17352294921875 893.8740234375 892.85833740234375 890.60723876953125 888.35614013671875 886.10504150390625 884.329833984375 882.72601318359375 881.1221923828125 879.31536865234375 875.750244140625 872.18511962890625 868.6199951171875 866.34716796875 865.5211181640625 864.695068359375 863.8690185546875 861.6834716796875 859.23919677734375 856.79486083984375 855.2261962890625 856.98455810546875 858.74298095703125 860.50140380859375 860.9561767578125 860.4537353515625 859.95135498046875 859.448974609375 859.27520751953125 859.12060546875 858.96600341796875 859.20928955078125 860.32513427734375 861.44097900390625 862.556884765625 863.772216796875 865.03399658203125 866.29583740234375 867.50592041015625 867.72711181640625 867.9483642578125 868.16961669921875 867.49261474609375 865.56512451171875 863.6376953125 861.710205078125 856.4324951171875 850.24432373046875 844.05609130859375 838.68719482421875 837.79840087890625 836.9095458984375 836.020751953125 834.639404296875 832.80853271484375 830.9776611328125 829.14678955078125 829.52435302734375 830.17169189453125 830.8189697265625 832.03399658203125 834.86968994140625 837.70538330078125 840.541015625 842.5821533203125 844.15216064453125 845.72210693359375 847.29205322265625 851.556396484375 855.83160400390625 860.10675048828125 862.15765380859375 860.3267822265625 858.49591064453125 856.6650390625 855.4393310546875 854.43450927734375 853.42974853515625 852.44439697265625 851.6328125 850.8211669921875 850.00958251953125 848.5679931640625 846.41351318359375 844.25897216796875 842.10443115234375 839.05596923828125 835.83392333984375 832.61181640625 829.739501953125 828.21783447265625 826.6961669921875 825.17449951171875 823.40606689453125 821.4544677734375 819.50286865234375 817.55126953125 815.0579833984375 812.531494140625 810.00506591796875 807.59710693359375 805.4522705078125 803.3074951171875 801.16265869140625 800.91973876953125 801.57672119140625 802.2337646484375 802.83001708984375 802.1971435546875 801.5643310546875 800.93145751953125 800.6015625 800.69818115234375 800.7947998046875 800.89141845703125 802.24481201171875 803.94525146484375 805.6456298828125 807.08770751953125 807.08770751953125 
941 941 940.8116455078125 940.5362548828125 940.26092529296875 939.92242431640625 938.44232177734375 936.96221923828125 935.48211669921875 934.0889892578125 932.8155517578125 931.5421142578125 930.26873779296875 928.79144287109375 927.25970458984375 925.72796630859375 924.11505126953125 922.06719970703125 920.0194091796875 917.97161865234375 916.2314453125 914.76898193359375 913.3065185546875 911.84405517578125 910.51959228515625 909.2115478515625 907.9034423828125 906.5999755859375 905.3095703125 904.01910400390625 902.72869873046875 901.8179931640625 901.12994384765625 900.44189453125 899.7537841796875 899.58111572265625 899.40911865234375 899.237060546875 898.3009033203125 896.04644775390625 893.79193115234375 891.5374755859375 889.64990234375 887.8944091796875 886.13897705078125 884.107421875 879.68414306640625 875.2608642578125 870.83758544921875 868.13580322265625 867.3614501953125 866.5870361328125 865.8126220703125 863.8817138671875 861.73052978515625 859.57940673828125 858.26727294921875 860.14306640625 862.01885986328125 863.8946533203125 864.2818603515625 863.576171875 862.87042236328125 862.16473388671875 861.96331787109375 861.79132080078125 861.61932373046875 861.8731689453125 863.06085205078125 864.24859619140625 865.43634033203125 866.8585205078125 868.3902587890625 869.92205810546875 871.38360595703125 871.50396728515625 871.624267578125 871.74462890625 870.749755859375 868.2022705078125 865.65478515625 863.1072998046875 857.826904296875 851.8038330078125 845.78076171875 840.675537109375 840.58984375 840.504150390625 840.41851806640625 839.5048828125 837.83575439453125 836.1666259765625 834.49749755859375 834.438232421875 834.57562255859375 834.71295166015625 835.65411376953125 838.8896484375 842.12518310546875 845.3607177734375 847.23486328125 848.3016357421875 849.36834716796875 850.43511962890625 854.29583740234375 858.16778564453125 862.0396728515625 863.7237548828125 861.589599609375 859.4554443359375 857.32135009765625 855.9437255859375 854.84234619140625 853.74090576171875 852.6395263671875 851.5380859375 850.43670654296875 849.33526611328125 847.6202392578125 845.21075439453125 842.80126953125 840.39178466796875 837.50689697265625 834.5296630859375 831.552490234375 828.88323974609375 827.40313720703125 825.92303466796875 824.44293212890625 822.58746337890625 820.45330810546875 818.31915283203125 816.18505859375 813.97015380859375 811.7503662109375 809.530517578125 807.5458984375 806.08343505859375 804.6209716796875 803.15850830078125 803.2144775390625 803.98883056640625 804.76324462890625 805.46954345703125 804.79852294921875 804.12744140625 803.4564208984375 803.0640869140625 803.0640869140625 803.0640869140625 803.0640869140625 804.2373046875 805.734375 807.23150634765625 808.50115966796875 808.50115966796875 
941 941 940.8116455078125 940.5362548828125 940.26092529296875 939.91448974609375 938.28271484375 936.6510009765625 935.019287109375 933.60205078125 932.48028564453125 931.3585205078125 930.2366943359375 928.61199951171875 926.852783203125 925.09356689453125 923.32470703125 921.50439453125 919.68402099609375 917.86370849609375 916.59002685546875 915.8099365234375 915.02984619140625 914.24981689453125 912.7266845703125 911.1153564453125 909.50396728515625 908.1158447265625 907.35614013671875 906.596435546875 905.83673095703125 905.50457763671875 905.42303466796875 905.341552734375 905.260009765625 905.23956298828125 905.21917724609375 905.19879150390625 904.330810546875 902.00054931640625 899.67022705078125 897.33990478515625 895.32080078125 893.4136962890625 891.506591796875 889.25274658203125 883.9954833984375 878.73822021484375 873.48089599609375 870.3743896484375 869.67584228515625 868.97723388671875 868.2786865234375 866.42352294921875 864.34820556640625 862.27288818359375 861.0050048828125 862.80499267578125 864.60491943359375 866.4049072265625 866.62890625 865.69573974609375 864.7625732421875 863.82940673828125 863.75872802734375 863.73834228515625 863.71795654296875 864.2421875 865.96063232421875 867.6790771484375 869.3975830078125 871.143798828125 872.90301513671875 874.6622314453125 876.32861328125 876.22149658203125 876.1143798828125 876.00726318359375 874.49969482421875 871.0423583984375 867.5850830078125 864.12774658203125 859.01068115234375 853.4425048828125 847.87432861328125 843.25921630859375 843.85589599609375 844.45257568359375 845.04925537109375 844.659423828125 843.369384765625 842.079345703125 840.789306640625 840.23077392578125 839.7615966796875 839.29241943359375 839.863037109375 843.40185546875 846.940673828125 850.4794921875 852.18096923828125 852.7928466796875 853.4046630859375 854.0164794921875 857.497802734375 860.99066162109375 864.4835205078125 865.81610107421875 863.378662109375 860.9412841796875 858.50384521484375 857.045166015625 855.9437255859375 854.84234619140625 853.74090576171875 852.6395263671875 851.5380859375 850.43670654296875 848.579345703125 845.86663818359375 843.15386962890625 840.44110107421875 837.57037353515625 834.66900634765625 831.76763916015625 829.12738037109375 827.49566650390625 825.8638916015625 824.232177734375 822.13800048828125 819.70062255859375 817.26318359375 814.8258056640625 812.95062255859375 811.10986328125 809.2691650390625 807.75775146484375 806.9776611328125 806.1976318359375 805.41754150390625 805.64117431640625 806.3397216796875 807.03826904296875 807.68310546875 807.239501953125 806.7958984375 806.352294921875 806.09295654296875 806.09295654296875 806.09295654296875 806.09295654296875 807.087890625 808.3575439453125 809.627197265625 810.7039794921875 810.7039794921875 
941 941 940.8116455078125 940.5362548828125 940.26092529296875 939.906494140625 938.1231689453125 936.33978271484375 934.556396484375 933.11517333984375 932.14501953125 931.17486572265625 930.2047119140625 928.43255615234375 926.44586181640625 924.459228515625 922.534423828125 920.9415283203125 919.3486328125 917.7557373046875 916.94866943359375 916.8509521484375 916.75323486328125 916.655517578125 914.93377685546875 913.0191650390625 911.10455322265625 909.6317138671875 909.40277099609375 909.17376708984375 908.94482421875 909.191162109375 909.7161865234375 910.2412109375 910.7662353515625 910.8980712890625 911.029296875 911.16058349609375 910.3607177734375 907.95465087890625 905.54852294921875 903.14239501953125 900.99169921875 898.9329833984375 896.874267578125 894.39813232421875 888.30682373046875 882.215576171875 876.124267578125 872.61297607421875 871.990234375 871.36749267578125 870.7447509765625 868.96539306640625 866.96588134765625 864.96636962890625 863.74273681640625 865.46685791015625 867.1910400390625 868.9151611328125 868.97589111328125 867.81524658203125 866.6546630859375 865.4940185546875 865.55413818359375 865.68536376953125 865.816650390625 866.6112060546875 868.86041259765625 871.109619140625 873.3587646484375 875.4290771484375 877.415771484375 879.40240478515625 881.27362060546875 880.93902587890625 880.6044921875 880.2698974609375 878.2496337890625 873.88250732421875 869.515380859375 865.14825439453125 860.19439697265625 855.0811767578125 849.9678955078125 845.8428955078125 847.12188720703125 848.40093994140625 849.67999267578125 849.81396484375 848.90301513671875 847.9920654296875 847.0811767578125 846.02337646484375 844.9476318359375 843.87188720703125 844.072021484375 847.91412353515625 851.75616455078125 855.5982666015625 857.12713623046875 857.2840576171875 857.44097900390625 857.597900390625 860.6998291015625 863.81353759765625 866.92730712890625 867.90838623046875 865.167724609375 862.42706298828125 859.68634033203125 858.14654541015625 857.045166015625 855.9437255859375 854.84234619140625 853.74090576171875 852.6395263671875 851.5380859375 849.53851318359375 846.5224609375 843.50640869140625 840.49041748046875 837.63385009765625 834.80828857421875 831.98272705078125 829.37152099609375 827.58819580078125 825.8048095703125 824.02142333984375 821.6885986328125 818.94793701171875 816.20721435546875 813.466552734375 811.9310302734375 810.46942138671875 809.00775146484375 807.96966552734375 807.8719482421875 807.77423095703125 807.676513671875 808.06787109375 808.69061279296875 809.3133544921875 809.8966064453125 809.68048095703125 809.46435546875 809.2481689453125 809.121826171875 809.121826171875 809.121826171875 809.121826171875 809.93853759765625 810.980712890625 812.02294921875 812.90679931640625 812.90679931640625 
940.9451904296875 940.9451904296875 940.7568359375 940.4814453125 940.20611572265625 939.84454345703125 937.92462158203125 936.00469970703125 934.08477783203125 932.61871337890625 931.777587890625 930.93646240234375 930.09527587890625 928.188720703125 925.99725341796875 923.8057861328125 921.7432861328125 920.3720703125 919.00091552734375 917.62969970703125 917.2755126953125 917.83953857421875 918.40350341796875 918.967529296875 917.07196044921875 914.88421630859375 912.696533203125 911.14447021484375 911.38214111328125 911.6197509765625 911.85736083984375 912.63238525390625 913.72247314453125 914.81256103515625 915.90264892578125 916.19036865234375 916.47705078125 916.76373291015625 916.0413818359375 913.57830810546875 911.115234375 908.65216064453125 906.3831787109375 904.18414306640625 901.985107421875 899.30352783203125 892.4423828125 885.5811767578125 878.72003173828125 874.83428955078125 874.27984619140625 873.725341796875 873.1708984375 871.4693603515625 869.5494384765625 867.6295166015625 866.4530029296875 868.10137939453125 869.74969482421875 871.3980712890625 871.30419921875 869.93121337890625 868.5582275390625 867.18524169921875 867.37335205078125 867.6524658203125 867.93157958984375 868.9774169921875 871.70452880859375 874.431640625 877.15875244140625 879.5260009765625 881.72503662109375 883.924072265625 885.9866943359375 885.44354248046875 884.90032958984375 884.357177734375 881.8651123046875 876.65985107421875 871.45458984375 866.249267578125 861.47998046875 856.8292236328125 852.17840576171875 848.545166015625 850.47637939453125 852.40765380859375 854.3388671875 854.97430419921875 854.4273681640625 853.88043212890625 853.33349609375 851.7781982421875 850.09967041015625 848.421142578125 848.2447509765625 852.35614013671875 856.46759033203125 860.5789794921875 861.95806884765625 861.7166748046875 861.47528076171875 861.23388671875 863.964111328125 866.706298828125 869.44854736328125 870.08428955078125 867.04412841796875 864.00396728515625 860.9637451171875 859.33831787109375 858.2293701171875 857.12042236328125 856.01031494140625 854.89007568359375 853.769775390625 852.6495361328125 850.5029296875 847.1949462890625 843.886962890625 840.5789794921875 837.7542724609375 835.02337646484375 832.29248046875 829.72454833984375 827.7857666015625 825.84698486328125 823.908203125 821.34375 818.31488037109375 815.2860107421875 812.25714111328125 811.06219482421875 809.9796142578125 808.8970947265625 808.31231689453125 808.8328857421875 809.3533935546875 809.8739013671875 810.41748046875 810.97198486328125 811.52642822265625 812.0567626953125 812.0982666015625 812.1397705078125 812.18121337890625 812.2086181640625 812.2161865234375 812.22369384765625 812.23126220703125 812.85955810546875 813.6591796875 814.4588623046875 815.13702392578125 815.13702392578125 
939.84381103515625 939.84381103515625 939.6553955078125 939.38006591796875 939.104736328125 938.7510986328125 936.98284912109375 935.21453857421875 933.4462890625 931.9404296875 930.7960205078125 929.651611328125 928.5072021484375 926.71612548828125 924.7520751953125 922.78802490234375 920.934814453125 919.67559814453125 918.41644287109375 917.1572265625 916.99658203125 917.82763671875 918.65875244140625 919.4898681640625 917.89373779296875 916.00927734375 914.12481689453125 912.59783935546875 912.07733154296875 911.5567626953125 911.03619384765625 911.3875732421875 912.250244140625 913.11285400390625 913.9754638671875 914.49005126953125 915.00421142578125 915.518310546875 915.05126953125 912.8914794921875 910.73162841796875 908.57183837890625 906.43896484375 904.31573486328125 902.1925048828125 899.6259765625 893.2197265625 886.8134765625 880.4072265625 876.72601318359375 876.095703125 875.46539306640625 874.8350830078125 873.24884033203125 871.48052978515625 869.7122802734375 868.64007568359375 870.21258544921875 871.78509521484375 873.35760498046875 873.275390625 871.97821044921875 870.6810302734375 869.38385009765625 869.6478271484375 870.00274658203125 870.357666015625 871.28936767578125 873.4857177734375 875.68212890625 877.87847900390625 880.0250244140625 882.14825439453125 884.271484375 886.26959228515625 885.8780517578125 885.48651123046875 885.09503173828125 882.91302490234375 878.23846435546875 873.56396484375 868.889404296875 864.71044921875 860.66619873046875 856.6219482421875 853.51318359375 855.520263671875 857.52728271484375 859.53436279296875 860.24566650390625 859.7745361328125 859.30340576171875 858.832275390625 856.812255859375 854.60302734375 852.39373779296875 851.7259521484375 855.45831298828125 859.19061279296875 862.92291259765625 864.5892333984375 865.0301513671875 865.47113037109375 865.912109375 868.4185791015625 870.93328857421875 873.44805908203125 873.85638427734375 870.5887451171875 867.32110595703125 864.053466796875 862.256103515625 860.99554443359375 859.73492431640625 858.45025634765625 856.950927734375 855.4515380859375 853.95220947265625 851.56878662109375 848.18499755859375 844.8011474609375 841.4173583984375 838.96124267578125 836.685302734375 834.4093017578125 832.1558837890625 829.98968505859375 827.82342529296875 825.6572265625 822.995849609375 819.96697998046875 816.9381103515625 813.90924072265625 813.07147216796875 812.3680419921875 811.66455078125 811.15283203125 811.06683349609375 810.9808349609375 810.894775390625 811.29498291015625 811.92529296875 812.55560302734375 813.19744873046875 814.07293701171875 814.94842529296875 815.82391357421875 816.40191650390625 816.56109619140625 816.72027587890625 816.87945556640625 817.1246337890625 817.3935546875 817.6624755859375 817.8905029296875 817.8905029296875 
938.74237060546875 938.74237060546875 938.55401611328125 938.2786865234375 938.0032958984375 937.65765380859375 936.041015625 934.42437744140625 932.8077392578125 931.26214599609375 929.814453125 928.36676025390625 926.9190673828125 925.24346923828125 923.5068359375 921.770263671875 920.12640380859375 918.97918701171875 917.83197021484375 916.68475341796875 916.71759033203125 917.8157958984375 918.91400146484375 920.01220703125 918.71551513671875 917.13433837890625 915.55316162109375 914.05126953125 912.77252197265625 911.4937744140625 910.21502685546875 910.142822265625 910.7779541015625 911.41314697265625 912.04833984375 912.789794921875 913.5313720703125 914.27294921875 914.0611572265625 912.20458984375 910.34808349609375 908.4915771484375 906.49468994140625 904.447265625 902.39990234375 899.9483642578125 893.9970703125 888.04571533203125 882.0943603515625 878.61767578125 877.91156005859375 877.2054443359375 876.49932861328125 875.0283203125 873.41168212890625 871.7950439453125 870.82708740234375 872.32379150390625 873.8204345703125 875.317138671875 875.24658203125 874.02520751953125 872.8038330078125 871.58251953125 871.9222412109375 872.35302734375 872.78375244140625 873.601318359375 875.2669677734375 876.9326171875 878.5982666015625 880.5240478515625 882.57147216796875 884.61883544921875 886.552490234375 886.31256103515625 886.07269287109375 885.83282470703125 883.9609375 879.817138671875 875.67333984375 871.52947998046875 867.94091796875 864.50323486328125 861.06549072265625 858.48126220703125 860.56414794921875 862.64697265625 864.7298583984375 865.5169677734375 865.1217041015625 864.72637939453125 864.33111572265625 861.8463134765625 859.1063232421875 856.3663330078125 855.20721435546875 858.5604248046875 861.91363525390625 865.26690673828125 867.2203369140625 868.34368896484375 869.467041015625 870.59033203125 872.87298583984375 875.1602783203125 877.44757080078125 877.62847900390625 874.13336181640625 870.63824462890625 867.1431884765625 865.17388916015625 863.76165771484375 862.34942626953125 860.89019775390625 859.01177978515625 857.13330078125 855.25482177734375 852.6346435546875 849.17498779296875 845.71539306640625 842.2557373046875 840.16827392578125 838.34716796875 836.526123046875 834.5872802734375 832.193603515625 829.7999267578125 827.40618896484375 824.64794921875 821.61907958984375 818.5902099609375 815.56134033203125 815.080810546875 814.75640869140625 814.43206787109375 813.99334716796875 813.30078125 812.60821533203125 811.9156494140625 812.17254638671875 812.878662109375 813.58477783203125 814.338134765625 816.047607421875 817.75714111328125 819.46661376953125 820.59515380859375 820.90594482421875 821.216796875 821.527587890625 821.38970947265625 821.12786865234375 820.8660888671875 820.64404296875 820.64404296875 
937.6409912109375 937.6409912109375 937.45257568359375 937.17724609375 936.90191650390625 936.564208984375 935.09918212890625 933.6341552734375 932.169189453125 930.5838623046875 928.8328857421875 927.0819091796875 925.3309326171875 923.77081298828125 922.26165771484375 920.7525634765625 919.31793212890625 918.28271484375 917.24749755859375 916.2122802734375 916.4385986328125 917.803955078125 919.16925048828125 920.5345458984375 919.53729248046875 918.2593994140625 916.98150634765625 915.504638671875 913.46771240234375 911.4307861328125 909.39385986328125 908.89801025390625 909.30572509765625 909.71343994140625 910.12115478515625 911.0894775390625 912.0584716796875 913.02752685546875 913.071044921875 911.51776123046875 909.96453857421875 908.4112548828125 906.5504150390625 904.578857421875 902.60723876953125 900.27081298828125 894.7744140625 889.2779541015625 883.78155517578125 880.5093994140625 879.7274169921875 878.94549560546875 878.16357421875 876.80780029296875 875.34283447265625 873.8778076171875 873.01409912109375 874.4349365234375 875.8558349609375 877.2767333984375 877.21771240234375 876.07220458984375 874.92669677734375 873.7811279296875 874.19671630859375 874.70330810546875 875.20989990234375 875.91326904296875 877.04815673828125 878.18310546875 879.3179931640625 881.0230712890625 882.99468994140625 884.96624755859375 886.83538818359375 886.74713134765625 886.65887451171875 886.57061767578125 885.00885009765625 881.39581298828125 877.78271484375 874.16961669921875 871.17138671875 868.3402099609375 865.509033203125 863.44927978515625 865.60797119140625 867.76666259765625 869.92535400390625 870.78826904296875 870.46881103515625 870.14935302734375 869.82989501953125 866.88037109375 863.60968017578125 860.3389892578125 858.68841552734375 861.66253662109375 864.63665771484375 867.61083984375 869.85150146484375 871.6572265625 873.462890625 875.26861572265625 877.327392578125 879.38726806640625 881.44708251953125 881.4005126953125 877.677978515625 873.95538330078125 870.23284912109375 868.0916748046875 866.52783203125 864.96392822265625 863.33013916015625 861.07257080078125 858.8150634765625 856.5574951171875 853.700439453125 850.1650390625 846.62957763671875 843.0941162109375 841.375244140625 840.00909423828125 838.6429443359375 837.0186767578125 834.39752197265625 831.7763671875 829.15521240234375 826.300048828125 823.27117919921875 820.2423095703125 817.21343994140625 817.090087890625 817.14483642578125 817.1995849609375 816.83392333984375 815.5347900390625 814.23565673828125 812.9365234375 813.050048828125 813.83197021484375 814.6138916015625 815.478759765625 818.02227783203125 820.5657958984375 823.10931396484375 824.78839111328125 825.2508544921875 825.71331787109375 826.17578125 825.65478515625 824.86224365234375 824.0697021484375 823.39752197265625 823.39752197265625 
937 937 936.87664794921875 936.6964111328125 936.51611328125 936.28314208984375 935.0965576171875 933.909912109375 932.72332763671875 931.15838623046875 929.07244873046875 926.98651123046875 924.90057373046875 923.19915771484375 921.60052490234375 920.00189208984375 918.5091552734375 917.583984375 916.6588134765625 915.73358154296875 916.05364990234375 917.49786376953125 918.9420166015625 920.38623046875 919.72509765625 918.8138427734375 917.902587890625 916.6055908203125 914.2225341796875 911.83941650390625 909.45635986328125 908.52581787109375 908.447021484375 908.36822509765625 908.2894287109375 909.21246337890625 910.1368408203125 911.061279296875 911.19659423828125 909.970703125 908.7447509765625 907.51885986328125 905.8470458984375 904.0146484375 902.18231201171875 900.02099609375 895.01116943359375 890.00140380859375 884.9915771484375 882.0751953125 881.50274658203125 880.93023681640625 880.35772705078125 879.08294677734375 877.67449951171875 876.26605224609375 875.4049072265625 876.6231689453125 877.84149169921875 879.05975341796875 879.068359375 878.1888427734375 877.30926513671875 876.42974853515625 876.8717041015625 877.39068603515625 877.90972900390625 878.5050048828125 879.2677001953125 880.03033447265625 880.79302978515625 882.28466796875 884.1170654296875 885.94940185546875 887.69219970703125 887.72393798828125 887.755615234375 887.78729248046875 886.5701904296875 883.6146240234375 880.6590576171875 877.7034912109375 875.32269287109375 873.09808349609375 870.87347412109375 869.313720703125 871.3897705078125 873.46575927734375 875.54180908203125 876.338623046875 875.96820068359375 875.5977783203125 875.22735595703125 871.82757568359375 868.057861328125 864.2880859375 862.24365234375 865.12396240234375 868.00421142578125 870.884521484375 873.39923095703125 875.6971435546875 877.99505615234375 880.29290771484375 882.06402587890625 883.8330078125 885.60198974609375 885.20684814453125 881.03497314453125 876.86309814453125 872.6912841796875 870.31884765625 868.60333251953125 866.8878173828125 865.09539794921875 862.61724853515625 860.13909912109375 857.66094970703125 854.680908203125 851.133056640625 847.585205078125 844.03729248046875 842.69732666015625 841.7861328125 840.8748779296875 839.61077880859375 836.98406982421875 834.3572998046875 831.7305908203125 828.873046875 825.84417724609375 822.8153076171875 819.78643798828125 819.63201904296875 819.65380859375 819.67559814453125 819.16778564453125 817.48394775390625 815.8001708984375 814.1163330078125 814.13629150390625 814.96234130859375 815.78839111328125 816.712158203125 819.6142578125 822.516357421875 825.41845703125 827.3438720703125 827.89453125 828.44525146484375 828.9959716796875 828.351318359375 827.376708984375 826.402099609375 825.5755615234375 825.5755615234375 
937 937 937.03228759765625 937.0794677734375 937.12664794921875 937.13299560546875 936.4013671875 935.669677734375 934.93798828125 933.47711181640625 931.01202392578125 928.5469970703125 926.08197021484375 923.8818359375 921.75244140625 919.62310791015625 917.70001220703125 916.88214111328125 916.06427001953125 915.246337890625 915.52105712890625 916.7821044921875 918.043212890625 919.30426025390625 919.0302734375 918.573974609375 918.11761474609375 917.2159423828125 915.060302734375 912.9046630859375 910.7490234375 909.3685302734375 908.4425048828125 907.5164794921875 906.59039306640625 907.0894775390625 907.5904541015625 908.09149169921875 908.0911865234375 907.22607421875 906.3609619140625 905.495849609375 904.0867919921875 902.48187255859375 900.876953125 898.97454833984375 894.4954833984375 890.016357421875 885.53729248046875 883.18743896484375 883.22149658203125 883.25555419921875 883.28961181640625 882.04815673828125 880.56390380859375 879.07958984375 878.07940673828125 878.91864013671875 879.7578125 880.59698486328125 880.75115966796875 880.40234375 880.05352783203125 879.7047119140625 880.104248046875 880.5474853515625 880.99066162109375 881.48638916015625 882.097412109375 882.70843505859375 883.31951904296875 884.60784912109375 886.2127685546875 887.81768798828125 889.34808349609375 889.45562744140625 889.5631103515625 889.670654296875 888.8463134765625 886.7247314453125 884.6031494140625 882.4815673828125 880.75592041015625 879.13787841796875 877.51983642578125 876.42596435546875 878.19873046875 879.97149658203125 881.7442626953125 882.2774658203125 881.6795654296875 881.0816650390625 880.4837646484375 876.65386962890625 872.42919921875 868.20458984375 865.90191650390625 869.08544921875 872.26904296875 875.45257568359375 878.2230224609375 880.74835205078125 883.273681640625 885.799072265625 887.1934814453125 888.5833740234375 889.9732666015625 889.06097412109375 884.13092041015625 879.20086669921875 874.27081298828125 871.58447265625 869.71734619140625 867.8502197265625 865.92144775390625 863.44329833984375 860.96514892578125 858.48699951171875 855.54254150390625 852.07049560546875 848.59844970703125 845.12640380859375 844.1796875 843.723388671875 843.26702880859375 842.42669677734375 840.10321044921875 837.77978515625 835.456298828125 832.72796630859375 829.6990966796875 826.67022705078125 823.641357421875 822.9154052734375 822.3306884765625 821.74591064453125 820.79632568359375 819.0367431640625 817.277099609375 815.5174560546875 815.51300048828125 816.33905029296875 817.1651611328125 818.07464599609375 820.6734619140625 823.27227783203125 825.87109375 827.61920166015625 828.169921875 828.7205810546875 829.27130126953125 828.8643798828125 828.1929931640625 827.52166748046875 826.9522705078125 826.9522705078125 
937 937 937.1878662109375 937.4625244140625 937.7371826171875 937.98291015625 937.7061767578125 937.42938232421875 937.15264892578125 935.7957763671875 932.95166015625 930.1075439453125 927.263427734375 924.564453125 921.9044189453125 919.24432373046875 916.89080810546875 916.18023681640625 915.46966552734375 914.75909423828125 914.98846435546875 916.06640625 917.14434814453125 918.2222900390625 918.33551025390625 918.3341064453125 918.3326416015625 917.82623291015625 915.8980712890625 913.96990966796875 912.041748046875 910.21124267578125 908.43792724609375 906.6646728515625 904.89141845703125 904.966552734375 905.04412841796875 905.12164306640625 904.9857177734375 904.4814453125 903.97711181640625 903.47283935546875 902.32659912109375 900.9490966796875 899.5716552734375 897.9281005859375 893.979736328125 890.0313720703125 886.0830078125 884.2996826171875 884.94024658203125 885.58087158203125 886.221435546875 885.0133056640625 883.4532470703125 881.89312744140625 880.75396728515625 881.21405029296875 881.67413330078125 882.13427734375 882.4339599609375 882.6158447265625 882.79779052734375 882.97967529296875 883.33685302734375 883.7042236328125 884.07159423828125 884.4677734375 884.92718505859375 885.3865966796875 885.845947265625 886.93096923828125 888.3084716796875 889.6859130859375 891.00396728515625 891.18731689453125 891.37066650390625 891.553955078125 891.1224365234375 889.8348388671875 888.54730224609375 887.25970458984375 886.189208984375 885.17767333984375 884.16619873046875 883.5382080078125 885.0076904296875 886.4771728515625 887.94671630859375 888.21624755859375 887.39093017578125 886.5655517578125 885.740234375 881.48016357421875 876.80059814453125 872.12103271484375 869.56011962890625 873.0469970703125 876.5338134765625 880.02069091796875 883.0467529296875 885.799560546875 888.5523681640625 891.30517578125 892.32293701171875 893.333740234375 894.34454345703125 892.9150390625 887.226806640625 881.53857421875 875.85028076171875 872.85015869140625 870.8314208984375 868.8126220703125 866.74755859375 864.26934814453125 861.79119873046875 859.31304931640625 856.4041748046875 853.0079345703125 849.6116943359375 846.2154541015625 845.66204833984375 845.66064453125 845.65924072265625 845.2425537109375 843.222412109375 841.20220947265625 839.1820068359375 836.5828857421875 833.55401611328125 830.525146484375 827.49627685546875 826.1988525390625 825.00750732421875 823.81622314453125 822.4249267578125 820.5894775390625 818.7540283203125 816.9185791015625 816.8897705078125 817.7158203125 818.5418701171875 819.4371337890625 821.732666015625 824.0281982421875 826.32373046875 827.89453125 828.44525146484375 828.9959716796875 829.54669189453125 829.37738037109375 829.00927734375 828.6412353515625 828.32904052734375 828.32904052734375 
937 937 937.343505859375 937.8455810546875 938.34771728515625 938.83282470703125 939.010986328125 939.1890869140625 939.36724853515625 938.11444091796875 934.8912353515625 931.66802978515625 928.44482421875 925.24713134765625 922.05633544921875 918.86553955078125 916.0816650390625 915.4783935546875 914.8751220703125 914.2718505859375 914.45587158203125 915.3507080078125 916.24554443359375 917.14031982421875 917.64068603515625 918.09417724609375 918.54766845703125 918.43658447265625 916.73583984375 915.03515625 913.33441162109375 911.05389404296875 908.43341064453125 905.81292724609375 903.19244384765625 902.84356689453125 902.49774169921875 902.15185546875 901.8802490234375 901.73681640625 901.59332275390625 901.4498291015625 900.56634521484375 899.41632080078125 898.266357421875 896.881591796875 893.4639892578125 890.04632568359375 886.62872314453125 885.411865234375 886.65899658203125 887.90618896484375 889.1533203125 887.978515625 886.34259033203125 884.7066650390625 883.428466796875 883.509521484375 883.59051513671875 883.6715087890625 884.11676025390625 884.82940673828125 885.54205322265625 886.25469970703125 886.5694580078125 886.8609619140625 887.15252685546875 887.44915771484375 887.75689697265625 888.064697265625 888.3724365234375 889.254150390625 890.4041748046875 891.55419921875 892.65985107421875 892.91900634765625 893.17816162109375 893.43731689453125 893.39849853515625 892.9449462890625 892.49139404296875 892.037841796875 891.62249755859375 891.217529296875 890.81256103515625 890.6505126953125 891.81671142578125 892.98291015625 894.14910888671875 894.15509033203125 893.10223388671875 892.0494384765625 890.99664306640625 886.30645751953125 881.1719970703125 876.0374755859375 873.2183837890625 877.008544921875 880.79864501953125 884.5887451171875 887.8704833984375 890.85076904296875 893.8310546875 896.811279296875 897.452392578125 898.0841064453125 898.7158203125 896.76910400390625 890.32269287109375 883.87628173828125 877.4298095703125 874.1158447265625 871.9454345703125 869.7750244140625 867.5736083984375 865.09539794921875 862.61724853515625 860.13909912109375 857.26580810546875 853.94537353515625 850.62493896484375 847.3045654296875 847.1444091796875 847.597900390625 848.0513916015625 848.0584716796875 846.341552734375 844.6246337890625 842.90771484375 840.43780517578125 837.408935546875 834.38006591796875 831.3511962890625 829.48223876953125 827.68438720703125 825.88653564453125 824.053466796875 822.1422119140625 820.23095703125 818.3197021484375 818.26654052734375 819.09259033203125 819.91864013671875 820.79962158203125 822.7918701171875 824.7841796875 826.77642822265625 828.169921875 828.7205810546875 829.27130126953125 829.822021484375 829.890380859375 829.8255615234375 829.7607421875 829.705810546875 829.705810546875 
936.56695556640625 936.56695556640625 936.9437255859375 937.49444580078125 938.045166015625 938.587646484375 938.98223876953125 939.3768310546875 939.77142333984375 938.635009765625 935.390380859375 932.14581298828125 928.90118408203125 925.5625 922.19866943359375 918.8348388671875 915.89385986328125 915.21905517578125 914.54425048828125 913.86944580078125 913.95465087890625 914.7259521484375 915.49725341796875 916.2685546875 916.89599609375 917.50628662109375 918.11663818359375 918.18084716796875 916.70758056640625 915.23431396484375 913.76104736328125 911.41943359375 908.5687255859375 905.71795654296875 902.86724853515625 902.37823486328125 901.892333984375 901.406494140625 901.045166015625 900.898681640625 900.752197265625 900.60577392578125 899.801025390625 898.75921630859375 897.71746826171875 896.4661865234375 893.400390625 890.33465576171875 887.2689208984375 886.41156005859375 888.02679443359375 889.64202880859375 891.25726318359375 890.07763671875 888.36590576171875 886.6541748046875 885.2618408203125 885.08294677734375 884.90411376953125 884.72528076171875 885.16021728515625 886.0458984375 886.93157958984375 887.8172607421875 888.126220703125 888.401611328125 888.67694091796875 888.970947265625 889.305908203125 889.64093017578125 889.97589111328125 890.8331298828125 891.9345703125 893.03594970703125 894.0992431640625 894.4342041015625 894.7691650390625 895.1041259765625 895.28363037109375 895.24676513671875 895.20989990234375 895.17303466796875 894.9486083984375 894.67327880859375 894.39788818359375 894.3077392578125 895.23028564453125 896.15289306640625 897.075439453125 896.84619140625 895.56591796875 894.28564453125 893.00537109375 888.57568359375 883.7613525390625 878.94696044921875 876.443603515625 880.5369873046875 884.63043212890625 888.72381591796875 891.88702392578125 894.49853515625 897.110107421875 899.7216796875 900.0430908203125 900.3553466796875 900.66754150390625 898.43701171875 891.76898193359375 885.10089111328125 878.432861328125 875.07952880859375 872.93634033203125 870.79315185546875 868.6041259765625 866.0067138671875 863.4093017578125 860.81195068359375 857.96685791015625 854.84149169921875 851.71612548828125 848.59075927734375 848.543701171875 849.09442138671875 849.6451416015625 849.7550048828125 848.16253662109375 846.57000732421875 844.9775390625 842.45794677734375 839.250244140625 836.04254150390625 832.83477783203125 830.7772216796875 828.7901611328125 826.80303955078125 824.85302734375 822.98516845703125 821.1173095703125 819.24945068359375 819.21026611328125 820.03631591796875 820.86236572265625 821.73468017578125 823.54290771484375 825.35113525390625 827.15936279296875 828.44525146484375 828.9959716796875 829.54669189453125 830.09735107421875 830.3099365234375 830.42919921875 830.54840087890625 830.6495361328125 830.6495361328125 
936.01629638671875 936.01629638671875 936.39300537109375 936.9437255859375 937.49444580078125 938.044921875 938.59112548828125 939.1373291015625 939.68359375 938.6668701171875 935.49810791015625 932.329345703125 929.1605224609375 925.77801513671875 922.33837890625 918.89874267578125 915.875 915.08001708984375 914.28509521484375 913.4901123046875 913.4619140625 914.12591552734375 914.7899169921875 915.45391845703125 916.1376953125 916.8238525390625 917.50994873046875 917.68975830078125 916.44390869140625 915.1981201171875 913.95233154296875 911.65533447265625 908.74200439453125 905.82867431640625 902.915283203125 902.36334228515625 901.814453125 901.265625 900.8270263671875 900.5787353515625 900.33038330078125 900.08203125 899.30609130859375 898.340087890625 897.3741455078125 896.22216796875 893.459716796875 890.697265625 887.93475341796875 887.3807373046875 889.2991943359375 891.21771240234375 893.13623046875 891.94140625 890.15386962890625 888.36627197265625 886.86651611328125 886.460205078125 886.05389404296875 885.6475830078125 886.030029296875 886.99151611328125 887.9530029296875 888.91448974609375 889.2276611328125 889.50299072265625 889.7783203125 890.09613037109375 890.50689697265625 890.91766357421875 891.3284912109375 892.20989990234375 893.311279296875 894.4127197265625 895.479736328125 895.89056396484375 896.30133056640625 896.71209716796875 897.06256103515625 897.32891845703125 897.5953369140625 897.8616943359375 897.7021484375 897.4267578125 897.15142822265625 897.026123046875 897.72119140625 898.41632080078125 899.11138916015625 898.65472412109375 897.14697265625 895.6392822265625 894.131591796875 890.15008544921875 885.866455078125 881.58282470703125 879.5511474609375 883.94781494140625 888.344482421875 892.74114990234375 895.68414306640625 897.76495361328125 899.84576416015625 901.92657470703125 901.94384765625 901.95281982421875 901.9617919921875 899.51080322265625 892.76690673828125 886.0230712890625 879.2791748046875 875.96112060546875 873.89373779296875 871.82635498046875 869.69024658203125 866.94122314453125 864.19219970703125 861.443115234375 858.624267578125 855.726318359375 852.82843017578125 849.9305419921875 849.92047119140625 850.47119140625 851.02191162109375 851.14739990234375 849.63067626953125 848.114013671875 846.59735107421875 843.97955322265625 840.54437255859375 837.10919189453125 833.67401123046875 831.5318603515625 829.46893310546875 827.40606689453125 825.42724609375 823.63525390625 821.84320068359375 820.05120849609375 820.03631591796875 820.86236572265625 821.68841552734375 822.5535888671875 824.210205078125 825.86676025390625 827.52337646484375 828.7205810546875 829.27130126953125 829.822021484375 830.37274169921875 830.70416259765625 830.9749755859375 831.245849609375 831.4755859375 831.4755859375 
935.465576171875 935.465576171875 935.84234619140625 936.39300537109375 936.9437255859375 937.50213623046875 938.20001220703125 938.89788818359375 939.595703125 938.69879150390625 935.6058349609375 932.51287841796875 929.41986083984375 925.99359130859375 922.47808837890625 918.962646484375 915.8560791015625 914.94097900390625 914.02587890625 913.11077880859375 912.96917724609375 913.52587890625 914.08258056640625 914.63922119140625 915.37939453125 916.141357421875 916.9033203125 917.19866943359375 916.1802978515625 915.1619873046875 914.14361572265625 911.8912353515625 908.915283203125 905.9393310546875 902.96337890625 902.348388671875 901.736572265625 901.124755859375 900.60894775390625 900.25872802734375 899.90850830078125 899.55828857421875 898.81109619140625 897.92095947265625 897.03082275390625 895.97821044921875 893.51904296875 891.059814453125 888.60064697265625 888.349853515625 890.5716552734375 892.79339599609375 895.01519775390625 893.80517578125 891.9417724609375 890.07843017578125 888.47125244140625 887.83746337890625 887.2037353515625 886.5699462890625 886.8997802734375 887.9371337890625 888.97442626953125 890.01171875 890.32904052734375 890.6043701171875 890.8797607421875 891.22125244140625 891.7078857421875 892.1944580078125 892.68109130859375 893.586669921875 894.68804931640625 895.78948974609375 896.86029052734375 897.346923828125 897.83349609375 898.32012939453125 898.8414306640625 899.4111328125 899.98077392578125 900.5504150390625 900.45562744140625 900.1802978515625 899.90496826171875 899.74444580078125 900.21209716796875 900.67974853515625 901.14739990234375 900.4632568359375 898.72808837890625 896.992919921875 895.25775146484375 891.72442626953125 887.9715576171875 884.2186279296875 882.65875244140625 887.358642578125 892.05859375 896.758544921875 899.48126220703125 901.0313720703125 902.5814208984375 904.13153076171875 903.8446044921875 903.55029296875 903.2559814453125 900.5845947265625 893.764892578125 886.9451904296875 880.12548828125 876.84271240234375 874.85113525390625 872.859619140625 870.7763671875 867.87567138671875 864.97503662109375 862.0743408203125 859.28167724609375 856.6112060546875 853.94073486328125 851.270263671875 851.2972412109375 851.84796142578125 852.39862060546875 852.53973388671875 851.098876953125 849.65802001953125 848.2171630859375 845.5010986328125 841.83843994140625 838.17584228515625 834.51318359375 832.28643798828125 830.14776611328125 828.009033203125 826.00152587890625 824.2852783203125 822.569091796875 820.8529052734375 820.86236572265625 821.68841552734375 822.51446533203125 823.37249755859375 824.87744140625 826.3824462890625 827.88739013671875 828.9959716796875 829.54669189453125 830.09735107421875 830.6480712890625 831.09832763671875 831.52081298828125 831.943359375 832.3016357421875 832.3016357421875 
934.5743408203125 934.5743408203125 934.94305419921875 935.4820556640625 936.02099609375 936.57568359375 937.4134521484375 938.251220703125 939.0889892578125 938.33953857421875 935.4044189453125 932.46929931640625 929.53424072265625 926.13690185546875 922.61590576171875 919.094970703125 915.96356201171875 914.91986083984375 913.8760986328125 912.8323974609375 912.5535888671875 912.96533203125 913.3770751953125 913.78887939453125 914.52288818359375 915.29522705078125 916.0675048828125 916.43475341796875 915.66168212890625 914.8885498046875 914.115478515625 911.98687744140625 909.0634765625 906.14013671875 903.21673583984375 902.54180908203125 901.869873046875 901.197998046875 900.593505859375 900.10540771484375 899.6173095703125 899.12921142578125 898.409912109375 897.6072998046875 896.8046875 895.8717041015625 893.80950927734375 891.74737548828125 889.6851806640625 889.79278564453125 892.32952880859375 894.8663330078125 897.403076171875 896.1600341796875 894.19744873046875 892.23480224609375 890.50408935546875 889.65460205078125 888.80511474609375 887.95562744140625 888.177001953125 889.18463134765625 890.1922607421875 891.19989013671875 891.548828125 891.85931396484375 892.16986083984375 892.573974609375 893.1832275390625 893.79254150390625 894.40185546875 895.3465576171875 896.44793701171875 897.54931640625 898.62396240234375 899.18634033203125 899.748779296875 900.31121826171875 901.00341796875 901.87640380859375 902.74932861328125 903.62225341796875 903.54620361328125 903.21221923828125 902.8782958984375 902.6240234375 902.80560302734375 902.9871826171875 903.16876220703125 902.22308349609375 900.24871826171875 898.27435302734375 896.300048828125 893.46435546875 890.52349853515625 887.5826416015625 886.7088623046875 891.73553466796875 896.76214599609375 901.788818359375 904.1676025390625 904.9759521484375 905.78436279296875 906.59271240234375 905.91900634765625 905.2393798828125 904.55975341796875 901.66278076171875 894.89617919921875 888.129638671875 881.363037109375 878.17572021484375 876.295166015625 874.41461181640625 872.4111328125 869.31195068359375 866.2127685546875 863.113525390625 860.35516357421875 857.98248291015625 855.60980224609375 853.2371826171875 853.29290771484375 853.82012939453125 854.347412109375 854.473388671875 853.04974365234375 851.6260986328125 850.20245361328125 847.3363037109375 843.3992919921875 839.46234130859375 835.52532958984375 833.2554931640625 831.087890625 828.92022705078125 826.92724609375 825.322021484375 823.716796875 822.111572265625 822.11688232421875 822.88433837890625 823.65179443359375 824.4473876953125 825.81243896484375 827.177490234375 828.54248046875 829.56927490234375 830.1199951171875 830.67071533203125 831.22137451171875 831.79046630859375 832.3646240234375 832.93878173828125 833.4256591796875 833.4256591796875 
931.82080078125 931.82080078125 932.1376953125 932.600830078125 933.06402587890625 933.55078125 934.46435546875 935.37799072265625 936.29156494140625 935.8411865234375 933.51263427734375 931.18408203125 928.85552978515625 925.88525390625 922.743408203125 919.6015625 916.7620849609375 915.54339599609375 914.32470703125 913.10601806640625 912.55987548828125 912.6209716796875 912.6820068359375 912.7430419921875 913.129150390625 913.55389404296875 913.97857666015625 914.17913818359375 913.74859619140625 913.3179931640625 912.887451171875 911.31561279296875 909.0745849609375 906.8336181640625 904.59259033203125 903.87432861328125 903.1580810546875 902.44183349609375 901.68646240234375 900.86358642578125 900.04071044921875 899.2178955078125 898.5213623046875 897.87042236328125 897.21942138671875 896.51654052734375 895.36419677734375 894.2119140625 893.0595703125 893.8265380859375 896.742431640625 899.65826416015625 902.57415771484375 901.20068359375 899.01055908203125 896.82049560546875 894.87811279296875 893.87701416015625 892.8758544921875 891.874755859375 891.68212890625 892.083251953125 892.48431396484375 892.88543701171875 893.41583251953125 893.95379638671875 894.4918212890625 895.17083740234375 896.15924072265625 897.14764404296875 898.13604736328125 899.20147705078125 900.3028564453125 901.404296875 902.48260498046875 903.120849609375 903.75909423828125 904.3973388671875 905.260498046875 906.43670654296875 907.6129150390625 908.78912353515625 908.47979736328125 907.7667236328125 907.0537109375 906.38519287109375 905.960205078125 905.53521728515625 905.11029052734375 903.71661376953125 901.43896484375 899.161376953125 896.88372802734375 896.109619140625 895.5191650390625 894.92864990234375 895.9134521484375 901.39501953125 906.8765869140625 912.35821533203125 913.71649169921875 912.62939453125 911.54229736328125 910.4552001953125 908.94329833984375 907.42962646484375 905.916015625 902.7650146484375 896.75665283203125 890.74822998046875 884.7398681640625 881.97747802734375 880.40020751953125 878.8228759765625 877.0462646484375 873.49212646484375 869.93804931640625 866.3839111328125 863.70416259765625 862.01385498046875 860.32354736328125 858.63323974609375 858.6729736328125 859.048583984375 859.4241943359375 859.36737060546875 857.64044189453125 855.91351318359375 854.18658447265625 850.8865966796875 846.41888427734375 841.951171875 837.48345947265625 835.39727783203125 833.45709228515625 831.51690673828125 829.77490234375 828.47296142578125 827.1710205078125 825.86907958984375 825.7144775390625 826.10284423828125 826.4912109375 826.9219970703125 828.211181640625 829.50042724609375 830.78961181640625 831.7720947265625 832.32281494140625 832.87353515625 833.4241943359375 834.11212158203125 834.837890625 835.56365966796875 836.17919921875 836.17919921875 
929.0672607421875 929.0672607421875 929.332275390625 929.7196044921875 930.10699462890625 930.52587890625 931.51531982421875 932.50469970703125 933.494140625 933.34283447265625 931.620849609375 929.8988037109375 928.17681884765625 925.6336669921875 922.87091064453125 920.10809326171875 917.5606689453125 916.1669921875 914.7733154296875 913.379638671875 912.56622314453125 912.27655029296875 911.98687744140625 911.697265625 911.73541259765625 911.81256103515625 911.8896484375 911.9234619140625 911.83544921875 911.7474365234375 911.659423828125 910.64434814453125 909.085693359375 907.527099609375 905.96844482421875 905.206787109375 904.44622802734375 903.6856689453125 902.77935791015625 901.62176513671875 900.464111328125 899.3065185546875 898.63287353515625 898.133544921875 897.63421630859375 897.16143798828125 896.9189453125 896.6763916015625 896.43389892578125 897.8603515625 901.1552734375 904.45025634765625 907.74517822265625 906.24127197265625 903.82373046875 901.40618896484375 899.25213623046875 898.099365234375 896.94659423828125 895.7938232421875 895.18731689453125 894.98187255859375 894.77642822265625 894.5709228515625 895.28289794921875 896.04833984375 896.813720703125 897.76776123046875 899.13525390625 900.50274658203125 901.8702392578125 903.056396484375 904.15777587890625 905.25921630859375 906.34130859375 907.055419921875 907.76947021484375 908.4835205078125 909.517578125 910.99700927734375 912.47650146484375 913.95599365234375 913.41339111328125 912.32122802734375 911.2291259765625 910.1463623046875 909.11480712890625 908.08331298828125 907.05181884765625 905.21014404296875 902.6292724609375 900.04833984375 897.46746826171875 898.7548828125 900.5147705078125 902.274658203125 905.11810302734375 911.0545654296875 916.9910888671875 922.92755126953125 923.265380859375 920.2828369140625 917.30029296875 914.3177490234375 911.967529296875 909.61993408203125 907.27227783203125 903.86724853515625 898.6170654296875 893.36688232421875 888.11663818359375 885.77923583984375 884.50518798828125 883.23114013671875 881.68133544921875 877.67230224609375 873.663330078125 869.654296875 867.05316162109375 866.04522705078125 865.0372314453125 864.029296875 864.052978515625 864.2769775390625 864.5009765625 864.26129150390625 862.23114013671875 860.200927734375 858.17071533203125 854.4368896484375 849.4384765625 844.44000244140625 839.44158935546875 837.5390625 835.82635498046875 834.11358642578125 832.62261962890625 831.6239013671875 830.625244140625 829.6265869140625 829.31207275390625 829.32135009765625 829.33062744140625 829.3966064453125 830.6099853515625 831.8233642578125 833.03680419921875 833.97491455078125 834.525634765625 835.0762939453125 835.62701416015625 836.43377685546875 837.3111572265625 838.1885986328125 838.9327392578125 838.9327392578125 
926.31378173828125 926.31378173828125 926.52691650390625 926.83843994140625 927.14996337890625 927.5009765625 928.56622314453125 929.6314697265625 930.6966552734375 930.844482421875 929.72906494140625 928.61358642578125 927.49810791015625 925.382080078125 922.99835205078125 920.61468505859375 918.35919189453125 916.79052734375 915.221923828125 913.6533203125 912.572509765625 911.93218994140625 911.29180908203125 910.65142822265625 910.3416748046875 910.0711669921875 909.80072021484375 909.6678466796875 909.92236328125 910.1768798828125 910.43145751953125 909.97314453125 909.09686279296875 908.2205810546875 907.34429931640625 906.539306640625 905.734375 904.929443359375 903.872314453125 902.37994384765625 900.88751220703125 899.3951416015625 898.744384765625 898.39666748046875 898.0489501953125 897.80633544921875 898.4736328125 899.14093017578125 899.8082275390625 901.89410400390625 905.56817626953125 909.2421875 912.916259765625 911.2818603515625 908.6368408203125 905.99188232421875 903.626220703125 902.32177734375 901.01739501953125 899.71295166015625 898.6925048828125 897.8804931640625 897.0684814453125 896.2564697265625 897.14990234375 898.142822265625 899.13568115234375 900.3646240234375 902.1112060546875 903.8577880859375 905.6043701171875 906.91131591796875 908.0126953125 909.1141357421875 910.20001220703125 910.98992919921875 911.77978515625 912.56964111328125 913.77459716796875 915.557373046875 917.34014892578125 919.12286376953125 918.34698486328125 916.875732421875 915.404541015625 913.907470703125 912.2694091796875 910.63134765625 908.9932861328125 906.70367431640625 903.81951904296875 900.93536376953125 898.0511474609375 901.400146484375 905.5103759765625 909.62066650390625 914.32275390625 920.714111328125 927.10552978515625 933.49688720703125 932.81427001953125 927.936279296875 923.0582275390625 918.18023681640625 914.9918212890625 911.8101806640625 908.62847900390625 904.96954345703125 900.47747802734375 895.9854736328125 891.49346923828125 889.58099365234375 888.6102294921875 887.63946533203125 886.31646728515625 881.8525390625 877.38861083984375 872.9246826171875 870.402099609375 870.0765380859375 869.7509765625 869.4254150390625 869.43304443359375 869.50537109375 869.5777587890625 869.1552734375 866.82177734375 864.48834228515625 862.15484619140625 857.9871826171875 852.4580078125 846.92889404296875 841.39971923828125 839.68084716796875 838.195556640625 836.7103271484375 835.47027587890625 834.77490234375 834.0794677734375 833.38409423828125 832.90966796875 832.53985595703125 832.1700439453125 831.87115478515625 833.00872802734375 834.1463623046875 835.283935546875 836.177734375 836.72845458984375 837.27911376953125 837.829833984375 838.75543212890625 839.78448486328125 840.81353759765625 841.68621826171875 841.68621826171875 
923.56024169921875 923.56024169921875 923.72149658203125 923.95721435546875 924.19293212890625 924.4698486328125 925.49200439453125 926.51409912109375 927.53619384765625 927.94757080078125 927.5179443359375 927.08837890625 926.65875244140625 925.14288330078125 923.33648681640625 921.5301513671875 919.7667236328125 918.2335205078125 916.70037841796875 915.16717529296875 913.9930419921875 913.14306640625 912.2930908203125 911.443115234375 910.6646728515625 909.89471435546875 909.124755859375 908.62176513671875 908.87017822265625 909.11859130859375 909.36700439453125 909.10565185546875 908.54534912109375 907.985107421875 907.42486572265625 906.5595703125 905.69384765625 904.82818603515625 903.75860595703125 902.33746337890625 900.91632080078125 899.49517822265625 898.93853759765625 898.69329833984375 898.447998046875 898.38079833984375 899.85546875 901.33013916015625 902.8048095703125 905.3463134765625 909.08233642578125 912.81829833984375 916.5543212890625 915.20501708984375 912.8875732421875 910.57012939453125 908.42388916015625 906.92822265625 905.4324951171875 903.93682861328125 902.53131103515625 901.19207763671875 899.852783203125 898.5135498046875 899.40557861328125 900.42767333984375 901.4498291015625 902.7554931640625 904.68292236328125 906.61041259765625 908.537841796875 909.74029541015625 910.60382080078125 911.46734619140625 912.3231201171875 913.0302734375 913.73736572265625 914.44451904296875 915.595458984375 917.3643798828125 919.13323974609375 920.90216064453125 919.98101806640625 918.32891845703125 916.67681884765625 914.97601318359375 913.0089111328125 911.04180908203125 909.07470703125 906.8426513671875 904.3687744140625 901.8948974609375 899.42108154296875 903.5667724609375 908.52093505859375 913.47509765625 918.74530029296875 924.91766357421875 931.09002685546875 937.26239013671875 936.20428466796875 930.85797119140625 925.51165771484375 920.16534423828125 916.81561279296875 913.47393798828125 910.1322021484375 906.6187744140625 902.8056640625 898.9925537109375 895.17938232421875 893.612548828125 892.86578369140625 892.1190185546875 891.01153564453125 886.68731689453125 882.3631591796875 878.0389404296875 875.68756103515625 875.568603515625 875.44970703125 875.33074951171875 875.4774169921875 875.6756591796875 875.87384033203125 875.45635986328125 872.6610107421875 869.86572265625 867.07037353515625 862.62890625 856.9654541015625 851.302001953125 845.63848876953125 844.051513671875 842.71441650390625 841.3773193359375 840.1859130859375 839.31805419921875 838.4501953125 837.58233642578125 836.84906005859375 836.17938232421875 835.509765625 834.9254150390625 836.06646728515625 837.20751953125 838.34857177734375 839.2608642578125 839.8511962890625 840.4415283203125 841.03192138671875 842.02276611328125 843.1241455078125 844.22552490234375 845.15960693359375 845.15960693359375 
920.8067626953125 920.8067626953125 920.9161376953125 921.07598876953125 921.23590087890625 921.43304443359375 922.30352783203125 923.17401123046875 924.04449462890625 924.68701171875 925.01556396484375 925.3441162109375 925.67266845703125 924.9150390625 923.8668212890625 922.81866455078125 921.72991943359375 920.4241943359375 919.11846923828125 917.812744140625 916.70404052734375 915.773193359375 914.84234619140625 913.9114990234375 912.55419921875 911.14617919921875 909.73822021484375 908.67938232421875 908.603515625 908.52764892578125 908.4517822265625 908.05908203125 907.48052978515625 906.9019775390625 906.323486328125 905.3824462890625 904.44091796875 903.4993896484375 902.5439453125 901.56451416015625 900.58502197265625 899.6055908203125 899.20819091796875 899.0205078125 898.832763671875 898.8909912109375 901.07952880859375 903.26806640625 905.45660400390625 908.26788330078125 911.77642822265625 915.28497314453125 918.79351806640625 918.1083984375 916.625 915.14154052734375 913.60821533203125 911.88507080078125 910.16192626953125 908.438720703125 906.67462158203125 904.8804931640625 903.0863037109375 901.2921142578125 902.01580810546875 902.88629150390625 903.75677490234375 904.958251953125 906.8857421875 908.81317138671875 910.74066162109375 911.633056640625 912.041748046875 912.45037841796875 912.86248779296875 913.3421630859375 913.82183837890625 914.301513671875 915.193359375 916.658935546875 918.12457275390625 919.5902099609375 918.60430908203125 916.9521484375 915.300048828125 913.5875244140625 911.54461669921875 909.501708984375 907.458740234375 905.74554443359375 904.3331298828125 902.92071533203125 901.50836181640625 905.29656982421875 909.72003173828125 914.14349365234375 918.8043212890625 924.14263916015625 929.48101806640625 934.8193359375 933.97430419921875 929.46197509765625 924.94970703125 920.4373779296875 917.5440673828125 914.65728759765625 911.7705078125 908.7672119140625 905.56060791015625 902.35406494140625 899.1474609375 897.85394287109375 897.2587890625 896.6636962890625 895.76129150390625 892.1195068359375 888.4776611328125 884.83587646484375 882.739990234375 882.39361572265625 882.0472412109375 881.7008056640625 882.1279296875 882.70526123046875 883.2825927734375 883.04144287109375 879.63958740234375 876.23773193359375 872.83587646484375 868.2664794921875 862.8304443359375 857.39447021484375 851.95849609375 850.4560546875 849.19476318359375 847.9334716796875 846.60601806640625 845.131591796875 843.65716552734375 842.18280029296875 841.10028076171875 840.20318603515625 839.30609130859375 838.508544921875 839.72540283203125 840.9422607421875 842.1591796875 843.14727783203125 843.81341552734375 844.4796142578125 845.145751953125 846.15301513671875 847.25439453125 848.3558349609375 849.2899169921875 849.2899169921875 
918.05322265625 918.05322265625 918.1107177734375 918.19482421875 918.27886962890625 918.396240234375 919.11505126953125 919.83392333984375 920.552734375 921.4263916015625 922.51312255859375 923.59991455078125 924.6866455078125 924.6871337890625 924.39715576171875 924.10711669921875 923.69317626953125 922.61492919921875 921.53662109375 920.4583740234375 919.41510009765625 918.4033203125 917.3916015625 916.3798828125 914.44366455078125 912.39764404296875 910.35162353515625 908.73699951171875 908.33685302734375 907.936767578125 907.53662109375 907.01251220703125 906.41571044921875 905.81890869140625 905.22210693359375 904.205322265625 903.18798828125 902.170654296875 901.32928466796875 900.79150390625 900.25372314453125 899.7159423828125 899.4779052734375 899.34771728515625 899.217529296875 899.4012451171875 902.30364990234375 905.20599365234375 908.1083984375 911.189453125 914.47052001953125 917.7515869140625 921.03265380859375 921.0118408203125 920.3624267578125 919.7130126953125 918.79248046875 916.84185791015625 914.89129638671875 912.940673828125 910.81793212890625 908.56884765625 906.31976318359375 904.0706787109375 904.62603759765625 905.3448486328125 906.063720703125 907.16107177734375 909.08856201171875 911.0159912109375 912.9434814453125 913.52587890625 913.4796142578125 913.433349609375 913.40191650390625 913.65411376953125 913.90631103515625 914.1585693359375 914.79119873046875 915.95355224609375 917.11590576171875 918.27825927734375 917.2275390625 915.575439453125 913.92333984375 912.19903564453125 910.080322265625 907.9615478515625 905.84283447265625 904.6484375 904.2974853515625 903.946533203125 903.59564208984375 907.02642822265625 910.919189453125 914.8118896484375 918.86328125 923.36761474609375 927.87200927734375 932.3763427734375 931.7442626953125 928.06597900390625 924.3876953125 920.70941162109375 918.27252197265625 915.84063720703125 913.40875244140625 910.91558837890625 908.3155517578125 905.715576171875 903.11553955078125 902.09527587890625 901.65179443359375 901.20831298828125 900.5111083984375 897.5516357421875 894.5921630859375 891.63275146484375 889.79241943359375 889.21856689453125 888.644775390625 888.0709228515625 888.77850341796875 889.73492431640625 890.6912841796875 890.62652587890625 886.61810302734375 882.60968017578125 878.601318359375 873.904052734375 868.69549560546875 863.4869384765625 858.2784423828125 856.860595703125 855.67510986328125 854.4896240234375 853.02606201171875 850.94512939453125 848.86419677734375 846.78326416015625 845.35150146484375 844.2269287109375 843.1024169921875 842.0916748046875 843.3843994140625 844.67706298828125 845.9697265625 847.03369140625 847.77569580078125 848.51763916015625 849.2596435546875 850.28326416015625 851.38470458984375 852.486083984375 853.420166015625 853.420166015625 
915.2996826171875 915.2996826171875 915.30535888671875 915.3135986328125 915.32183837890625 915.359375 915.9266357421875 916.49383544921875 917.06103515625 918.165771484375 920.0107421875 921.85565185546875 923.70062255859375 924.45928955078125 924.927490234375 925.3956298828125 925.65643310546875 924.80560302734375 923.95477294921875 923.10394287109375 922.1260986328125 921.03350830078125 919.94085693359375 918.8482666015625 916.33319091796875 913.64910888671875 910.96502685546875 908.79461669921875 908.0701904296875 907.3458251953125 906.6214599609375 905.9659423828125 905.35089111328125 904.73577880859375 904.1207275390625 903.0281982421875 901.93505859375 900.84185791015625 900.1146240234375 900.01849365234375 899.92242431640625 899.82635498046875 899.74755859375 899.6749267578125 899.602294921875 899.9114990234375 903.5277099609375 907.14398193359375 910.76019287109375 914.11102294921875 917.16461181640625 920.21826171875 923.2718505859375 923.915283203125 924.099853515625 924.284423828125 923.97674560546875 921.7987060546875 919.62066650390625 917.442626953125 914.96124267578125 912.25726318359375 909.55328369140625 906.8492431640625 907.23626708984375 907.803466796875 908.37066650390625 909.3638916015625 911.2913818359375 913.21881103515625 915.14630126953125 915.418701171875 914.91748046875 914.41632080078125 913.9412841796875 913.966064453125 913.99078369140625 914.01556396484375 914.38909912109375 915.2481689453125 916.10723876953125 916.96630859375 915.85076904296875 914.19866943359375 912.54656982421875 910.81060791015625 908.61602783203125 906.42144775390625 904.22686767578125 903.55133056640625 904.2618408203125 904.97235107421875 905.68292236328125 908.75628662109375 912.1182861328125 915.48028564453125 918.9222412109375 922.59259033203125 926.262939453125 929.93328857421875 929.5142822265625 926.66998291015625 923.82568359375 920.98138427734375 919.0009765625 917.02398681640625 915.0469970703125 913.06402587890625 911.070556640625 909.07708740234375 907.08355712890625 906.336669921875 906.0447998046875 905.7529296875 905.2608642578125 902.98382568359375 900.70672607421875 898.42962646484375 896.8448486328125 896.0435791015625 895.24224853515625 894.44097900390625 895.42901611328125 896.7645263671875 898.10003662109375 898.21160888671875 893.5966796875 888.981689453125 884.36676025390625 879.5416259765625 874.560546875 869.5794677734375 864.598388671875 863.26513671875 862.15545654296875 861.0457763671875 859.4461669921875 856.7586669921875 854.0711669921875 851.3836669921875 849.60272216796875 848.250732421875 846.89874267578125 845.6748046875 847.0433349609375 848.411865234375 849.78033447265625 850.92010498046875 851.7379150390625 852.55572509765625 853.37353515625 854.41357421875 855.51495361328125 856.61639404296875 857.55047607421875 857.55047607421875 
914.26385498046875 914.26385498046875 914.2176513671875 914.15008544921875 914.08251953125 914.040283203125 914.455810546875 914.87139892578125 915.2869873046875 916.42388916015625 918.55401611328125 920.6842041015625 922.8143310546875 923.75164794921875 924.36993408203125 924.98822021484375 925.41119384765625 924.787841796875 924.16448974609375 923.5411376953125 922.7730712890625 921.8743896484375 920.97564697265625 920.07696533203125 917.39959716796875 914.51092529296875 911.62225341796875 909.251953125 908.34088134765625 907.42974853515625 906.51861572265625 905.80316162109375 905.202392578125 904.6015625 904.00079345703125 902.737060546875 901.47247314453125 900.2078857421875 899.4102783203125 899.41845703125 899.42657470703125 899.4346923828125 899.478759765625 899.53570556640625 899.59271240234375 899.989501953125 903.329345703125 906.66912841796875 910.00897216796875 913.0745849609375 915.83319091796875 918.591796875 921.35040283203125 922.5904541015625 923.54150390625 924.49249267578125 924.74420166015625 922.33868408203125 919.93316650390625 917.52764892578125 914.89190673828125 912.08709716796875 909.28228759765625 906.4775390625 906.76416015625 907.23095703125 907.69781494140625 908.507568359375 910.069091796875 911.63067626953125 913.1922607421875 913.47943115234375 913.1708984375 912.8624267578125 912.5726318359375 912.64019775390625 912.707763671875 912.77532958984375 913.09375 913.761474609375 914.42919921875 915.09686279296875 914.1622314453125 912.79217529296875 911.422119140625 910.017333984375 908.422607421875 906.827880859375 905.233154296875 904.93951416015625 905.83319091796875 906.726806640625 907.62042236328125 910.1805419921875 912.9442138671875 915.70794677734375 918.56060791015625 921.66717529296875 924.7738037109375 927.88043212890625 927.3509521484375 924.66497802734375 921.97900390625 919.2930908203125 917.564453125 915.8397216796875 914.11492919921875 912.414794921875 910.757568359375 909.10040283203125 907.44317626953125 906.60028076171875 906.0546875 905.50909423828125 904.83038330078125 902.9654541015625 901.1004638671875 899.2354736328125 897.826171875 896.93255615234375 896.0389404296875 895.14532470703125 896.0963134765625 897.405517578125 898.7147216796875 898.81964111328125 894.27374267578125 889.7279052734375 885.18206787109375 880.71087646484375 876.2950439453125 871.8792724609375 867.4635009765625 866.10699462890625 864.93798828125 863.76904296875 862.1290283203125 859.44305419921875 856.757080078125 854.0711669921875 852.45733642578125 851.350830078125 850.24432373046875 849.2547607421875 850.63153076171875 852.00830078125 853.38507080078125 854.5330810546875 855.359130859375 856.1851806640625 857.01123046875 858.15899658203125 859.3955078125 860.63201904296875 861.68072509765625 861.68072509765625 
913.43780517578125 913.43780517578125 913.3397216796875 913.19635009765625 913.05291748046875 912.930908203125 913.19482421875 913.458740234375 913.72271728515625 914.867431640625 917.22509765625 919.58270263671875 921.9403076171875 922.98541259765625 923.67950439453125 924.37359619140625 924.89630126953125 924.5003662109375 924.1044921875 923.70855712890625 923.16796875 922.4967041015625 921.825439453125 921.1541748046875 918.365478515625 915.3251953125 912.28485107421875 909.75811767578125 908.6771240234375 907.5960693359375 906.51507568359375 905.748291015625 905.165771484375 904.58331298828125 904.00079345703125 902.55419921875 901.1064453125 899.65875244140625 898.76837158203125 898.8394775390625 898.91058349609375 898.981689453125 899.1441650390625 899.339599609375 899.53497314453125 900.01470947265625 902.95721435546875 905.899658203125 908.84210205078125 911.55474853515625 914.01007080078125 916.46539306640625 918.92071533203125 920.749267578125 922.45843505859375 924.16766357421875 924.97216796875 922.33917236328125 919.70623779296875 917.0732421875 914.30804443359375 911.4456787109375 908.58331298828125 905.72100830078125 905.91552734375 906.28826904296875 906.66107177734375 907.27752685546875 908.42852783203125 909.57952880859375 910.73046875 911.07208251953125 911.035400390625 910.9986572265625 910.97088623046875 911.1142578125 911.2576904296875 911.40106201171875 911.6893310546875 912.17938232421875 912.66937255859375 913.15936279296875 912.4356689453125 911.382080078125 910.3284912109375 909.2967529296875 908.3843994140625 907.4720458984375 906.5596923828125 906.63128662109375 907.6007080078125 908.5701904296875 909.53961181640625 911.5675048828125 913.724609375 915.88177490234375 918.14752197265625 920.72344970703125 923.29931640625 925.87518310546875 925.1956787109375 922.5855712890625 919.9754638671875 917.36529541015625 915.863525390625 914.36627197265625 912.86895751953125 911.42388916015625 910.0699462890625 908.71600341796875 907.36212158203125 906.37811279296875 905.52923583984375 904.68035888671875 903.7672119140625 902.28131103515625 900.79547119140625 899.3095703125 898.06591796875 897.09649658203125 896.1270751953125 895.15765380859375 896.0328369140625 897.26617431640625 898.49957275390625 898.575439453125 894.1812744140625 889.78704833984375 885.392822265625 881.3343505859375 877.52508544921875 873.71588134765625 869.9066162109375 868.513671875 867.2689208984375 866.02410888671875 864.3553466796875 861.7452392578125 859.13507080078125 856.52496337890625 855.141357421875 854.338134765625 853.534912109375 852.8343505859375 854.21112060546875 855.587890625 856.96466064453125 858.1126708984375 858.938720703125 859.7647705078125 860.5908203125 861.85736083984375 863.24554443359375 864.63372802734375 865.81097412109375 865.81097412109375 
912.61175537109375 912.61175537109375 912.4617919921875 912.2425537109375 912.02337646484375 911.821533203125 911.933837890625 912.046142578125 912.158447265625 913.31103515625 915.8961181640625 918.481201171875 921.06622314453125 922.21917724609375 922.98907470703125 923.75897216796875 924.38134765625 924.212890625 924.04443359375 923.8759765625 923.5628662109375 923.11907958984375 922.67523193359375 922.2314453125 919.331298828125 916.139404296875 912.94744873046875 910.2642822265625 909.01336669921875 907.762451171875 906.51153564453125 905.6934814453125 905.12921142578125 904.56500244140625 904.000732421875 902.371337890625 900.740478515625 899.109619140625 898.12640380859375 898.260498046875 898.39459228515625 898.5286865234375 898.80963134765625 899.1434326171875 899.47723388671875 900.03997802734375 902.5850830078125 905.130126953125 907.67523193359375 910.034912109375 912.18695068359375 914.3389892578125 916.49102783203125 918.90802001953125 921.3753662109375 923.8427734375 925.20013427734375 922.3397216796875 919.479248046875 916.61883544921875 913.72412109375 910.80426025390625 907.88433837890625 904.9644775390625 905.06695556640625 905.3455810546875 905.624267578125 906.04754638671875 906.7879638671875 907.5283203125 908.26873779296875 908.664794921875 908.89984130859375 909.1348876953125 909.36920166015625 909.58837890625 909.8076171875 910.02679443359375 910.284912109375 910.59722900390625 910.9095458984375 911.221923828125 910.70904541015625 909.97198486328125 909.23486328125 908.576171875 908.34619140625 908.1162109375 907.88623046875 908.32305908203125 909.3682861328125 910.41357421875 911.45880126953125 912.95440673828125 914.5050048828125 916.05560302734375 917.7344970703125 919.7796630859375 921.8248291015625 923.86993408203125 923.04046630859375 920.50616455078125 917.97186279296875 915.43756103515625 914.16265869140625 912.89276123046875 911.6229248046875 910.43292236328125 909.38226318359375 908.33160400390625 907.281005859375 906.15594482421875 905.0037841796875 903.85162353515625 902.70404052734375 901.59722900390625 900.490478515625 899.3836669921875 898.30572509765625 897.260498046875 896.2152099609375 895.16998291015625 895.9693603515625 897.12689208984375 898.284423828125 898.331298828125 894.0887451171875 889.84613037109375 885.60357666015625 881.95782470703125 878.755126953125 875.55242919921875 872.3497314453125 870.92041015625 869.59979248046875 868.27923583984375 866.58172607421875 864.04742431640625 861.5130615234375 858.978759765625 857.82537841796875 857.325439453125 856.82550048828125 856.4139404296875 857.79071044921875 859.16741943359375 860.544189453125 861.69219970703125 862.51824951171875 863.34429931640625 864.17041015625 865.5557861328125 867.0955810546875 868.6353759765625 869.9412841796875 869.9412841796875 
912.14288330078125 912.14288330078125 911.9410400390625 911.64599609375 911.35101318359375 911.06756591796875 910.99359130859375 910.919677734375 910.84576416015625 911.9013671875 914.512451171875 917.12353515625 919.734619140625 920.90631103515625 921.69305419921875 922.47979736328125 923.1551513671875 923.23382568359375 923.3125 923.39117431640625 923.3148193359375 923.09844970703125 922.88214111328125 922.665771484375 919.724609375 916.459716796875 913.19482421875 910.419677734375 909.02325439453125 907.6268310546875 906.23040771484375 905.36712646484375 904.81640625 904.26568603515625 903.7149658203125 901.99755859375 900.27862548828125 898.55963134765625 897.5618896484375 897.80841064453125 898.054931640625 898.3013916015625 898.73687744140625 899.24041748046875 899.743896484375 900.4381103515625 902.78387451171875 905.12957763671875 907.475341796875 909.56805419921875 911.37750244140625 913.18695068359375 914.996337890625 917.61541748046875 920.3885498046875 923.16168212890625 924.7095947265625 921.60205078125 918.4945068359375 915.386962890625 912.485107421875 909.73419189453125 906.98333740234375 904.23248291015625 904.37579345703125 904.68792724609375 905 905.34735107421875 905.772216796875 906.197021484375 906.62188720703125 907.02313232421875 907.41339111328125 907.8035888671875 908.1865234375 908.42926025390625 908.67205810546875 908.914794921875 909.16259765625 909.417236328125 909.67193603515625 909.92657470703125 909.76861572265625 909.49853515625 909.22845458984375 909.03662109375 909.2725830078125 909.50860595703125 909.74462890625 910.3919677734375 911.41473388671875 912.43743896484375 913.460205078125 914.53546142578125 915.61724853515625 916.698974609375 917.88787841796875 919.382568359375 920.8773193359375 922.3720703125 921.3236083984375 918.7667236328125 916.20989990234375 913.653076171875 912.46746826171875 911.287353515625 910.1072998046875 909.03466796875 908.14959716796875 907.2645263671875 906.37945556640625 905.13421630859375 903.7574462890625 902.38067626953125 901.06146240234375 900.25506591796875 899.44866943359375 898.64227294921875 897.68829345703125 896.56719970703125 895.44610595703125 894.3250732421875 894.99920654296875 896.02191162109375 897.04461669921875 897.03985595703125 893.06695556640625 889.09405517578125 885.12109375 881.8819580078125 879.18743896484375 876.492919921875 873.7984619140625 872.40118408203125 871.08343505859375 869.76568603515625 868.1181640625 865.73834228515625 863.3585205078125 860.97869873046875 860.040771484375 859.78509521484375 859.5294189453125 859.34967041015625 860.70672607421875 862.0638427734375 863.4208984375 864.55743408203125 865.38348388671875 866.20953369140625 867.03558349609375 868.49359130859375 870.12603759765625 871.7584228515625 873.14288330078125 873.14288330078125 
912.693603515625 912.693603515625 912.43988037109375 912.06903076171875 911.69818115234375 911.32794189453125 910.96905517578125 910.610107421875 910.25115966796875 910.9107666015625 912.97283935546875 915.034912109375 917.09698486328125 918.033203125 918.66827392578125 919.3033447265625 919.89862060546875 920.28057861328125 920.66253662109375 921.04449462890625 921.23150634765625 921.24267578125 921.2537841796875 921.264892578125 918.48333740234375 915.3701171875 912.25689697265625 909.57373046875 908.10150146484375 906.6292724609375 905.156982421875 904.26568603515625 903.7149658203125 903.164306640625 902.61358642578125 901.07904052734375 899.543212890625 898.00738525390625 897.21856689453125 897.7186279296875 898.2186279296875 898.7186279296875 899.41162109375 900.174072265625 900.9365234375 901.9007568359375 904.61236572265625 907.323974609375 910.03558349609375 912.10693359375 913.46148681640625 914.81597900390625 916.1705322265625 917.8887939453125 919.67633056640625 921.46380615234375 922.16827392578125 918.7574462890625 915.34661865234375 911.935791015625 909.37591552734375 907.44073486328125 905.505615234375 903.57049560546875 904.13421630859375 904.84368896484375 905.5531005859375 906.1595458984375 906.5400390625 906.9205322265625 907.30108642578125 907.567138671875 907.7796630859375 907.9921875 908.20001220703125 908.31719970703125 908.43438720703125 908.55157470703125 908.84539794921875 909.38507080078125 909.92474365234375 910.46441650390625 911.07232666015625 911.6988525390625 912.32537841796875 912.86810302734375 912.95245361328125 913.03680419921875 913.1212158203125 913.53765869140625 914.257080078125 914.9765625 915.69598388671875 916.67071533203125 917.6766357421875 918.68255615234375 919.657958984375 920.546142578125 921.434326171875 922.32257080078125 920.85784912109375 917.99774169921875 915.13763427734375 912.27752685546875 910.78863525390625 909.3052978515625 907.8218994140625 906.4736328125 905.36114501953125 904.24859619140625 903.13604736328125 901.8299560546875 900.4532470703125 899.07647705078125 897.764892578125 897.0343017578125 896.3037109375 895.57318115234375 894.62384033203125 893.42694091796875 892.23004150390625 891.03314208984375 891.4410400390625 892.16046142578125 892.87994384765625 892.75897216796875 889.39263916015625 886.0262451171875 882.659912109375 879.8096923828125 877.3426513671875 874.8756103515625 872.4085693359375 871.23870849609375 870.1484375 869.05816650390625 867.68511962890625 865.6844482421875 863.6837158203125 861.6829833984375 860.91827392578125 860.7384033203125 860.55853271484375 860.447509765625 861.728759765625 863.010009765625 864.29132080078125 865.38348388671875 866.20953369140625 867.03558349609375 867.86163330078125 869.26019287109375 870.81683349609375 872.37347412109375 873.693603515625 873.693603515625 
913.2442626953125 913.2442626953125 912.938720703125 912.4920654296875 912.04541015625 911.58837890625 910.9444580078125 910.30047607421875 909.65655517578125 909.92010498046875 911.43316650390625 912.94622802734375 914.45928955078125 915.1600341796875 915.64349365234375 916.12689208984375 916.64208984375 917.32733154296875 918.01251220703125 918.69775390625 919.14825439453125 919.3868408203125 919.62542724609375 919.86395263671875 917.24212646484375 914.280517578125 911.31890869140625 908.72784423828125 907.17974853515625 905.6317138671875 904.0836181640625 903.164306640625 902.61358642578125 902.0628662109375 901.51214599609375 900.1605224609375 898.80780029296875 897.45513916015625 896.87530517578125 897.6287841796875 898.38232421875 899.1358642578125 900.0863037109375 901.10772705078125 902.129150390625 903.3634033203125 906.44085693359375 909.51837158203125 912.5958251953125 914.64581298828125 915.54547119140625 916.445068359375 917.34466552734375 918.16217041015625 918.96405029296875 919.76593017578125 919.62689208984375 915.91278076171875 912.19873046875 908.484619140625 906.2667236328125 905.14727783203125 904.02789306640625 902.908447265625 903.89263916015625 904.99945068359375 906.10626220703125 906.9716796875 907.307861328125 907.64404296875 907.980224609375 908.111083984375 908.14593505859375 908.1807861328125 908.2135009765625 908.20513916015625 908.19671630859375 908.18829345703125 908.5281982421875 909.35284423828125 910.177490234375 911.002197265625 912.37603759765625 913.899169921875 915.42230224609375 916.6995849609375 916.63232421875 916.5650634765625 916.49774169921875 916.68328857421875 917.0994873046875 917.515625 917.93182373046875 918.80596923828125 919.736083984375 920.66619873046875 921.42803955078125 921.709716796875 921.9913330078125 922.27301025390625 920.39215087890625 917.228759765625 914.06536865234375 910.9019775390625 909.10980224609375 907.32318115234375 905.53656005859375 903.91259765625 902.5726318359375 901.232666015625 899.8927001953125 898.5257568359375 897.14898681640625 895.772216796875 894.46832275390625 893.81353759765625 893.1588134765625 892.5040283203125 891.55938720703125 890.28668212890625 889.01397705078125 887.74127197265625 887.8828125 888.29901123046875 888.7152099609375 888.47808837890625 885.71832275390625 882.95849609375 880.19866943359375 877.7374267578125 875.49786376953125 873.25823974609375 871.0186767578125 870.0762939453125 869.21343994140625 868.35064697265625 867.25213623046875 865.63055419921875 864.0089111328125 862.38726806640625 861.7957763671875 861.6917724609375 861.58770751953125 861.54534912109375 862.75079345703125 863.95623779296875 865.16168212890625 866.20953369140625 867.03558349609375 867.86163330078125 868.68768310546875 870.02685546875 871.50762939453125 872.98846435546875 874.2442626953125 874.2442626953125 
913.79498291015625 913.79498291015625 913.43756103515625 912.9150390625 912.392578125 911.84881591796875 910.91986083984375 909.99090576171875 909.06195068359375 908.929443359375 909.89349365234375 910.85760498046875 911.8216552734375 912.286865234375 912.61865234375 912.95050048828125 913.38555908203125 914.37408447265625 915.362548828125 916.35107421875 917.06500244140625 917.531005859375 917.99700927734375 918.46307373046875 916.00091552734375 913.19097900390625 910.3809814453125 907.88189697265625 906.25799560546875 904.6341552734375 903.01025390625 902.0628662109375 901.51214599609375 900.96148681640625 900.4107666015625 899.24200439453125 898.07244873046875 896.90283203125 896.531982421875 897.53900146484375 898.5460205078125 899.55303955078125 900.76104736328125 902.0413818359375 903.32177734375 904.82598876953125 908.26934814453125 911.71270751953125 915.15606689453125 917.18475341796875 917.62945556640625 918.07415771484375 918.51885986328125 918.43560791015625 918.2518310546875 918.06805419921875 917.0855712890625 913.06817626953125 909.05078125 905.033447265625 903.157470703125 902.85382080078125 902.55010986328125 902.2464599609375 903.65106201171875 905.15521240234375 906.659423828125 907.78387451171875 908.07574462890625 908.36761474609375 908.659423828125 908.65509033203125 908.51220703125 908.369384765625 908.22698974609375 908.093017578125 907.95904541015625 907.8250732421875 908.21099853515625 909.3206787109375 910.4302978515625 911.53997802734375 913.6798095703125 916.0994873046875 918.51922607421875 920.53106689453125 920.3121337890625 920.09326171875 919.87432861328125 919.82891845703125 919.94183349609375 920.05474853515625 920.16766357421875 920.94122314453125 921.7955322265625 922.6497802734375 923.19818115234375 922.87322998046875 922.54833984375 922.22344970703125 919.9263916015625 916.45977783203125 912.99310302734375 909.52642822265625 907.43096923828125 905.341064453125 903.25115966796875 901.3515625 899.7841796875 898.21673583984375 896.6492919921875 895.2215576171875 893.84478759765625 892.468017578125 891.17169189453125 890.5927734375 890.01385498046875 889.4349365234375 888.4949951171875 887.14642333984375 885.79791259765625 884.4493408203125 884.32464599609375 884.43756103515625 884.55047607421875 884.197265625 882.0439453125 879.89068603515625 877.7374267578125 875.6651611328125 873.65301513671875 871.640869140625 869.6287841796875 868.91387939453125 868.27850341796875 867.64306640625 866.81915283203125 865.57666015625 864.3341064453125 863.091552734375 862.67333984375 862.64508056640625 862.61688232421875 862.64312744140625 863.77276611328125 864.90240478515625 866.03204345703125 867.03558349609375 867.86163330078125 868.68768310546875 869.51373291015625 870.79345703125 872.198486328125 873.60345458984375 874.79498291015625 874.79498291015625 
914.345703125 914.345703125 914.00146484375 913.49835205078125 912.9952392578125 912.45867919921875 911.31695556640625 910.17529296875 909.0335693359375 908.57647705078125 909.0621337890625 909.5477294921875 910.0333251953125 910.20281982421875 910.287841796875 910.372802734375 910.58770751953125 911.49871826171875 912.40972900390625 913.32080078125 914.06744384765625 914.665771484375 915.2640380859375 915.86236572265625 913.93267822265625 911.70263671875 909.47265625 907.43157958984375 905.9222412109375 904.41290283203125 902.903564453125 901.758544921875 900.82708740234375 899.8956298828125 898.96417236328125 897.95806884765625 896.95184326171875 895.94561767578125 895.76519775390625 897.00933837890625 898.2535400390625 899.49774169921875 900.90936279296875 902.38128662109375 903.853271484375 905.5433349609375 909.1229248046875 912.7025146484375 916.28204345703125 918.19049072265625 918.22784423828125 918.2652587890625 918.30267333984375 917.76605224609375 917.1201171875 916.4742431640625 915.13214111328125 911.1446533203125 907.15716552734375 903.169677734375 901.70098876953125 902.081787109375 902.4625244140625 902.84326171875 904.56024169921875 906.3551025390625 908.1500244140625 909.4541015625 909.68182373046875 909.90960693359375 910.1373291015625 909.76776123046875 909.11895751953125 908.47021484375 907.84625244140625 907.69677734375 907.5472412109375 907.39776611328125 907.95001220703125 909.4791259765625 911.00830078125 912.5374755859375 914.991943359375 917.6978759765625 920.40374755859375 922.63409423828125 922.2635498046875 921.89300537109375 921.5224609375 921.39544677734375 921.49066162109375 921.5858154296875 921.6810302734375 922.55474853515625 923.5235595703125 924.492431640625 925.09173583984375 924.63623046875 924.1806640625 923.72515869140625 921.218994140625 917.49664306640625 913.7742919921875 910.05194091796875 907.60601806640625 905.165283203125 902.7244873046875 900.605712890625 899.04876708984375 897.4918212890625 895.9349365234375 894.47509765625 893.05078125 891.62640380859375 890.26617431640625 889.47747802734375 888.6888427734375 887.900146484375 886.81329345703125 885.388916015625 883.964599609375 882.54022216796875 882.14923095703125 881.9588623046875 881.76849365234375 881.25018310546875 879.46551513671875 877.6807861328125 875.8961181640625 874.05682373046875 872.17694091796875 870.29705810546875 868.41717529296875 867.70001220703125 867.05413818359375 866.40826416015625 865.63568115234375 864.5819091796875 863.528076171875 862.4742431640625 862.1680908203125 862.2156982421875 862.2633056640625 862.36273193359375 863.51171875 864.66070556640625 865.80975341796875 866.8048095703125 867.583251953125 868.36175537109375 869.14019775390625 870.31292724609375 871.594482421875 872.8760986328125 873.96295166015625 873.96295166015625 
914.8963623046875 914.8963623046875 914.60406494140625 914.1767578125 913.74945068359375 913.27581787109375 911.9642333984375 910.652587890625 909.34100341796875 908.601806640625 908.6507568359375 908.69970703125 908.74871826171875 908.5867919921875 908.3685302734375 908.15020751953125 908.06182861328125 908.6695556640625 909.27734375 909.8851318359375 910.52777099609375 911.20184326171875 911.8759765625 912.55010986328125 911.3739013671875 909.9779052734375 908.5819091796875 907.2158203125 905.9339599609375 904.65203857421875 903.37017822265625 901.9268798828125 900.38885498046875 898.85089111328125 897.3128662109375 896.4573974609375 895.602783203125 894.74822998046875 894.74725341796875 896.2188720703125 897.69049072265625 899.16217041015625 900.7454833984375 902.36907958984375 903.99267578125 905.8187255859375 909.39825439453125 912.97784423828125 916.55743408203125 918.2869873046875 917.94525146484375 917.60357666015625 917.2618408203125 916.5372314453125 915.73974609375 914.94219970703125 913.52740478515625 909.76739501953125 906.00732421875 902.247314453125 901.2247314453125 902.2120361328125 903.19927978515625 904.18658447265625 906.15191650390625 908.17425537109375 910.19659423828125 911.63311767578125 911.78509521484375 911.93701171875 912.0889892578125 911.2177734375 909.86834716796875 908.5189208984375 907.23162841796875 907.13189697265625 907.03216552734375 906.93243408203125 907.72235107421875 909.750732421875 911.7791748046875 913.80755615234375 916.30908203125 918.93914794921875 921.56927490234375 923.7120361328125 923.18988037109375 922.667724609375 922.1455078125 922.02545166015625 922.27227783203125 922.51910400390625 922.76593017578125 923.85888671875 925.05517578125 926.25146484375 927.05853271484375 926.754638671875 926.45074462890625 926.14691162109375 923.55438232421875 919.6046142578125 915.65478515625 911.7049560546875 908.88055419921875 906.06072998046875 903.2408447265625 900.936279296875 899.531005859375 898.125732421875 896.72039794921875 895.24560546875 893.74542236328125 892.24530029296875 890.77862548828125 889.61090087890625 888.443115234375 887.27532958984375 885.95166015625 884.45147705078125 882.9512939453125 881.451171875 880.7938232421875 880.3001708984375 879.80657958984375 879.0941162109375 877.53692626953125 875.97967529296875 874.4224853515625 872.72357177734375 870.91949462890625 869.115478515625 867.3114013671875 866.45574951171875 865.658203125 864.8607177734375 864.00714111328125 863.02911376953125 862.0511474609375 861.07318115234375 860.8427734375 860.9661865234375 861.089599609375 861.264892578125 862.48968505859375 863.71453857421875 864.9393310546875 865.947265625 866.64990234375 867.3525390625 868.05517578125 869.09271240234375 870.22265625 871.3525390625 872.31085205078125 872.31085205078125 
915.44708251953125 915.44708251953125 915.2066650390625 914.85516357421875 914.503662109375 914.09295654296875 912.6114501953125 911.12994384765625 909.6484375 908.6270751953125 908.23944091796875 907.85174560546875 907.46405029296875 906.97076416015625 906.44921875 905.9276123046875 905.53594970703125 905.8404541015625 906.14495849609375 906.44940185546875 906.988037109375 907.73797607421875 908.48785400390625 909.23779296875 908.81512451171875 908.25311279296875 907.691162109375 907.00006103515625 905.9456787109375 904.8912353515625 903.8367919921875 902.09521484375 899.95068359375 897.80615234375 895.66156005859375 894.95672607421875 894.2537841796875 893.55084228515625 893.72930908203125 895.42840576171875 897.12750244140625 898.82659912109375 900.5816650390625 902.35687255859375 904.132080078125 906.09405517578125 909.67364501953125 913.25323486328125 916.832763671875 918.38348388671875 917.66265869140625 916.94189453125 916.2210693359375 915.3084716796875 914.35931396484375 913.41009521484375 911.9227294921875 908.39013671875 904.8575439453125 901.324951171875 900.7484130859375 902.34228515625 903.93609619140625 905.5299072265625 907.74359130859375 909.993408203125 912.2431640625 913.81219482421875 913.8883056640625 913.9644775390625 914.04058837890625 912.66778564453125 910.61767578125 908.567626953125 906.6170654296875 906.56707763671875 906.51715087890625 906.4671630859375 907.49468994140625 910.0223388671875 912.54998779296875 915.07763671875 917.626220703125 920.18048095703125 922.73480224609375 924.7900390625 924.1162109375 923.4423828125 922.7685546875 922.65545654296875 923.05389404296875 923.45233154296875 923.850830078125 925.1629638671875 926.58673095703125 928.01043701171875 929.02532958984375 928.87310791015625 928.7208251953125 928.568603515625 925.8897705078125 921.7125244140625 917.5352783203125 913.35797119140625 910.15509033203125 906.9561767578125 903.7572021484375 901.266845703125 900.01324462890625 898.75958251953125 897.50592041015625 896.01611328125 894.44012451171875 892.8641357421875 891.2911376953125 889.7442626953125 888.1973876953125 886.65057373046875 885.09002685546875 883.5140380859375 881.93804931640625 880.362060546875 879.4384765625 878.64154052734375 877.8446044921875 876.9381103515625 875.60833740234375 874.278564453125 872.94879150390625 871.39031982421875 869.662109375 867.933837890625 866.20562744140625 865.21148681640625 864.2623291015625 863.31317138671875 862.37860107421875 861.47637939453125 860.57421875 859.67205810546875 859.51751708984375 859.71673583984375 859.91595458984375 860.16705322265625 861.46771240234375 862.768310546875 864.0689697265625 865.0897216796875 865.716552734375 866.3433837890625 866.97021484375 867.8724365234375 868.85076904296875 869.82904052734375 870.65869140625 870.65869140625 
915.997802734375 915.997802734375 915.8092041015625 915.5335693359375 915.25787353515625 914.91009521484375 913.2586669921875 911.60723876953125 909.955810546875 908.65240478515625 907.82806396484375 907.0037841796875 906.179443359375 905.354736328125 904.5299072265625 903.70501708984375 903.0101318359375 903.01129150390625 903.01251220703125 903.01373291015625 903.44830322265625 904.2740478515625 905.09979248046875 905.925537109375 906.25634765625 906.52838134765625 906.80035400390625 906.78436279296875 905.9573974609375 905.13043212890625 904.303466796875 902.2635498046875 899.512451171875 896.7613525390625 894.01025390625 893.4560546875 892.90472412109375 892.3533935546875 892.71136474609375 894.63787841796875 896.564453125 898.49102783203125 900.41778564453125 902.3446044921875 904.271484375 906.369384765625 909.948974609375 913.528564453125 917.108154296875 918.47998046875 917.38006591796875 916.28021240234375 915.1802978515625 914.07965087890625 912.9788818359375 911.8780517578125 910.3179931640625 907.01287841796875 903.70770263671875 900.402587890625 900.2720947265625 902.47247314453125 904.67291259765625 906.873291015625 909.33526611328125 911.81256103515625 914.289794921875 915.99127197265625 915.9915771484375 915.99188232421875 915.9921875 914.11773681640625 911.3670654296875 908.6163330078125 906.00244140625 906.00225830078125 906.0020751953125 906.00189208984375 907.26708984375 910.2939453125 913.32080078125 916.34771728515625 918.943359375 921.42181396484375 923.9002685546875 925.86798095703125 925.04254150390625 924.21710205078125 923.39166259765625 923.285400390625 923.83551025390625 924.3856201171875 924.93572998046875 926.467041015625 928.1182861328125 929.76947021484375 930.99212646484375 930.99151611328125 930.99090576171875 930.99029541015625 928.22515869140625 923.8204345703125 919.41571044921875 915.010986328125 911.42962646484375 907.85162353515625 904.2735595703125 901.59747314453125 900.49542236328125 899.3934326171875 898.29144287109375 896.78662109375 895.13482666015625 893.4830322265625 891.8035888671875 889.87762451171875 887.95172119140625 886.0257568359375 884.2283935546875 882.57659912109375 880.9248046875 879.27301025390625 878.0831298828125 876.98291015625 875.8826904296875 874.7821044921875 873.67974853515625 872.57745361328125 871.47515869140625 870.05706787109375 868.4046630859375 866.75225830078125 865.099853515625 863.9671630859375 862.86639404296875 861.76556396484375 860.75 859.92364501953125 859.0972900390625 858.27093505859375 858.19219970703125 858.46728515625 858.7423095703125 859.0692138671875 860.4456787109375 861.8221435546875 863.1986083984375 864.232177734375 864.783203125 865.33416748046875 865.88519287109375 866.6522216796875 867.4788818359375 868.3055419921875 869.006591796875 869.006591796875 
916 916 915.8116455078125 915.5362548828125 915.26092529296875 914.91339111328125 913.26129150390625 911.60919189453125 909.95709228515625 908.6524658203125 907.826416015625 907.0003662109375 906.17431640625 905.3482666015625 904.522216796875 903.6961669921875 903 903 903 903 903.43414306640625 904.26019287109375 905.08624267578125 905.91229248046875 906.24609375 906.521484375 906.79681396484375 906.78350830078125 905.95745849609375 905.13134765625 904.3052978515625 902.26422119140625 899.51068115234375 896.7572021484375 894.003662109375 893.45001220703125 892.89935302734375 892.3486328125 892.707275390625 894.634765625 896.56219482421875 898.48968505859375 900.4171142578125 902.3446044921875 904.27203369140625 906.37054443359375 909.9500732421875 913.5296630859375 917.1092529296875 918.4803466796875 917.37896728515625 916.27752685546875 915.1761474609375 914.07476806640625 912.97332763671875 911.8719482421875 910.31158447265625 907.00732421875 903.703125 900.39892578125 900.27020263671875 902.4730224609375 904.67584228515625 906.878662109375 909.3416748046875 911.81982421875 914.2979736328125 916 916 916 916 914.12353515625 911.37005615234375 908.61651611328125 906 906 906 906 907.26617431640625 910.2950439453125 913.32391357421875 916.352783203125 918.9486083984375 921.4267578125 923.90496826171875 925.872314453125 925.0462646484375 924.22021484375 923.39410400390625 923.2879638671875 923.838623046875 924.38934326171875 924.9400634765625 926.4722900390625 928.1243896484375 929.7764892578125 931 931 931 931 928.2344970703125 923.828857421875 919.42327880859375 915.01763916015625 911.43475341796875 907.85516357421875 904.275634765625 901.5987548828125 900.49737548828125 899.39599609375 898.2945556640625 896.78973388671875 895.13763427734375 893.48553466796875 891.80560302734375 889.878173828125 887.95068359375 886.02325439453125 884.2249755859375 882.5728759765625 880.92071533203125 879.26861572265625 878.07769775390625 876.97625732421875 875.8748779296875 874.7734375 873.67205810546875 872.57061767578125 871.46923828125 870.0517578125 868.399658203125 866.74755859375 865.09539794921875 863.96221923828125 862.86077880859375 861.7593994140625 860.74346923828125 859.91741943359375 859.09136962890625 858.26531982421875 858.1868896484375 858.4622802734375 858.73760986328125 859.0648193359375 860.44158935546875 861.818359375 863.19512939453125 864.228759765625 864.7794189453125 865.33013916015625 865.880859375 866.6473388671875 867.473388671875 868.2994384765625 869 869 
