ncols        156
nrows        105
xllcorner    798778.801047321060
yllcorner    1484563.296254347777
cellsize     250.000000000000
NODATA_value -99999
-99999 -99999 -99999 -99999 -99999 -99999 -99999 -99999 -99999 -99999 -99999 -99999 -99999 -99999 -99999 -99999 -99999 -99999 -99999 -99999 -99999 -99999 -99999 -99999 -99999 -99999 -99999 -99999 -99999 -99999 -99999 -99999 -99999 -99999 -99999 -99999 -99999 -99999 -99999 -99999 -99999 -99999 -99999 -99999 -99999 -99999 -99999 -99999 -99999 -99999 -99999 -99999 -99999 -99999 -99999 -99999 -99999 -99999 -99999 -99999 -99999 -99999 -99999 -99999 -99999 -99999 -99999 -99999 -99999 -99999 -99999 -99999 -99999 -99999 -99999 -99999 -99999 -99999 -99999 -99999 -99999 -99999 -99999 -99999 -99999 -99999 -99999 -99999 -99999 -99999 -99999 -99999 -99999 -99999 -99999 -99999 -99999 -99999 -99999 -99999 -99999 -99999 -99999 -99999 -99999 -99999 -99999 -99999 -99999 -99999 -99999 -99999 -99999 -99999 -99999 -99999 -99999 -99999 -99999 -99999 -99999 -99999 -99999 -99999 -99999 -99999 -99999 -99999 -99999 -99999 -99999 -99999 -99999 -99999 -99999 -99999 -99999 -99999 -99999 -99999 -99999 -99999 -99999 -99999 -99999 -99999 -99999 -99999 -99999 -99999 -99999 -99999 -99999 -99999 -99999 -99999
-99999 -99999 -99999 -99999 -99999 -99999 -99999 -99999 -99999 -99999 -99999 -99999 -99999 -99999 -99999 -99999 -99999 -99999 -99999 -99999 -99999 -99999 -99999 -99999 -99999 -99999 -99999 -99999 -99999 -99999 -99999 -99999 -99999 -99999 -99999 -99999 -99999 -99999 -99999 -99999 -99999 -99999 -99999 -99999 -99999 -99999 -99999 -99999 -99999 -99999 -99999 -99999 -99999 -99999 -99999 -99999 -99999 -99999 -99999 -99999 -99999 -99999 -99999 -99999 -99999 -99999 -99999 -99999 -99999 -99999 -99999 -99999 -99999 -99999 -99999 -99999 -99999 -99999 -99999 -99999 -99999 -99999 -99999 -99999 -99999 -99999 -99999 -99999 -99999 -99999 -99999 -99999 -99999 -99999 -99999 -99999 -99999 -99999 -99999 -99999 -99999 -99999 -99999 -99999 -99999 -99999 -99999 -99999 -99999 -99999 -99999 -99999 -99999 -99999 -99999 -99999 -99999 -99999 -99999 -99999 -99999 -99999 -99999 -99999 -99999 -99999 -99999 -99999 -99999 -99999 -99999 -99999 -99999 -99999 -99999 -99999 -99999 -99999 -99999 -99999 -99999 -99999 -99999 -99999 -99999 -99999 -99999 -99999 -99999 -99999 -99999 -99999 -99999 -99999 -99999 -99999
-99999 -99999 -99999 -99999 -99999 -99999 -99999 -99999 -99999 -99999 -99999 -99999 -99999 -99999 -99999 -99999 -99999 -99999 -99999 -99999 -99999 -99999 -99999 -99999 -99999 -99999 -99999 -99999 -99999 -99999 -99999 -99999 -99999 -99999 -99999 -99999 -99999 -99999 -99999 -99999 -99999 -99999 -99999 -99999 -99999 -99999 -99999 -99999 -99999 -99999 -99999 -99999 -99999 -99999 -99999 -99999 -99999 -99999 -99999 -99999 -99999 -99999 -99999 -99999 -99999 -99999 -99999 -99999 -99999 -99999 -99999 -99999 -99999 -99999 -99999 -99999 -99999 -99999 -99999 -99999 -99999 -99999 -99999 -99999 -99999 -99999 -99999 -99999 -99999 -99999 -99999 -99999 -99999 -99999 -99999 -99999 -99999 -99999 -99999 -99999 -99999 -99999 -99999 -99999 -99999 -99999 -99999 -99999 -99999 -99999 -99999 -99999 -99999 -99999 -99999 -99999 -99999 -99999 -99999 -99999 -99999 -99999 -99999 -99999 -99999 -99999 -99999 -99999 -99999 -99999 -99999 -99999 -99999 -99999 -99999 -99999 -99999 -99999 -99999 -99999 -99999 -99999 -99999 -99999 -99999 -99999 -99999 -99999 -99999 -99999 -99999 -99999 -99999 -99999 -99999 -99999
-99999 -99999 -99999 -99999 -99999 -99999 -99999 -99999 -99999 -99999 -99999 -99999 -99999 -99999 -99999 -99999 -99999 -99999 -99999 -99999 -99999 -99999 -99999 -99999 -99999 -99999 -99999 -99999 -99999 -99999 -99999 -99999 -99999 -99999 -99999 -99999 -99999 -99999 -99999 -99999 -99999 -99999 -99999 -99999 -99999 -99999 -99999 -99999 -99999 -99999 -99999 -99999 -99999 -99999 -99999 -99999 -99999 -99999 -99999 -99999 -99999 -99999 -99999 -99999 -99999 -99999 -99999 -99999 -99999 -99999 -99999 -99999 -99999 -99999 -99999 -99999 -99999 -99999 -99999 -99999 -99999 -99999 -99999 -99999 -99999 -99999 -99999 -99999 -99999 -99999 -99999 -99999 -99999 -99999 -99999 -99999 -99999 -99999 -99999 -99999 -99999 -99999 -99999 -99999 -99999 -99999 -99999 -99999 -99999 -99999 -99999 -99999 -99999 -99999 -99999 -99999 -99999 -99999 -99999 -99999 -99999 -99999 -99999 -99999 -99999 -99999 -99999 -99999 -99999 -99999 -99999 -99999 -99999 -99999 -99999 -99999 -99999 -99999 -99999 -99999 -99999 -99999 -99999 -99999 -99999 -99999 -99999 -99999 -99999 -99999 -99999 -99999 -99999 -99999 -99999 -99999
-99999 -99999 -99999 -99999 -99999 -99999 -99999 -99999 -99999 -99999 -99999 -99999 -99999 -99999 -99999 -99999 -99999 -99999 -99999 -99999 -99999 -99999 -99999 -99999 -99999 -99999 -99999 -99999 -99999 -99999 -99999 -99999 -99999 -99999 -99999 -99999 -99999 -99999 -99999 -99999 -99999 -99999 -99999 -99999 -99999 -99999 -99999 -99999 -99999 -99999 -99999 -99999 -99999 -99999 -99999 -99999 -99999 -99999 -99999 -99999 -99999 -99999 -99999 -99999 -99999 -99999 -99999 -99999 -99999 -99999 -99999 -99999 -99999 -99999 -99999 -99999 -99999 -99999 -99999 -99999 -99999 -99999 -99999 -99999 -99999 -99999 -99999 -99999 -99999 -99999 -99999 -99999 -99999 -99999 -99999 -99999 -99999 -99999 -99999 -99999 -99999 -99999 -99999 -99999 -99999 -99999 -99999 -99999 -99999 -99999 -99999 -99999 -99999 -99999 -99999 -99999 -99999 -99999 -99999 -99999 -99999 -99999 -99999 -99999 -99999 -99999 -99999 -99999 -99999 -99999 -99999 -99999 -99999 -99999 -99999 -99999 -99999 -99999 -99999 -99999 -99999 -99999 -99999 -99999 -99999 -99999 -99999 -99999 -99999 -99999 -99999 -99999 -99999 -99999 -99999 -99999
-99999 -99999 -99999 -99999 -99999 -99999 -99999 -99999 -99999 -99999 -99999 -99999 -99999 -99999 -99999 -99999 -99999 -99999 -99999 -99999 -99999 -99999 -99999 -99999 -99999 -99999 -99999 -99999 -99999 -99999 -99999 -99999 -99999 -99999 -99999 -99999 -99999 -99999 -99999 -99999 -99999 -99999 -99999 -99999 -99999 -99999 -99999 -99999 -99999 -99999 -99999 -99999 -99999 -99999 -99999 -99999 -99999 -99999 -99999 -99999 -99999 -99999 -99999 -99999 -99999 -99999 -99999 -99999 -99999 -99999 -99999 -99999 -99999 -99999 -99999 -99999 -99999 -99999 -99999 -99999 -99999 -99999 -99999 -99999 -99999 -99999 -99999 -99999 -99999 -99999 -99999 -99999 -99999 -99999 -99999 -99999 -99999 -99999 -99999 -99999 -99999 -99999 -99999 -99999 -99999 -99999 -99999 -99999 -99999 -99999 -99999 -99999 -99999 -99999 -99999 -99999 -99999 -99999 -99999 -99999 -99999 -99999 -99999 -99999 -99999 -99999 -99999 -99999 -99999 -99999 -99999 -99999 -99999 -99999 -99999 -99999 -99999 -99999 -99999 -99999 -99999 -99999 -99999 -99999 -99999 -99999 -99999 -99999 -99999 -99999 -99999 -99999 -99999 -99999 -99999 -99999
-99999 -99999 -99999 -99999 -99999 -99999 -99999 -99999 -99999 -99999 -99999 -99999 -99999 -99999 -99999 -99999 -99999 -99999 -99999 -99999 -99999 -99999 -99999 -99999 -99999 -99999 -99999 -99999 -99999 -99999 -99999 -99999 -99999 -99999 -99999 -99999 -99999 -99999 -99999 -99999 -99999 -99999 -99999 -99999 -99999 -99999 -99999 -99999 -99999 -99999 -99999 -99999 -99999 -99999 -99999 -99999 -99999 -99999 -99999 -99999 -99999 -99999 -99999 -99999 -99999 -99999 -99999 -99999 -99999 -99999 -99999 -99999 -99999 -99999 -99999 -99999 -99999 -99999 -99999 -99999 -99999 -99999 -99999 -99999 -99999 -99999 -99999 -99999 -99999 -99999 -99999 -99999 -99999 -99999 -99999 -99999 -99999 -99999 -99999 -99999 -99999 -99999 -99999 -99999 -99999 -99999 -99999 -99999 -99999 -99999 -99999 -99999 -99999 -99999 -99999 -99999 -99999 -99999 -99999 -99999 -99999 -99999 -99999 -99999 -99999 -99999 -99999 -99999 -99999 -99999 -99999 -99999 -99999 -99999 -99999 -99999 -99999 -99999 -99999 -99999 -99999 -99999 -99999 -99999 -99999 -99999 -99999 -99999 -99999 -99999 -99999 -99999 -99999 -99999 -99999 -99999
-99999 -99999 -99999 -99999 -99999 -99999 -99999 -99999 -99999 -99999 -99999 -99999 -99999 -99999 -99999 -99999 -99999 -99999 -99999 -99999 -99999 -99999 -99999 -99999 -99999 -99999 -99999 -99999 -99999 -99999 -99999 -99999 -99999 -99999 -99999 -99999 -99999 -99999 -99999 -99999 -99999 -99999 -99999 -99999 -99999 -99999 -99999 -99999 -99999 -99999 -99999 -99999 -99999 -99999 -99999 -99999 -99999 -99999 -99999 -99999 -99999 -99999 -99999 -99999 -99999 -99999 -99999 -99999 -99999 -99999 -99999 -99999 -99999 -99999 -99999 -99999 -99999 -99999 -99999 -99999 -99999 -99999 -99999 -99999 -99999 -99999 -99999 -99999 -99999 -99999 -99999 -99999 -99999 -99999 -99999 -99999 -99999 -99999 -99999 -99999 -99999 -99999 -99999 -99999 -99999 -99999 -99999 -99999 -99999 -99999 -99999 -99999 -99999 -99999 -99999 -99999 -99999 -99999 -99999 -99999 -99999 -99999 -99999 -99999 -99999 -99999 -99999 -99999 -99999 -99999 -99999 -99999 -99999 -99999 -99999 -99999 -99999 -99999 -99999 -99999 -99999 -99999 -99999 -99999 -99999 -99999 -99999 -99999 -99999 -99999 -99999 -99999 -99999 -99999 -99999 -99999
-99999 -99999 -99999 -99999 -99999 -99999 -99999 -99999 -99999 -99999 -99999 -99999 -99999 -99999 -99999 -99999 -99999 -99999 -99999 -99999 -99999 -99999 -99999 -99999 -99999 -99999 -99999 -99999 -99999 -99999 -99999 -99999 -99999 -99999 -99999 -99999 -99999 -99999 -99999 -99999 -99999 -99999 -99999 -99999 -99999 -99999 -99999 -99999 -99999 -99999 -99999 -99999 -99999 -99999 -99999 -99999 -99999 -99999 -99999 -99999 -99999 -99999 -99999 -99999 -99999 -99999 -99999 -99999 -99999 -99999 -99999 -99999 -99999 -99999 -99999 -99999 -99999 -99999 -99999 -99999 -99999 -99999 -99999 -99999 -99999 -99999 -99999 -99999 -99999 -99999 -99999 -99999 -99999 -99999 -99999 -99999 -99999 -99999 -99999 -99999 -99999 -99999 -99999 -99999 -99999 -99999 -99999 -99999 -99999 -99999 -99999 -99999 -99999 -99999 -99999 -99999 -99999 -99999 -99999 -99999 -99999 -99999 -99999 -99999 -99999 -99999 -99999 -99999 -99999 -99999 -99999 -99999 -99999 -99999 -99999 -99999 -99999 -99999 -99999 -99999 -99999 -99999 -99999 -99999 -99999 -99999 -99999 -99999 -99999 -99999 -99999 -99999 -99999 -99999 -99999 -99999
-99999 -99999 -99999 -99999 -99999 -99999 -99999 -99999 -99999 -99999 -99999 -99999 -99999 -99999 -99999 -99999 -99999 -99999 -99999 -99999 -99999 -99999 -99999 -99999 -99999 -99999 -99999 -99999 -99999 -99999 -99999 -99999 -99999 -99999 -99999 -99999 -99999 -99999 -99999 -99999 -99999 -99999 -99999 -99999 -99999 -99999 -99999 -99999 -99999 -99999 -99999 -99999 -99999 -99999 -99999 -99999 -99999 -99999 -99999 -99999 -99999 -99999 -99999 -99999 -99999 -99999 -99999 -99999 -99999 -99999 -99999 -99999 -99999 -99999 -99999 -99999 -99999 -99999 -99999 -99999 -99999 -99999 -99999 -99999 -99999 -99999 -99999 -99999 -99999 -99999 -99999 -99999 -99999 -99999 -99999 -99999 -99999 -99999 -99999 -99999 -99999 -99999 -99999 -99999 -99999 -99999 -99999 -99999 -99999 -99999 -99999 -99999 -99999 -99999 -99999 -99999 -99999 -99999 -99999 -99999 -99999 -99999 -99999 -99999 -99999 -99999 -99999 -99999 -99999 -99999 -99999 -99999 -99999 -99999 -99999 -99999 -99999 -99999 -99999 -99999 -99999 -99999 -99999 -99999 -99999 -99999 -99999 -99999 -99999 -99999 -99999 -99999 -99999 -99999 -99999 -99999
-99999 -99999 -99999 -99999 -99999 -99999 -99999 -99999 -99999 -99999 -99999 -99999 -99999 -99999 -99999 -99999 -99999 -99999 -99999 -99999 -99999 -99999 -99999 -99999 -99999 -99999 -99999 -99999 -99999 -99999 -99999 -99999 -99999 -99999 -99999 -99999 -99999 -99999 -99999 -99999 -99999 -99999 -99999 -99999 -99999 -99999 -99999 -99999 -99999 -99999 -99999 -99999 -99999 -99999 -99999 -99999 -99999 -99999 -99999 -99999 -99999 -99999 -99999 -99999 -99999 -99999 -99999 -99999 -99999 -99999 -99999 -99999 -99999 -99999 -99999 -99999 -99999 -99999 -99999 -99999 -99999 -99999 -99999 -99999 -99999 -99999 -99999 -99999 -99999 -99999 -99999 -99999 -99999 -99999 -99999 -99999 -99999 -99999 -99999 -99999 -99999 -99999 -99999 -99999 -99999 -99999 -99999 -99999 -99999 -99999 -99999 -99999 -99999 -99999 -99999 -99999 -99999 -99999 -99999 -99999 -99999 -99999 -99999 -99999 -99999 -99999 -99999 -99999 -99999 -99999 -99999 -99999 -99999 -99999 -99999 -99999 -99999 -99999 -99999 -99999 -99999 -99999 -99999 -99999 -99999 -99999 -99999 -99999 -99999 -99999 -99999 -99999 -99999 -99999 -99999 -99999
-99999 -99999 -99999 -99999 -99999 -99999 -99999 -99999 -99999 -99999 -99999 -99999 -99999 -99999 -99999 -99999 -99999 -99999 -99999 -99999 -99999 -99999 -99999 -99999 -99999 -99999 -99999 -99999 -99999 -99999 -99999 -99999 -99999 -99999 -99999 -99999 -99999 -99999 -99999 -99999 -99999 -99999 -99999 -99999 -99999 -99999 -99999 -99999 -99999 -99999 -99999 -99999 -99999 -99999 -99999 -99999 -99999 -99999 -99999 -99999 -99999 -99999 -99999 -99999 -99999 -99999 -99999 -99999 -99999 -99999 -99999 -99999 -99999 -99999 -99999 -99999 -99999 -99999 -99999 -99999 -99999 -99999 -99999 -99999 -99999 -99999 -99999 -99999 -99999 -99999 -99999 -99999 -99999 -99999 -99999 -99999 -99999 -99999 -99999 -99999 -99999 -99999 -99999 -99999 -99999 -99999 -99999 -99999 -99999 -99999 -99999 -99999 -99999 -99999 -99999 -99999 -99999 -99999 -99999 -99999 -99999 -99999 -99999 -99999 -99999 -99999 -99999 -99999 -99999 -99999 -99999 -99999 -99999 -99999 -99999 -99999 -99999 -99999 -99999 -99999 -99999 -99999 -99999 -99999 -99999 -99999 -99999 -99999 -99999 -99999 -99999 -99999 -99999 -99999 -99999 -99999
-99999 -99999 -99999 -99999 -99999 -99999 -99999 -99999 -99999 -99999 -99999 -99999 -99999 -99999 -99999 -99999 -99999 -99999 -99999 -99999 -99999 -99999 -99999 -99999 -99999 -99999 -99999 -99999 -99999 -99999 -99999 -99999 -99999 -99999 -99999 -99999 -99999 -99999 -99999 -99999 -99999 -99999 -99999 -99999 -99999 -99999 -99999 -99999 -99999 -99999 -99999 -99999 -99999 -99999 -99999 -99999 -99999 -99999 -99999 -99999 -99999 -99999 -99999 -99999 -99999 -99999 -99999 -99999 -99999 -99999 -99999 -99999 -99999 -99999 -99999 -99999 -99999 -99999 -99999 -99999 -99999 -99999 -99999 -99999 -99999 -99999 -99999 -99999 -99999 -99999 -99999 -99999 -99999 -99999 -99999 -99999 -99999 -99999 -99999 -99999 -99999 -99999 -99999 -99999 -99999 -99999 -99999 -99999 -99999 -99999 -99999 -99999 -99999 -99999 -99999 -99999 -99999 -99999 -99999 -99999 -99999 -99999 -99999 -99999 -99999 -99999 -99999 -99999 -99999 -99999 -99999 -99999 -99999 -99999 -99999 -99999 -99999 -99999 -99999 -99999 -99999 -99999 -99999 -99999 -99999 -99999 -99999 -99999 -99999 -99999 -99999 -99999 -99999 -99999 -99999 -99999
-99999 -99999 -99999 -99999 -99999 -99999 -99999 -99999 -99999 -99999 -99999 -99999 -99999 -99999 -99999 -99999 -99999 -99999 -99999 -99999 -99999 -99999 -99999 -99999 -99999 -99999 -99999 -99999 -99999 -99999 -99999 -99999 -99999 -99999 -99999 -99999 -99999 -99999 -99999 -99999 -99999 -99999 -99999 -99999 -99999 -99999 -99999 -99999 -99999 -99999 -99999 -99999 -99999 -99999 -99999 -99999 -99999 -99999 -99999 -99999 -99999 -99999 -99999 -99999 -99999 -99999 -99999 -99999 -99999 -99999 -99999 -99999 -99999 -99999 -99999 -99999 -99999 -99999 -99999 -99999 -99999 -99999 -99999 -99999 -99999 -99999 -99999 -99999 -99999 -99999 -99999 -99999 -99999 -99999 -99999 -99999 -99999 -99999 -99999 -99999 -99999 -99999 -99999 -99999 -99999 -99999 -99999 -99999 -99999 -99999 -99999 -99999 -99999 -99999 -99999 -99999 -99999 -99999 -99999 -99999 -99999 -99999 -99999 -99999 -99999 -99999 -99999 -99999 -99999 -99999 -99999 -99999 -99999 -99999 -99999 -99999 -99999 -99999 -99999 -99999 -99999 -99999 -99999 -99999 -99999 -99999 -99999 -99999 -99999 -99999 -99999 -99999 -99999 -99999 -99999 -99999
-99999 -99999 -99999 -99999 -99999 -99999 -99999 -99999 -99999 -99999 -99999 -99999 -99999 -99999 -99999 -99999 -99999 -99999 -99999 -99999 -99999 -99999 -99999 -99999 -99999 -99999 -99999 -99999 -99999 -99999 -99999 -99999 -99999 -99999 -99999 -99999 -99999 -99999 -99999 -99999 -99999 -99999 -99999 -99999 -99999 -99999 -99999 -99999 -99999 -99999 -99999 -99999 -99999 -99999 -99999 -99999 -99999 -99999 -99999 -99999 -99999 -99999 -99999 -99999 -99999 -99999 -99999 -99999 -99999 -99999 -99999 -99999 -99999 -99999 -99999 -99999 -99999 -99999 -99999 -99999 -99999 -99999 -99999 -99999 -99999 -99999 -99999 -99999 -99999 -99999 -99999 -99999 -99999 -99999 -99999 -99999 -99999 -99999 -99999 -99999 -99999 -99999 -99999 -99999 -99999 -99999 -99999 -99999 -99999 -99999 -99999 -99999 -99999 -99999 -99999 -99999 -99999 -99999 -99999 -99999 -99999 -99999 -99999 -99999 -99999 -99999 -99999 -99999 -99999 -99999 -99999 -99999 -99999 -99999 -99999 -99999 -99999 -99999 -99999 -99999 -99999 -99999 -99999 -99999 -99999 -99999 -99999 -99999 -99999 -99999 -99999 -99999 -99999 -99999 -99999 -99999
-99999 -99999 -99999 -99999 -99999 -99999 -99999 -99999 -99999 -99999 -99999 -99999 -99999 -99999 -99999 -99999 -99999 -99999 -99999 -99999 -99999 -99999 -99999 -99999 -99999 -99999 -99999 -99999 -99999 -99999 -99999 -99999 -99999 -99999 -99999 -99999 -99999 -99999 -99999 -99999 -99999 -99999 -99999 -99999 -99999 -99999 -99999 -99999 -99999 -99999 -99999 -99999 -99999 -99999 -99999 -99999 -99999 -99999 -99999 -99999 -99999 -99999 -99999 -99999 -99999 -99999 -99999 -99999 -99999 -99999 -99999 -99999 -99999 -99999 -99999 -99999 -99999 -99999 -99999 -99999 -99999 -99999 -99999 -99999 -99999 -99999 -99999 -99999 -99999 -99999 -99999 -99999 -99999 -99999 -99999 -99999 -99999 -99999 -99999 -99999 -99999 -99999 -99999 -99999 -99999 -99999 -99999 -99999 -99999 -99999 -99999 -99999 -99999 -99999 -99999 -99999 -99999 -99999 -99999 -99999 -99999 -99999 -99999 -99999 -99999 -99999 -99999 -99999 -99999 -99999 -99999 -99999 -99999 -99999 -99999 -99999 -99999 -99999 -99999 -99999 -99999 -99999 -99999 -99999 -99999 -99999 -99999 -99999 -99999 -99999 -99999 -99999 -99999 -99999 -99999 -99999
-99999 -99999 -99999 -99999 -99999 -99999 -99999 -99999 -99999 -99999 -99999 -99999 -99999 -99999 -99999 -99999 -99999 -99999 -99999 -99999 -99999 -99999 -99999 -99999 -99999 -99999 -99999 -99999 -99999 -99999 -99999 -99999 -99999 -99999 -99999 -99999 -99999 -99999 -99999 -99999 -99999 -99999 -99999 -99999 -99999 -99999 -99999 -99999 -99999 -99999 -99999 -99999 -99999 -99999 -99999 -99999 -99999 -99999 -99999 -99999 -99999 -99999 -99999 -99999 -99999 -99999 -99999 -99999 -99999 -99999 -99999 -99999 -99999 -99999 -99999 -99999 -99999 -99999 -99999 -99999 -99999 -99999 -99999 -99999 -99999 -99999 -99999 -99999 -99999 -99999 -99999 -99999 -99999 -99999 -99999 -99999 -99999 -99999 -99999 -99999 -99999 -99999 -99999 -99999 -99999 -99999 -99999 -99999 -99999 -99999 -99999 -99999 -99999 -99999 -99999 -99999 -99999 -99999 -99999 -99999 -99999 -99999 -99999 -99999 -99999 -99999 -99999 -99999 -99999 -99999 -99999 -99999 -99999 -99999 -99999 -99999 -99999 -99999 -99999 -99999 -99999 -99999 -99999 -99999 -99999 -99999 -99999 -99999 -99999 -99999 -99999 -99999 -99999 -99999 -99999 -99999
-99999 -99999 -99999 -99999 -99999 -99999 -99999 -99999 -99999 -99999 -99999 -99999 -99999 -99999 -99999 -99999 -99999 -99999 -99999 -99999 -99999 -99999 -99999 -99999 -99999 -99999 -99999 -99999 -99999 -99999 -99999 -99999 -99999 -99999 -99999 -99999 -99999 -99999 -99999 -99999 -99999 -99999 -99999 -99999 -99999 -99999 -99999 -99999 -99999 -99999 -99999 -99999 -99999 -99999 -99999 -99999 -99999 -99999 -99999 -99999 0 -99999 -99999 -99999 -99999 -99999 -99999 -99999 -99999 -99999 -99999 -99999 -99999 -99999 -99999 -99999 -99999 -99999 -99999 -99999 -99999 -99999 -99999 -99999 -99999 -99999 -99999 -99999 -99999 -99999 -99999 -99999 -99999 -99999 -99999 -99999 -99999 -99999 -99999 -99999 -99999 -99999 -99999 -99999 -99999 -99999 -99999 -99999 -99999 -99999 -99999 -99999 -99999 -99999 -99999 -99999 -99999 -99999 -99999 -99999 -99999 -99999 -99999 -99999 -99999 -99999 -99999 -99999 -99999 -99999 -99999 -99999 -99999 -99999 -99999 -99999 -99999 -99999 -99999 -99999 -99999 -99999 -99999 -99999 -99999 -99999 -99999 -99999 -99999 -99999 -99999 -99999 -99999 -99999 -99999 -99999
-99999 -99999 -99999 -99999 -99999 -99999 -99999 -99999 -99999 -99999 -99999 -99999 -99999 -99999 -99999 -99999 -99999 -99999 -99999 -99999 -99999 -99999 -99999 -99999 -99999 -99999 -99999 -99999 -99999 -99999 -99999 -99999 -99999 -99999 -99999 -99999 -99999 -99999 -99999 -99999 -99999 -99999 -99999 -99999 -99999 -99999 -99999 -99999 -99999 -99999 -99999 -99999 -99999 -99999 -99999 -99999 -99999 0.262645 0 0 0 -99999 -99999 -99999 -99999 -99999 -99999 -99999 -99999 -99999 -99999 -99999 -99999 -99999 -99999 -99999 -99999 -99999 -99999 -99999 -99999 -99999 -99999 -99999 -99999 -99999 -99999 -99999 -99999 -99999 -99999 -99999 -99999 -99999 -99999 -99999 -99999 -99999 -99999 -99999 -99999 -99999 -99999 -99999 -99999 -99999 -99999 -99999 -99999 -99999 -99999 -99999 -99999 -99999 -99999 -99999 -99999 -99999 -99999 -99999 -99999 -99999 -99999 -99999 -99999 -99999 -99999 -99999 -99999 -99999 -99999 -99999 -99999 -99999 -99999 -99999 -99999 -99999 -99999 -99999 -99999 -99999 -99999 -99999 -99999 -99999 -99999 -99999 -99999 -99999 -99999 -99999 -99999 -99999 -99999 -99999
-99999 -99999 -99999 -99999 -99999 -99999 -99999 -99999 -99999 -99999 -99999 -99999 -99999 -99999 -99999 -99999 -99999 -99999 -99999 -99999 -99999 -99999 -99999 -99999 -99999 -99999 -99999 -99999 -99999 -99999 -99999 -99999 -99999 -99999 -99999 -99999 -99999 -99999 -99999 -99999 -99999 -99999 -99999 -99999 -99999 -99999 -99999 -99999 -99999 -99999 -99999 -99999 -99999 -99999 -99999 -99999 -99999 0.303337 0 0.0096 0.231932 0.791454 -99999 -99999 -99999 -99999 -99999 -99999 -99999 -99999 -99999 -99999 -99999 -99999 -99999 -99999 -99999 -99999 -99999 -99999 -99999 -99999 -99999 -99999 -99999 -99999 -99999 -99999 -99999 -99999 -99999 -99999 -99999 -99999 -99999 -99999 -99999 -99999 -99999 -99999 -99999 -99999 -99999 -99999 -99999 -99999 -99999 -99999 -99999 -99999 -99999 -99999 -99999 -99999 -99999 -99999 -99999 -99999 -99999 -99999 -99999 -99999 -99999 -99999 -99999 -99999 -99999 -99999 -99999 -99999 -99999 -99999 -99999 -99999 -99999 -99999 -99999 -99999 -99999 -99999 -99999 -99999 -99999 -99999 -99999 -99999 -99999 -99999 -99999 -99999 -99999 -99999 -99999 -99999 -99999 -99999
-99999 -99999 -99999 -99999 -99999 -99999 -99999 -99999 -99999 -99999 -99999 -99999 -99999 -99999 -99999 -99999 -99999 -99999 -99999 -99999 -99999 -99999 -99999 -99999 -99999 -99999 -99999 -99999 -99999 -99999 -99999 -99999 -99999 -99999 -99999 -99999 -99999 -99999 -99999 -99999 -99999 -99999 -99999 -99999 -99999 -99999 -99999 -99999 -99999 -99999 -99999 -99999 -99999 -99999 -99999 -99999 -99999 0 0.00214561 0.195851 1.30128 1.93421 -99999 -99999 -99999 -99999 -99999 -99999 -99999 -99999 -99999 -99999 -99999 -99999 -99999 -99999 -99999 -99999 -99999 -99999 -99999 -99999 -99999 -99999 -99999 -99999 -99999 -99999 -99999 -99999 -99999 -99999 -99999 -99999 -99999 -99999 -99999 -99999 -99999 -99999 -99999 -99999 -99999 -99999 -99999 -99999 -99999 -99999 -99999 -99999 -99999 -99999 -99999 -99999 -99999 -99999 -99999 -99999 -99999 -99999 -99999 -99999 -99999 -99999 -99999 -99999 -99999 -99999 -99999 -99999 -99999 -99999 -99999 -99999 -99999 -99999 -99999 -99999 -99999 -99999 -99999 -99999 -99999 -99999 -99999 -99999 -99999 -99999 -99999 -99999 -99999 -99999 -99999 -99999 -99999 -99999
-99999 -99999 -99999 -99999 -99999 -99999 -99999 -99999 -99999 -99999 -99999 -99999 -99999 -99999 -99999 -99999 -99999 -99999 -99999 -99999 -99999 -99999 -99999 -99999 -99999 -99999 -99999 -99999 -99999 -99999 -99999 -99999 -99999 -99999 -99999 -99999 -99999 -99999 -99999 -99999 -99999 -99999 -99999 -99999 -99999 -99999 -99999 -99999 -99999 -99999 -99999 -99999 -99999 -99999 -99999 -99999 -99999 0.00363853 0.0010548 0.891017 1.7005 1.11157 0.0615253 -99999 -99999 -99999 -99999 -99999 -99999 -99999 -99999 -99999 -99999 -99999 -99999 -99999 -99999 -99999 -99999 -99999 -99999 -99999 -99999 -99999 -99999 -99999 -99999 -99999 -99999 -99999 -99999 -99999 -99999 -99999 -99999 -99999 -99999 -99999 -99999 -99999 -99999 -99999 -99999 -99999 -99999 -99999 -99999 -99999 -99999 -99999 -99999 -99999 -99999 -99999 -99999 -99999 -99999 -99999 -99999 -99999 -99999 -99999 -99999 -99999 -99999 -99999 -99999 -99999 -99999 -99999 -99999 -99999 -99999 -99999 -99999 -99999 -99999 -99999 -99999 -99999 -99999 -99999 -99999 -99999 -99999 -99999 -99999 -99999 -99999 -99999 -99999 -99999 -99999 -99999 -99999 -99999
-99999 -99999 -99999 -99999 -99999 -99999 -99999 -99999 -99999 -99999 -99999 -99999 -99999 -99999 -99999 -99999 -99999 -99999 -99999 -99999 -99999 -99999 -99999 -99999 -99999 -99999 -99999 -99999 -99999 -99999 -99999 -99999 -99999 -99999 -99999 -99999 -99999 -99999 -99999 -99999 -99999 -99999 -99999 -99999 -99999 -99999 -99999 -99999 -99999 -99999 -99999 -99999 -99999 -99999 -99999 -99999 0.209475 0.230261 0.185537 1.04267 1.40616 0.785128 0.0553838 0.326924 0.116279 -99999 -99999 -99999 -99999 -99999 -99999 -99999 -99999 -99999 -99999 -99999 -99999 -99999 -99999 -99999 -99999 -99999 -99999 -99999 -99999 -99999 -99999 -99999 -99999 -99999 -99999 -99999 -99999 -99999 -99999 -99999 -99999 -99999 -99999 -99999 -99999 -99999 -99999 -99999 -99999 -99999 -99999 -99999 -99999 -99999 -99999 -99999 -99999 -99999 -99999 -99999 -99999 -99999 -99999 -99999 -99999 -99999 -99999 -99999 -99999 -99999 -99999 -99999 -99999 -99999 -99999 -99999 -99999 -99999 -99999 -99999 -99999 -99999 -99999 -99999 -99999 -99999 -99999 -99999 -99999 -99999 -99999 -99999 -99999 -99999 -99999 -99999 -99999 -99999 -99999 -99999
-99999 -99999 -99999 -99999 -99999 -99999 -99999 -99999 -99999 -99999 -99999 -99999 -99999 -99999 -99999 -99999 -99999 -99999 -99999 -99999 -99999 -99999 -99999 -99999 -99999 -99999 -99999 -99999 -99999 -99999 -99999 -99999 -99999 -99999 -99999 -99999 -99999 -99999 -99999 -99999 -99999 -99999 -99999 -99999 -99999 -99999 -99999 -99999 -99999 -99999 -99999 -99999 -99999 -99999 -99999 0.632741 0.446645 0.24688 0.483898 1.68493 1.53306 1.49093 1.13876 0.450928 1.26398 -99999 -99999 -99999 -99999 -99999 -99999 -99999 -99999 -99999 -99999 -99999 -99999 -99999 -99999 -99999 -99999 -99999 -99999 -99999 -99999 -99999 -99999 -99999 -99999 -99999 -99999 -99999 -99999 -99999 -99999 -99999 -99999 -99999 -99999 -99999 -99999 -99999 -99999 -99999 -99999 -99999 -99999 -99999 -99999 -99999 -99999 -99999 -99999 -99999 -99999 -99999 -99999 -99999 -99999 -99999 -99999 -99999 -99999 -99999 -99999 -99999 -99999 -99999 -99999 -99999 -99999 -99999 -99999 -99999 -99999 -99999 -99999 -99999 -99999 -99999 -99999 -99999 -99999 -99999 -99999 -99999 -99999 -99999 -99999 -99999 -99999 -99999 -99999 -99999 -99999 -99999
-99999 -99999 -99999 -99999 -99999 -99999 -99999 -99999 -99999 -99999 -99999 -99999 -99999 -99999 -99999 -99999 -99999 -99999 -99999 -99999 -99999 -99999 -99999 -99999 -99999 -99999 -99999 -99999 -99999 -99999 -99999 -99999 -99999 -99999 -99999 -99999 -99999 -99999 -99999 -99999 -99999 -99999 -99999 -99999 -99999 -99999 -99999 -99999 -99999 -99999 -99999 -99999 -99999 -99999 -99999 0.809067 1.01508 1.25205 1.63765 1.26628 1.60157 1.504 1.26517 1.30183 1.12489 0.5818 -99999 -99999 -99999 -99999 -99999 -99999 -99999 -99999 -99999 -99999 -99999 -99999 -99999 -99999 -99999 -99999 -99999 -99999 -99999 -99999 -99999 -99999 -99999 -99999 -99999 -99999 -99999 -99999 -99999 -99999 -99999 -99999 -99999 -99999 -99999 -99999 -99999 -99999 -99999 -99999 -99999 -99999 -99999 -99999 -99999 -99999 -99999 -99999 -99999 -99999 -99999 -99999 -99999 -99999 -99999 -99999 -99999 -99999 -99999 -99999 -99999 -99999 -99999 -99999 -99999 -99999 -99999 -99999 -99999 -99999 -99999 -99999 -99999 -99999 -99999 -99999 -99999 -99999 -99999 -99999 -99999 -99999 -99999 -99999 -99999 -99999 -99999 -99999 -99999 -99999
-99999 -99999 -99999 -99999 -99999 -99999 -99999 -99999 -99999 -99999 -99999 -99999 -99999 -99999 -99999 -99999 -99999 -99999 -99999 -99999 -99999 -99999 -99999 -99999 -99999 -99999 -99999 -99999 -99999 -99999 -99999 -99999 -99999 -99999 -99999 -99999 -99999 -99999 -99999 -99999 -99999 -99999 -99999 -99999 -99999 -99999 -99999 -99999 -99999 -99999 -99999 -99999 -99999 -99999 0.628475 0.720275 1.49134 0.281096 1.52805 1.21314 1.8049 0.893684 1.68702 1.35568 1.44412 2 -99999 -99999 -99999 -99999 -99999 -99999 -99999 -99999 -99999 -99999 -99999 -99999 -99999 -99999 -99999 -99999 -99999 -99999 -99999 -99999 -99999 -99999 -99999 -99999 -99999 -99999 -99999 -99999 -99999 -99999 -99999 -99999 -99999 -99999 -99999 -99999 -99999 -99999 -99999 -99999 -99999 -99999 -99999 -99999 -99999 -99999 -99999 -99999 -99999 -99999 -99999 -99999 -99999 -99999 -99999 -99999 -99999 -99999 -99999 -99999 -99999 -99999 -99999 -99999 -99999 -99999 -99999 -99999 -99999 -99999 -99999 -99999 -99999 -99999 -99999 -99999 -99999 -99999 -99999 -99999 -99999 -99999 -99999 -99999 -99999 -99999 -99999 -99999 -99999 -99999
-99999 -99999 -99999 -99999 -99999 -99999 -99999 -99999 -99999 -99999 -99999 -99999 -99999 -99999 -99999 -99999 -99999 -99999 -99999 -99999 -99999 -99999 -99999 -99999 -99999 -99999 -99999 -99999 -99999 -99999 -99999 -99999 -99999 -99999 -99999 -99999 -99999 -99999 -99999 -99999 -99999 -99999 -99999 -99999 -99999 -99999 -99999 -99999 -99999 -99999 -99999 -99999 -99999 0.120238 0.7198 1.56539 1.59365 0.681534 1.06535 1.60143 1.77452 1.70441 1.51917 1.35169 1.2941 -99999 -99999 -99999 -99999 -99999 -99999 -99999 -99999 -99999 0.556821 1.36819 -99999 -99999 -99999 -99999 -99999 -99999 -99999 -99999 -99999 -99999 -99999 -99999 -99999 -99999 -99999 -99999 -99999 -99999 -99999 -99999 -99999 -99999 -99999 -99999 -99999 -99999 -99999 -99999 -99999 -99999 -99999 -99999 -99999 -99999 -99999 1.33322 0.822935 0.603931 -99999 -99999 -99999 -99999 -99999 -99999 -99999 -99999 -99999 -99999 -99999 -99999 -99999 -99999 -99999 -99999 -99999 -99999 -99999 -99999 -99999 -99999 -99999 -99999 -99999 -99999 -99999 -99999 -99999 -99999 -99999 -99999 -99999 -99999 -99999 -99999 -99999 -99999 -99999 -99999 -99999 -99999
-99999 -99999 -99999 -99999 -99999 -99999 -99999 -99999 -99999 -99999 -99999 -99999 -99999 -99999 -99999 -99999 -99999 -99999 -99999 -99999 -99999 -99999 -99999 -99999 -99999 -99999 -99999 -99999 -99999 -99999 -99999 -99999 -99999 -99999 -99999 -99999 -99999 -99999 -99999 -99999 -99999 -99999 -99999 -99999 -99999 -99999 -99999 -99999 -99999 -99999 -99999 -99999 1.23444 0.834243 0.0119062 0.782376 1.81167 1.838 1.63538 1.42742 1.52838 0.957128 1.20045 1.37224 1.51929 -99999 -99999 -99999 -99999 -99999 -99999 -99999 0 0.212895 1.01189 0.398281 0 -99999 -99999 -99999 -99999 -99999 -99999 -99999 -99999 -99999 -99999 -99999 -99999 -99999 -99999 -99999 -99999 -99999 -99999 -99999 -99999 -99999 -99999 -99999 -99999 -99999 -99999 -99999 -99999 -99999 -99999 -99999 -99999 -99999 -99999 0.486519 0.641054 0.513112 0.384101 0.843442 -99999 -99999 -99999 -99999 -99999 -99999 -99999 -99999 -99999 -99999 -99999 -99999 -99999 -99999 -99999 -99999 -99999 -99999 -99999 -99999 -99999 -99999 -99999 -99999 -99999 -99999 -99999 -99999 -99999 -99999 -99999 -99999 -99999 -99999 -99999 -99999 -99999 -99999 -99999 -99999
-99999 -99999 -99999 -99999 -99999 -99999 -99999 -99999 -99999 -99999 -99999 -99999 -99999 -99999 -99999 -99999 -99999 -99999 -99999 -99999 -99999 -99999 -99999 -99999 -99999 -99999 -99999 -99999 -99999 -99999 -99999 -99999 -99999 -99999 -99999 -99999 -99999 -99999 -99999 -99999 -99999 -99999 -99999 -99999 -99999 -99999 -99999 -99999 -99999 -99999 -99999 -99999 0.0628373 0.956396 0.675656 0.48097 0.704786 0.999259 1.79836 1.62083 0.424001 0.652886 0.790545 0.954139 -99999 -99999 -99999 -99999 -99999 -99999 -99999 -99999 1.78499 0.971671 0.00421921 0 0 -99999 -99999 -99999 -99999 -99999 -99999 -99999 -99999 0 0.0550365 0.190409 1.54513 -99999 -99999 -99999 -99999 -99999 -99999 -99999 -99999 -99999 0 0.65416 0.242674 0.9 -99999 -99999 -99999 -99999 -99999 -99999 -99999 -99999 0.738593 0.876954 0.680095 0.611862 1.11668 1.12346 1.17531 1.05458 1.89982 -99999 -99999 -99999 -99999 -99999 -99999 -99999 -99999 -99999 -99999 -99999 -99999 -99999 -99999 -99999 -99999 -99999 -99999 -99999 -99999 -99999 -99999 -99999 -99999 -99999 -99999 -99999 -99999 -99999 -99999 -99999 -99999 -99999 -99999 -99999 -99999 -99999
-99999 -99999 -99999 -99999 -99999 -99999 -99999 -99999 -99999 -99999 -99999 -99999 -99999 -99999 -99999 -99999 -99999 -99999 -99999 -99999 -99999 -99999 -99999 -99999 -99999 -99999 -99999 -99999 -99999 -99999 -99999 -99999 -99999 -99999 -99999 -99999 -99999 -99999 -99999 -99999 -99999 -99999 -99999 -99999 -99999 -99999 -99999 1.86629 0.911971 0.350265 0.132127 0.0211971 0.00326417 0.19789 0.498621 0.493774 1.00281 1.34152 1.62048 1.20017 0.132861 0.0032 0.211462 0.607735 0.878479 0 -99999 -99999 0.81426 1.46298 1.35042 -99999 1.79158 0.685944 0.0135673 0 0 1.38689 1.53995 -99999 -99999 -99999 -99999 -99999 -99999 0.00540039 0.225342 0.0296943 1.39343 0.182458 0.501826 -99999 -99999 -99999 -99999 -99999 -99999 -99999 0.429016 0.117693 0.338494 0.385955 0.789042 0.719693 1.46091 -99999 -99999 0.244646 1.14571 1.13467 1.01977 1.15878 0.889787 0.61485 1.259 1.21828 0.831509 1.14758 1.53849 -99999 -99999 -99999 -99999 -99999 -99999 -99999 -99999 -99999 -99999 -99999 -99999 -99999 -99999 -99999 -99999 -99999 -99999 -99999 -99999 -99999 -99999 -99999 -99999 -99999 -99999 -99999 -99999 -99999 -99999 -99999 -99999 -99999 -99999 -99999 -99999 -99999
-99999 -99999 -99999 -99999 -99999 -99999 -99999 -99999 -99999 -99999 -99999 -99999 -99999 -99999 -99999 -99999 -99999 -99999 -99999 -99999 -99999 -99999 -99999 -99999 -99999 -99999 -99999 -99999 -99999 -99999 -99999 -99999 -99999 -99999 -99999 -99999 -99999 -99999 -99999 -99999 -99999 -99999 -99999 -99999 -99999 -99999 -99999 1.64664 0.201107 0.622153 0.984748 0.810848 0.153731 0.26509 0.740118 0.834416 1.55773 1.66256 1.29296 1.07981 0.121469 0.308164 0.512607 0.286743 0.0233836 0 -99999 0.0133625 0.057667 0.715335 1.5081 1.79237 1.60289 0.413166 0 0 0 0.515879 0.103445 0 0.0128353 0.103315 0.164162 0.0060857 0.0742684 0.0956734 0.183465 0.033151 0.11915 0.0520321 0.579853 0.932765 -99999 -99999 -99999 -99999 -99999 0 1.22286 0.433221 0.462396 0.834994 1.11223 0.522164 1.36075 1.27524 0.0013964 0 0.525983 1.22293 1.1737 1.28516 1.17348 1.01103 1.26724 0.491696 1.60606 0.805305 -99999 -99999 -99999 -99999 -99999 -99999 -99999 -99999 -99999 -99999 -99999 -99999 -99999 -99999 -99999 -99999 -99999 -99999 -99999 -99999 -99999 -99999 -99999 -99999 -99999 -99999 -99999 -99999 -99999 -99999 -99999 -99999 -99999 -99999 -99999 -99999 -99999 -99999
-99999 -99999 -99999 -99999 -99999 -99999 -99999 -99999 -99999 -99999 -99999 -99999 -99999 -99999 -99999 -99999 -99999 -99999 -99999 -99999 -99999 -99999 -99999 -99999 -99999 -99999 -99999 -99999 -99999 -99999 -99999 -99999 -99999 -99999 -99999 -99999 -99999 -99999 -99999 -99999 -99999 -99999 -99999 -99999 -99999 -99999 0.0926217 0.442957 0.838992 0.83407 0.582641 0.157209 0 0.193055 0.0170548 0.439484 1.7406 1.6908 1.74099 0.95609 0.0599929 0.243588 0.0650521 0 0.0128 0.0388858 0.202062 0.0517987 0 0.0248327 0.102473 0.322027 0.0516892 0.0288 0 0 0.05408 0.02384 0 0 0.354642 0.48003 0 0 0.0122543 0.00687453 0.0297836 0 0.548234 0.363485 0.824494 0.94736 1.33736 -99999 -99999 1.55712 1.61424 0.70747 0.608762 0.259752 0.395414 1.46109 1.64116 1.1556 1.45004 1.33774 0.11371 0 0.461961 1.41835 1.53983 1.25621 1.13538 0.945449 1.07237 0.679156 1.57236 0.769808 -99999 -99999 -99999 -99999 -99999 -99999 -99999 -99999 -99999 -99999 -99999 -99999 -99999 -99999 -99999 -99999 -99999 -99999 -99999 -99999 -99999 -99999 -99999 -99999 -99999 -99999 -99999 -99999 -99999 -99999 -99999 -99999 -99999 -99999 -99999 -99999 -99999 -99999
-99999 -99999 -99999 -99999 -99999 -99999 -99999 -99999 -99999 -99999 -99999 -99999 -99999 -99999 -99999 -99999 -99999 -99999 -99999 -99999 -99999 -99999 -99999 -99999 -99999 -99999 -99999 -99999 -99999 -99999 -99999 -99999 -99999 -99999 -99999 -99999 -99999 -99999 -99999 -99999 -99999 -99999 -99999 -99999 -99999 -99999 0.320419 0.368875 0.343357 0.130145 0.195229 0.0184285 0 0.0864 0.0256356 0.989483 1.46101 1.27261 1.51031 0.781906 0.0544 0.0021096 0.172704 0.00115099 0 0 0.1472 0.0192 0 0 0 0.00152946 0 0 0.15655 0.597657 0.491521 0.0644208 0.0224 0 0.744934 0.750614 0.0352 0 0.021249 0.00115099 0.104616 0.0185044 0.694296 0.553455 1.41976 0.840825 0.410157 0.323197 1.42788 1.2346 0.661306 0.157475 1.17761 0.455186 0.379283 1.63555 1.75789 1.46408 1.06709 1.40035 0.7176 0.332625 0.394124 0.980591 1.60468 1.37914 1.3024 1.68937 1.30737 1.10051 1.17146 1.11634 1.75581 -99999 -99999 -99999 -99999 -99999 -99999 -99999 -99999 -99999 -99999 -99999 -99999 -99999 -99999 -99999 -99999 -99999 -99999 -99999 -99999 -99999 -99999 -99999 -99999 -99999 -99999 -99999 -99999 -99999 -99999 -99999 -99999 -99999 -99999 -99999 -99999 -99999
-99999 -99999 -99999 -99999 -99999 -99999 -99999 -99999 -99999 -99999 -99999 -99999 -99999 -99999 -99999 -99999 -99999 -99999 -99999 -99999 -99999 -99999 -99999 -99999 -99999 -99999 -99999 -99999 -99999 -99999 -99999 -99999 -99999 -99999 -99999 -99999 -99999 -99999 -99999 -99999 -99999 -99999 -99999 -99999 -99999 -99999 0.963177 0.833595 0.512636 0.420295 0.18621 0.142537 0.451893 0.574745 0.278531 0.719944 0.728507 1.13826 1.21725 0.892048 0 0 0.0106548 0.0488438 0.646224 0.000383665 0 0 0 0 0.0424688 0.0151129 0 0 0.800191 1.10951 0.1715 0.0376592 0.0120327 0.0167673 0.248772 0.202682 0.01744 0 0.0128 0.106216 0.647029 0.411838 1.00215 0.462309 1.30868 1.27288 0.872612 0.711664 1.31504 1.66162 1.24843 0.942753 0.865627 0.146906 0.444083 1.55267 1.60408 1.35674 0.969897 1.29372 1.23644 0.684364 1.04055 0.565807 1.15759 1.27076 0.983442 1.32147 1.10089 0.692145 1.18921 1.42037 1.51819 0.942795 -99999 -99999 -99999 -99999 -99999 -99999 -99999 -99999 -99999 -99999 -99999 -99999 -99999 -99999 -99999 -99999 -99999 -99999 -99999 -99999 -99999 -99999 -99999 -99999 -99999 -99999 -99999 -99999 -99999 -99999 -99999 -99999 -99999 -99999 -99999 -99999
-99999 -99999 -99999 -99999 -99999 -99999 -99999 -99999 -99999 -99999 -99999 -99999 -99999 -99999 -99999 -99999 -99999 -99999 -99999 -99999 -99999 -99999 -99999 -99999 -99999 -99999 -99999 -99999 -99999 -99999 -99999 -99999 -99999 -99999 -99999 -99999 -99999 -99999 -99999 -99999 -99999 -99999 -99999 -99999 -99999 -99999 -99999 1.08149 1.06318 1.27548 0.507979 1.02687 1.08933 0.680519 0.519774 0.0596543 0.234696 0.739962 0.0352 0.288827 0.0077476 0.0362904 0.10989 1.26494 1.27003 0.584414 0.538033 0.274851 0.048 0.0124822 0.264307 0.314658 0 0.136592 1.59359 0.793392 0.0533118 0.32095 0 0 0.0659657 0.120317 0.069088 0.395299 0.0509943 0.371235 1.41307 1.61364 0.928206 1.2264 1.22717 1.23652 0.759807 0.888831 0.787046 1.40617 1.16097 1.23939 0.891298 0.249391 0.22882 1.1048 1.36413 0.972736 1.08799 0.364031 0.35358 0.366564 0.551807 1.46393 1.49971 1.15633 1.09723 0.64195 1.48895 1.42859 0.90201 0.938655 1.16892 1.56166 1.00638 -99999 -99999 -99999 -99999 -99999 -99999 -99999 -99999 -99999 -99999 -99999 -99999 -99999 -99999 -99999 -99999 -99999 -99999 -99999 -99999 -99999 -99999 -99999 -99999 -99999 -99999 -99999 -99999 -99999 -99999 -99999 -99999 -99999 -99999 -99999
-99999 -99999 -99999 -99999 -99999 -99999 -99999 -99999 -99999 -99999 -99999 -99999 -99999 -99999 -99999 -99999 -99999 -99999 -99999 -99999 -99999 -99999 -99999 -99999 -99999 -99999 -99999 -99999 -99999 -99999 -99999 -99999 -99999 -99999 -99999 -99999 -99999 -99999 -99999 -99999 -99999 -99999 -99999 -99999 -99999 -99999 -99999 0.777337 1.56324 0.943456 1.48133 1.06733 0.462333 0.110982 0.19559 0.207339 0.936339 1.28049 0.184247 0.0754263 0.0969544 0.506057 0.701718 1.29326 1.69132 1.56531 1.767 1.51775 0.878607 0.699303 1.26826 1.69041 1.49736 1.56933 1.4715 1.48271 0.998456 1.21884 0.016 0 0.0025347 0.060056 0.125742 0.80724 0.134864 1.06603 1.15806 1.49079 1.43815 1.05076 1.11726 0.650615 0.280922 0.93812 1.37212 1.02114 0.936869 0.916581 1.05514 0.977435 0.963009 1.36817 1.3431 1.16091 1.44914 1.50976 1.20821 1.23461 0.917436 0.961205 1.05756 0.273233 0.276482 1.07787 1.52391 1.4535 1.72786 1.53073 1.42679 1.59391 -99999 -99999 -99999 -99999 -99999 -99999 -99999 -99999 -99999 -99999 -99999 -99999 -99999 -99999 -99999 -99999 -99999 -99999 -99999 -99999 -99999 -99999 -99999 -99999 -99999 -99999 -99999 -99999 -99999 -99999 -99999 -99999 -99999 -99999 -99999 -99999
-99999 -99999 -99999 -99999 -99999 -99999 -99999 -99999 -99999 -99999 -99999 -99999 -99999 -99999 -99999 -99999 -99999 -99999 -99999 -99999 -99999 -99999 -99999 -99999 -99999 -99999 -99999 -99999 -99999 -99999 -99999 -99999 -99999 -99999 -99999 -99999 -99999 -99999 -99999 -99999 -99999 -99999 -99999 -99999 -99999 -99999 -99999 1.22435 0.739623 0.865323 1.60721 1.38396 0.826402 1.13893 0.748733 1.07213 1.25162 0.650343 0.882078 0.654553 0.33208 0.696952 0.821202 1.07228 1.13186 1.07812 1.35828 1.26274 1.03525 1.22043 1.34718 1.24826 1.49612 1.66674 1.26659 1.43504 1.43466 0.455591 0 0 0.146898 0.237199 0.784026 1.1515 0.430469 0.835028 1.41866 1.73718 1.39474 0.707185 1.52819 1.23839 0.850374 1.70176 1.01973 1.16805 0.866508 0.896946 1.04783 1.49796 1.53384 1.34284 1.44801 0.630171 1.37118 1.64314 1.42662 1.42471 1.04007 1.38573 1.10705 0.471828 0.928003 1.50187 1.48303 1.66989 1.41297 1.68418 1.78085 1.20384 1.92694 2 -99999 -99999 -99999 -99999 -99999 -99999 -99999 -99999 -99999 -99999 -99999 -99999 -99999 -99999 -99999 -99999 -99999 -99999 -99999 -99999 -99999 -99999 -99999 -99999 -99999 -99999 -99999 -99999 -99999 -99999 -99999 -99999 -99999 -99999
-99999 -99999 -99999 -99999 -99999 -99999 -99999 -99999 -99999 -99999 -99999 -99999 -99999 -99999 -99999 -99999 -99999 -99999 -99999 -99999 -99999 -99999 -99999 -99999 -99999 -99999 -99999 -99999 -99999 -99999 -99999 -99999 -99999 -99999 -99999 -99999 -99999 -99999 -99999 -99999 -99999 -99999 -99999 -99999 1.78502 1.54301 0.96388 1.66922 1.67791 1.23975 1.21051 1.13441 1.53306 1.24301 1.1686 1.52697 1.60304 1.50301 1.41984 1.36216 0.996807 1.3459 1.29377 1.71885 1.65328 1.57696 1.47753 1.48405 1.36429 1.47142 1.27466 1.45548 1.85019 1.78277 1.18434 1.58959 1.56357 0.885938 0.00880534 0 0.290982 1.217 1.41383 0.827342 0.0645143 1.56624 1.51057 1.72873 1.6656 1.54472 1.44738 1.50664 1.47018 1.45834 1.18833 0.80692 0.979108 1.28883 1.29732 1.71233 1.35086 1.24682 1.6419 1.59711 1.68571 1.65087 1.37692 1.54102 1.38789 1.64413 0.975711 1.04661 1.52645 1.22349 1.65636 1.44391 1.12873 1.24887 1.49366 1.62582 1.53418 1.45962 -99999 -99999 -99999 -99999 -99999 -99999 -99999 -99999 -99999 -99999 -99999 -99999 -99999 -99999 -99999 -99999 -99999 -99999 -99999 -99999 -99999 -99999 -99999 -99999 -99999 -99999 -99999 -99999 -99999 -99999 -99999 -99999 -99999 -99999
-99999 -99999 -99999 -99999 -99999 -99999 -99999 -99999 -99999 -99999 -99999 -99999 -99999 -99999 -99999 -99999 -99999 -99999 -99999 -99999 -99999 -99999 -99999 -99999 -99999 -99999 -99999 -99999 -99999 -99999 -99999 -99999 -99999 -99999 -99999 -99999 -99999 -99999 -99999 -99999 -99999 -99999 -99999 -99999 1.81839 1.63046 1.55593 1.57712 1.67859 1.16121 1.50461 1.02936 1.07204 1.24457 1.71956 1.3898 1.13974 1.53236 1.54923 1.53075 1.23061 1.27316 1.17078 1.6849 1.19248 1.65777 1.55935 1.36942 1.16076 0.832176 1.57051 1.35546 1.26392 1.58409 1.37738 1.65901 1.52977 1.37963 0.000474661 0 0.0886082 1.26428 1.42892 0.714727 0.948674 1.51458 1.68062 1.29372 1.60981 1.53925 1.37426 1.09262 0.767004 0.818386 0.803881 0.272918 0.778127 1.24583 0.822681 1.24067 1.33534 1.17022 1.47924 1.49961 1.39616 1.60152 1.3122 1.6194 1.19757 0.71192 1.08644 1.08448 0.839189 1.39903 1.70759 1.41112 1.24394 1.37151 1.63513 1.5129 1.06624 1.25284 -99999 -99999 -99999 -99999 -99999 -99999 -99999 -99999 -99999 -99999 -99999 -99999 -99999 -99999 -99999 -99999 -99999 -99999 -99999 -99999 -99999 -99999 -99999 -99999 -99999 -99999 -99999 -99999 -99999 -99999 -99999 -99999 -99999 -99999
-99999 -99999 -99999 -99999 -99999 -99999 -99999 -99999 -99999 -99999 -99999 -99999 -99999 -99999 -99999 -99999 -99999 -99999 -99999 -99999 -99999 -99999 -99999 -99999 -99999 -99999 -99999 -99999 -99999 -99999 -99999 -99999 -99999 -99999 -99999 -99999 -99999 -99999 -99999 -99999 -99999 -99999 0.82689 1.43314 1.70431 1.58477 1.50521 1.52477 1.18249 1.55954 1.52786 1.08015 0.597598 1.53791 1.13145 1.57683 1.44983 1.3234 1.30762 0.968314 1.32725 1.29468 1.46885 1.42578 1.23239 1.35349 1.49826 1.54071 1.45371 1.24759 1.26325 1.11281 1.32765 1.70289 1.19954 1.37727 1.33216 1.0964 0.942067 0.388464 0.983999 0.944917 0.905953 0.811476 0.711575 1.40536 1.4214 0.771276 1.5416 1.4205 1.4105 0.837071 0.611835 0.910945 1.0534 1.10269 1.20084 1.00921 1.26906 1.68444 1.66 1.39826 1.53958 1.38177 1.3475 0.977504 1.53309 1.47249 1.44165 1.45116 1.45068 1.21106 1.23759 1.83932 1.7378 1.7441 1.62367 1.51319 1.72685 1.35236 1.10556 0.874634 -99999 -99999 -99999 -99999 -99999 -99999 -99999 -99999 -99999 -99999 -99999 -99999 -99999 -99999 -99999 -99999 -99999 -99999 -99999 -99999 -99999 -99999 -99999 -99999 -99999 -99999 -99999 -99999 -99999 -99999 -99999 -99999 -99999 -99999
-99999 -99999 -99999 -99999 -99999 -99999 -99999 -99999 -99999 -99999 -99999 -99999 -99999 -99999 -99999 -99999 -99999 -99999 -99999 -99999 -99999 -99999 -99999 -99999 -99999 -99999 -99999 -99999 -99999 -99999 -99999 -99999 -99999 -99999 -99999 -99999 -99999 -99999 -99999 -99999 -99999 -99999 1.21064 1.31684 1.33707 1.72247 0.790006 1.29847 1.22995 1.39613 1.35453 0.69028 1.17607 1.53451 1.03194 1.43973 1.42896 1.1923 1.37895 1.54501 0.96746 0.418314 0.160491 0.988187 1.21142 1.55466 1.44491 1.78711 1.62897 1.44148 1.42151 1.77637 1.24681 1.60937 1.64905 1.54938 1.32247 1.53033 1.15479 0.912757 1.11644 1.1089 0.0342111 0.0668731 0 0.056929 0.648051 1.4148 1.70272 1.72065 1.54847 1.107 0.997254 0.155655 0.42372 0.646668 1.38252 1.77135 1.74442 1.55796 1.04856 1.01282 1.4912 1.44053 1.42016 1.08684 1.5658 1.1483 1.26795 0.79212 1.31124 1.55219 1.48212 1.84751 1.63537 1.80816 1.31741 1.63929 1.63728 1.63963 1.32703 0.848863 -99999 -99999 -99999 -99999 -99999 -99999 -99999 -99999 -99999 -99999 -99999 -99999 -99999 -99999 -99999 -99999 -99999 -99999 -99999 -99999 -99999 -99999 -99999 -99999 -99999 -99999 -99999 -99999 -99999 -99999 -99999 -99999 -99999 -99999
-99999 -99999 -99999 -99999 -99999 -99999 -99999 -99999 -99999 -99999 -99999 -99999 -99999 -99999 -99999 -99999 -99999 -99999 -99999 -99999 -99999 -99999 -99999 -99999 -99999 -99999 -99999 -99999 -99999 -99999 -99999 -99999 -99999 -99999 -99999 -99999 -99999 -99999 -99999 -99999 -99999 -99999 -99999 1.66275 1.68687 1.17849 1.5014 1.20683 0.710582 1.46072 1.21833 1.23948 1.48777 1.12033 0.851553 1.4997 1.40997 1.17405 1.48684 1.41975 1.04783 0.704712 0.487992 1.34356 1.44773 1.58965 1.7416 1.78636 1.66644 1.41412 1.50289 1.66948 1.31076 1.11444 1.29502 1.7923 1.23552 1.21205 0.667391 1.18671 1.62496 1.79751 0.836415 1.08884 0.201523 0.680755 1.53885 1.12365 1.22924 1.25724 0.877535 1.40871 1.538 0.00163058 0 0.698771 1.13671 0.959507 1.5173 1.84117 1.29694 1.24777 1.47951 1.26657 1.59833 1.58281 1.64922 1.40878 1.00365 0.669052 1.41779 1.07019 0.858656 1.71964 1.84094 1.37763 1.4342 1.48847 1.09104 1.5816 1.39983 0.712071 -99999 -99999 -99999 -99999 -99999 -99999 -99999 -99999 -99999 -99999 -99999 -99999 -99999 -99999 -99999 -99999 -99999 -99999 -99999 -99999 -99999 -99999 -99999 -99999 -99999 -99999 -99999 -99999 -99999 -99999 -99999 -99999 -99999 -99999
-99999 -99999 -99999 -99999 -99999 -99999 -99999 -99999 -99999 -99999 -99999 -99999 -99999 -99999 -99999 -99999 -99999 -99999 -99999 -99999 -99999 -99999 -99999 -99999 -99999 -99999 -99999 -99999 -99999 -99999 -99999 -99999 -99999 -99999 -99999 -99999 -99999 -99999 -99999 -99999 -99999 -99999 -99999 1.96369 1.90981 1.78913 1.0248 0.921248 0.687685 1.04362 0.924595 1.18557 1.85473 1.04013 0.89249 1.19821 1.60299 1.51444 1.10605 1.43554 1.62256 1.61958 0.799142 1.18677 0.85811 1.57913 1.5993 1.74637 1.22715 1.68 1.31256 0.810295 1.30603 0.903693 1.26272 1.44565 1.48482 1.55469 1.32517 1.10643 1.31107 1.53913 1.40638 0.833834 0.659792 1.44583 1.69432 0.928563 1.50081 1.40857 1.56939 1.4151 0.773653 0 0 0.299729 1.02136 1.23573 1.57702 1.42073 1.14101 1.16125 0.640128 0.428738 1.35345 1.10394 1.45663 1.1577 1.22098 1.39295 1.39777 1.12487 1.4846 1.23332 1.28187 1.58461 1.17913 1.68099 1.59837 1.22185 1.62758 1.44405 -99999 -99999 -99999 -99999 -99999 -99999 -99999 -99999 -99999 -99999 -99999 -99999 -99999 -99999 -99999 -99999 -99999 -99999 -99999 -99999 -99999 -99999 -99999 -99999 -99999 -99999 -99999 -99999 -99999 -99999 -99999 -99999 -99999 -99999
-99999 -99999 -99999 -99999 -99999 -99999 -99999 -99999 -99999 -99999 -99999 -99999 -99999 -99999 -99999 -99999 -99999 -99999 -99999 -99999 -99999 -99999 -99999 -99999 -99999 -99999 -99999 -99999 -99999 -99999 -99999 -99999 -99999 -99999 -99999 -99999 -99999 -99999 -99999 -99999 -99999 -99999 -99999 -99999 1.62874 1.75614 1.56295 1.41088 1.01438 1.02539 1.30137 1.09452 1.69436 0.983558 1.05561 1.24652 1.68189 1.23612 1.14827 1.52555 1.81961 1.50894 1.19224 1.11851 1.2481 1.23398 1.28758 1.20835 1.80129 1.48802 1.55526 1.47037 1.47083 0.829362 1.39141 0.972503 0.91344 1.19171 1.07383 1.58749 0.348003 0.484851 1.47348 0.462515 0.231498 0.842454 1.69281 1.45248 1.16824 1.33492 1.25469 1.05449 0.405645 0 1.11841 0.900822 1.00896 0.882422 1.33443 1.2317 1.14463 0.232306 0.546341 1.03144 1.1879 1.61322 1.41808 0.944426 1.44227 1.60791 1.54159 1.252 1.69724 1.7064 1.00558 1.70394 1.86382 1.52937 1.79259 1.78538 1.3784 1.18424 -99999 -99999 -99999 -99999 -99999 -99999 -99999 -99999 -99999 -99999 -99999 -99999 -99999 -99999 -99999 -99999 -99999 -99999 -99999 -99999 -99999 -99999 -99999 -99999 -99999 -99999 -99999 -99999 -99999 -99999 -99999 -99999 -99999 -99999
-99999 -99999 -99999 -99999 -99999 -99999 -99999 -99999 -99999 -99999 -99999 -99999 -99999 -99999 -99999 -99999 -99999 -99999 -99999 -99999 -99999 -99999 -99999 -99999 -99999 -99999 -99999 -99999 -99999 -99999 -99999 -99999 -99999 -99999 -99999 -99999 -99999 -99999 -99999 -99999 -99999 -99999 -99999 -99999 1.30965 1.73084 1.64426 1.72664 1.53091 1.74171 1.4664 1.24233 0.981611 1.12226 1.23193 1.59395 1.46459 1.67264 1.53381 1.61416 1.4116 0.941509 1.49337 1.60909 1.4072 1.33149 1.35791 1.59339 0.917965 1.70195 1.78275 1.82055 1.39368 1.14518 1.14987 0.626362 1.09144 1.20801 0.606231 1.10523 0.0318834 0.921715 1.18064 0.59549 0.43697 0.688481 1.39228 1.28443 0.98574 0.93277 0.920861 0.905587 0.0269452 0.314117 1.48476 1.3382 1.12629 0.863486 0.471071 1.18835 0.689258 0.461182 0.0858824 1.02325 1.05229 0.184959 0.562039 0.343755 0.958846 1.48886 1.73312 0.598879 1.38807 1.63867 1.15926 1.26453 1.55689 1.64361 1.51072 1.5026 1.49717 1.13651 -99999 -99999 -99999 -99999 -99999 -99999 -99999 -99999 -99999 -99999 -99999 -99999 -99999 -99999 -99999 -99999 -99999 -99999 -99999 -99999 -99999 -99999 -99999 -99999 -99999 -99999 -99999 -99999 -99999 -99999 -99999 -99999 -99999 -99999
-99999 -99999 -99999 -99999 -99999 -99999 -99999 -99999 -99999 -99999 -99999 -99999 -99999 -99999 -99999 -99999 -99999 -99999 -99999 -99999 -99999 -99999 -99999 -99999 -99999 -99999 -99999 -99999 -99999 -99999 -99999 -99999 -99999 -99999 -99999 -99999 -99999 -99999 -99999 -99999 -99999 -99999 -99999 -99999 -99999 1.97632 1.64323 1.6629 1.68353 1.62063 1.69679 1.53114 1.46832 1.14545 1.24508 1.4016 1.42283 1.57884 1.25061 1.10979 1.59621 1.49685 1.00689 1.62134 0.729088 1.18064 1.4208 1.78359 1.34712 1.21152 1.10695 1.60726 1.16514 0.659626 1.25222 0.75331 0.524292 0.633142 1.42372 1.027 0.950491 1.05669 1.05408 0.645056 0.502521 1.14718 1.45034 1.38913 0.769081 0.24134 1.03643 0.39905 0.240226 0.304413 1.24501 1.01012 0.613915 1.35901 0.634739 0.751754 0.910487 0.530353 0.0029007 0.556321 1.37602 0.359926 0.637603 0.0309096 0.67424 1.54135 1.51155 1.59739 1.31369 1.11053 1.60785 1.40887 1.51814 1.40355 1.26526 1.43204 1.08768 -99999 -99999 -99999 -99999 -99999 -99999 -99999 -99999 -99999 -99999 -99999 -99999 -99999 -99999 -99999 -99999 -99999 -99999 -99999 -99999 -99999 -99999 -99999 -99999 -99999 -99999 -99999 -99999 -99999 -99999 -99999 -99999 -99999 -99999 -99999
-99999 -99999 -99999 -99999 -99999 -99999 -99999 -99999 -99999 -99999 -99999 -99999 -99999 -99999 -99999 -99999 -99999 -99999 -99999 -99999 -99999 -99999 -99999 -99999 -99999 -99999 -99999 -99999 -99999 -99999 -99999 -99999 -99999 -99999 -99999 -99999 -99999 -99999 -99999 -99999 -99999 -99999 -99999 -99999 -99999 -99999 1.4872 1.43262 1.84549 1.96772 1.60465 1.47397 1.35279 0.981972 0.844286 1.54996 1.38603 1.62665 1.23998 1.64209 1.66321 1.36092 1.48712 1.49056 1.31956 1.42291 1.18452 1.18144 1.65791 1.69796 1.15173 1.22678 1.44732 1.69833 1.31223 1.20707 1.42333 1.40162 0.983553 1.72523 1.29771 1.4783 1.52579 1.43751 0.647455 0.479138 1.80149 1.6252 0.733214 0.27359 0.510072 0.121901 0.016161 0.519627 0.799889 1.29026 0.556843 0.275992 0.703314 0.691637 0.90528 0.0368236 0 0.733309 0.694242 0.856856 0.091705 0 0.930412 1.07301 1.16975 1.80313 1.82383 1.68604 1.7804 1.57036 1.61545 1.40618 1.73341 1.46529 -99999 -99999 -99999 -99999 -99999 -99999 -99999 -99999 -99999 -99999 -99999 -99999 -99999 -99999 -99999 -99999 -99999 -99999 -99999 -99999 -99999 -99999 -99999 -99999 -99999 -99999 -99999 -99999 -99999 -99999 -99999 -99999 -99999 -99999 -99999 -99999
-99999 -99999 -99999 -99999 -99999 -99999 -99999 -99999 -99999 -99999 -99999 -99999 -99999 -99999 -99999 -99999 -99999 -99999 -99999 -99999 -99999 -99999 -99999 -99999 -99999 -99999 -99999 -99999 -99999 -99999 -99999 -99999 -99999 -99999 -99999 -99999 -99999 -99999 -99999 -99999 -99999 -99999 -99999 -99999 -99999 -99999 0.615735 1.13704 1.54569 1.66499 1.77205 1.63008 1.36205 0.595425 0.605935 0.853527 0.778367 0.755473 1.78326 1.54705 1.54936 1.53105 1.55552 1.52869 1.62463 1.26934 1.23983 1.42298 1.64478 1.58353 1.81739 1.71424 1.37913 1.15778 1.26657 1.43609 1.18054 1.6426 1.75276 1.34088 1.18601 0.995457 1.26987 1.06066 0.129996 0.595681 1.83208 1.67387 0.978477 0.40157 0.04608 0.0010548 0.104735 0.682939 0.470347 0.838968 0.816771 0.606161 0.670412 0.95406 0.126868 0 0.0330904 0.421183 0.733209 0.46645 0 0 0.860197 1.62013 1.08472 1.59249 1.76505 1.68005 1.14736 0.993007 1.50832 1.50125 1.37129 0.953075 -99999 -99999 -99999 -99999 -99999 -99999 -99999 -99999 -99999 -99999 -99999 -99999 -99999 -99999 -99999 -99999 -99999 -99999 -99999 -99999 -99999 -99999 -99999 -99999 -99999 -99999 -99999 -99999 -99999 -99999 -99999 -99999 -99999 -99999 -99999 -99999
-99999 -99999 -99999 -99999 -99999 -99999 -99999 -99999 -99999 -99999 -99999 -99999 -99999 -99999 -99999 -99999 -99999 -99999 -99999 -99999 -99999 -99999 -99999 -99999 -99999 -99999 -99999 -99999 -99999 -99999 -99999 -99999 -99999 -99999 -99999 -99999 -99999 -99999 -99999 -99999 -99999 -99999 -99999 -99999 -99999 -99999 0.845601 0.98355 1.09472 1.5765 1.96437 1.15283 1.23104 1.38234 1.09126 0.990959 0.865946 0.555998 1.21454 0.908043 1.49789 1.83379 0.704913 1.28168 1.39642 1.20595 1.13169 1.58655 1.59099 0.984505 1.64295 1.66913 1.6843 0.927692 0.965591 1.4544 0.86551 1.54854 1.31814 1.4698 1.46399 1.17883 1.00564 0.550002 0.361351 0.564107 0.982454 1.64695 0.858695 0.304452 0.00784 0.0253156 0.416822 0.672399 1.23202 1.30464 1.09184 0.675076 0.533021 0.0829983 0 0.0481357 0.0021096 0.188108 1.08626 0.250555 0.479181 0.661522 0.0684958 1.09777 1.74937 1.6073 1.63615 1.55539 1.64179 1.2472 1.4528 1.28815 0.980329 -99999 -99999 -99999 -99999 -99999 -99999 -99999 -99999 -99999 -99999 -99999 -99999 -99999 -99999 -99999 -99999 -99999 -99999 -99999 -99999 -99999 -99999 -99999 -99999 -99999 -99999 -99999 -99999 -99999 -99999 -99999 -99999 -99999 -99999 -99999 -99999 -99999
-99999 -99999 -99999 -99999 -99999 -99999 -99999 -99999 -99999 -99999 -99999 -99999 -99999 -99999 -99999 -99999 -99999 -99999 -99999 -99999 -99999 -99999 -99999 -99999 -99999 -99999 -99999 -99999 -99999 -99999 -99999 -99999 -99999 -99999 -99999 -99999 -99999 -99999 -99999 -99999 -99999 -99999 -99999 -99999 -99999 -99999 0.740391 1.34741 1.53367 1.41102 1.67141 1.61798 1.56019 1.29481 0.928301 0.874814 1.20363 1.44869 1.37293 1.51391 1.67564 1.38357 1.04741 1.19027 1.14413 0.901804 0.473954 1.20265 1.58041 1.15193 1.43305 1.52327 1.60223 1.35482 1.20076 0.950753 1.23891 1.16103 1.25575 1.45687 1.22642 0.802213 0.916507 0.282083 1.50285 1.73424 1.52763 1.70351 1.57214 0.357132 0.0617473 0.144971 1.15923 0.845127 0.969537 0.664217 0.954612 1.10804 0.13044 0.656992 0.356489 0.183024 0.0096 0.514733 1.60845 1.49594 1.65876 0.724391 0.062951 0.164395 1.22624 1.55557 1.45302 1.35188 1.09132 1.47402 1.48358 1.41645 1.2144 -99999 -99999 -99999 -99999 -99999 -99999 -99999 -99999 -99999 -99999 -99999 -99999 -99999 -99999 -99999 -99999 -99999 -99999 -99999 -99999 -99999 -99999 -99999 -99999 -99999 -99999 -99999 -99999 -99999 -99999 -99999 -99999 -99999 -99999 -99999 -99999 -99999
-99999 -99999 -99999 -99999 -99999 -99999 -99999 -99999 -99999 -99999 -99999 -99999 -99999 -99999 -99999 -99999 -99999 -99999 -99999 -99999 -99999 -99999 -99999 -99999 -99999 -99999 -99999 -99999 -99999 -99999 -99999 -99999 -99999 -99999 -99999 -99999 -99999 -99999 -99999 -99999 -99999 -99999 -99999 -99999 -99999 -99999 0.988979 1.3961 1.35902 1.52741 1.54235 0.916796 1.50205 1.32754 1.15356 0.522363 1.87133 1.33646 1.12627 1.49676 1.18688 1.36913 1.3492 1.72288 1.29128 0.207537 0.585877 1.34295 1.00552 1.29819 1.61447 1.40438 0.964814 0.785485 0.509458 0.877141 1.01395 1.32333 1.39787 1.49065 1.48464 1.59712 1.05989 0.216644 0.844681 1.59407 1.5267 0.77707 1.05593 0.599157 0.152366 0.0856214 1.35035 1.31203 0.70068 0.789719 1.22937 1.30704 0.442245 0.956634 0.753446 0.477388 0.0687348 0.779661 1.41961 1.07391 1.76632 1.12368 0.906393 0.269519 0.347057 1.01985 1.09302 0.939353 0.603283 0.927578 0.41141 0.020123 0.797573 -99999 -99999 -99999 -99999 -99999 -99999 -99999 -99999 -99999 -99999 -99999 -99999 -99999 -99999 -99999 -99999 -99999 -99999 -99999 -99999 -99999 -99999 -99999 -99999 -99999 -99999 -99999 -99999 -99999 -99999 -99999 -99999 -99999 -99999 -99999 -99999 -99999
-99999 -99999 -99999 -99999 -99999 -99999 -99999 -99999 -99999 -99999 -99999 -99999 -99999 -99999 -99999 -99999 -99999 -99999 -99999 -99999 -99999 -99999 -99999 -99999 -99999 -99999 -99999 -99999 -99999 -99999 -99999 -99999 -99999 -99999 -99999 -99999 -99999 -99999 -99999 -99999 -99999 -99999 -99999 -99999 -99999 -99999 0.721476 1.15492 1.28318 1.23297 1.61064 1.34082 1.4782 1.29778 1.66492 1.37129 1.81888 1.08604 1.08589 1.61689 1.36921 1.49098 1.3301 1.64778 1.38708 0.322602 0.668619 0.934047 1.38997 1.36716 1.66648 0.862636 0.197852 0.0528094 0.119268 1.18566 0.692996 0.962659 1.51659 0.899402 1.38285 1.37434 1.39163 0.722505 1.2689 1.41123 1.03477 1.41799 1.07029 0.652784 0.645662 0.0938653 1.22778 1.33807 1.20165 1.3436 1.49546 1.50617 0.928128 1.04936 0.954631 0.808364 0.0777301 1.5759 1.44502 1.27596 1.51849 0.817431 1.81575 1.37342 1.05941 1.58031 1.27729 0.07178 0.149844 0.946302 0.0541404 0.00370875 0.977169 -99999 -99999 -99999 -99999 -99999 -99999 -99999 -99999 -99999 -99999 -99999 -99999 -99999 -99999 -99999 -99999 -99999 -99999 -99999 -99999 -99999 -99999 -99999 -99999 -99999 -99999 -99999 -99999 -99999 -99999 -99999 -99999 -99999 -99999 -99999 -99999 -99999
-99999 -99999 -99999 -99999 -99999 -99999 -99999 -99999 -99999 -99999 -99999 -99999 -99999 -99999 -99999 -99999 -99999 -99999 -99999 -99999 -99999 -99999 -99999 -99999 -99999 -99999 -99999 -99999 -99999 -99999 -99999 -99999 -99999 -99999 -99999 -99999 -99999 -99999 -99999 -99999 -99999 -99999 -99999 -99999 -99999 -99999 1.77283 1.4481 1.23762 1.50248 1.77219 1.71193 1.65097 1.54561 1.1099 1.56602 1.82215 1.22831 1.05599 1.38973 1.09886 1.29711 1.18852 1.60887 1.6895 0.948285 0.822792 0.763143 1.41249 1.65777 1.44837 0.441105 0.0314937 0.134296 0.0780455 1.44306 0.777635 1.03629 1.59883 0.287536 0.120577 0.259794 1.1198 0.655201 0.901425 1.37026 1.39252 1.57288 0.674598 0.837045 0.370959 0.0251852 0.685782 1.08127 0.526788 1.40126 1.56173 0.932079 1.21049 1.10407 0.742054 0.793382 0.735033 1.02937 1.63494 1.14431 1.2831 0.943504 1.05503 0.581689 0.845543 1.08841 1.36129 0.196894 0.39434 0.154971 0.10448 0 -99999 -99999 -99999 -99999 -99999 -99999 -99999 -99999 -99999 -99999 -99999 -99999 -99999 -99999 -99999 -99999 -99999 -99999 -99999 -99999 -99999 -99999 -99999 -99999 -99999 -99999 -99999 -99999 -99999 -99999 -99999 -99999 -99999 -99999 -99999 -99999 -99999 -99999
-99999 -99999 -99999 -99999 -99999 -99999 -99999 -99999 -99999 -99999 -99999 -99999 -99999 -99999 -99999 -99999 -99999 -99999 -99999 -99999 -99999 -99999 -99999 -99999 -99999 -99999 -99999 -99999 -99999 -99999 -99999 -99999 -99999 -99999 -99999 -99999 -99999 -99999 -99999 -99999 -99999 -99999 -99999 -99999 -99999 -99999 1.17946 1.23828 1.20694 1.11329 1.37842 1.50573 1.20617 0.814627 1.32761 1.08789 1.78086 1.29066 1.13935 1.3831 1.68919 1.58988 0.552425 1.25602 1.65894 1.65915 1.15337 1.14157 1.40728 1.38203 1.19759 1.01063 0.568868 0.01568 0.0016089 0.71973 0.610293 1.05189 1.2418 0.111016 0.0224 0.247306 0.539484 0.429443 1.14915 1.40403 1.09904 1.14283 1.37391 1.30231 0.647525 0.042737 0.997666 0.98252 1.30589 1.52023 1.45502 1.26825 1.56544 1.2191 1.29529 1.25824 1.18635 0.784797 1.0124 1.13552 1.29839 0.572912 0.676856 0.716158 0.860115 0.591149 1.26863 0.663471 0.383762 0.600497 0.137986 0 -99999 -99999 -99999 -99999 -99999 -99999 -99999 -99999 -99999 -99999 -99999 -99999 -99999 -99999 -99999 -99999 -99999 -99999 -99999 -99999 -99999 -99999 -99999 -99999 -99999 -99999 -99999 -99999 -99999 -99999 -99999 -99999 -99999 -99999 -99999 -99999 -99999 -99999
-99999 -99999 -99999 -99999 -99999 -99999 -99999 -99999 -99999 -99999 -99999 -99999 -99999 -99999 -99999 -99999 -99999 -99999 -99999 -99999 -99999 -99999 -99999 -99999 -99999 -99999 -99999 -99999 -99999 -99999 -99999 -99999 -99999 -99999 -99999 -99999 -99999 -99999 -99999 -99999 -99999 -99999 -99999 -99999 -99999 -99999 0.87671 1.40911 1.44783 1.10759 1.09535 1.55246 1.2747 0.564878 0.222228 0.85711 1.35251 1.11898 1.65298 1.56034 1.69219 1.47729 1.62032 1.65066 1.44599 1.61468 1.82025 1.07163 1.48321 1.28401 0.91192 0.942615 0.579874 0.029631 0.000791101 0.0545572 0.818333 1.17298 0.866346 0.0424651 0.0394661 0.0335399 0.454276 0.302439 0.548521 1.07402 0.829143 0.908618 1.41064 1.42756 0.541458 0.278226 1.26496 0.860304 0.978786 1.66716 1.80399 1.41237 1.64791 0.496827 0.572472 0.729932 1.09946 1.19621 0.503016 0.835441 0.728947 0.112847 0.549568 0.58441 1.20691 1.09829 1.21303 1.35028 1.09489 0.917242 0.329816 0.00220278 0 -99999 -99999 -99999 -99999 -99999 -99999 -99999 -99999 -99999 -99999 -99999 -99999 -99999 -99999 -99999 -99999 -99999 -99999 -99999 -99999 -99999 -99999 -99999 -99999 -99999 -99999 -99999 -99999 -99999 -99999 -99999 -99999 -99999 -99999 -99999 -99999 -99999
-99999 -99999 -99999 -99999 -99999 -99999 -99999 -99999 -99999 -99999 -99999 -99999 -99999 -99999 -99999 -99999 -99999 -99999 -99999 -99999 -99999 -99999 -99999 -99999 -99999 -99999 -99999 -99999 -99999 -99999 -99999 -99999 -99999 -99999 -99999 -99999 -99999 -99999 -99999 -99999 -99999 -99999 -99999 -99999 -99999 -99999 1.42807 1.57799 0.689553 1.41326 1.58583 1.59433 1.68386 1.08651 0.166822 0.113032 0.0139101 0.93409 1.22689 0.86948 0.958405 1.45541 1.36405 1.55205 0.964067 1.32543 1.51872 1.32664 1.44129 1.10711 1.18502 0.700005 0.853725 0.684584 0.179345 0.206835 0.549188 0.630385 0.708165 0.24507 0.306139 0.0865254 0.227573 0.316206 1.39951 1.30828 0.605942 1.05787 1.61816 1.00736 0.457059 0.806243 0.837013 1.02298 0.958857 1.63975 1.33665 1.2168 0.901571 1.14852 1.53964 0.507722 0.82924 0.905151 0.0560265 0.558206 0.18862 0 0.429499 0.138615 0.740661 0.502161 0.940924 1.03891 1.35635 1.45116 1.1501 0.624934 0.0601298 -99999 -99999 -99999 -99999 -99999 -99999 -99999 -99999 -99999 -99999 -99999 -99999 -99999 -99999 -99999 -99999 -99999 -99999 -99999 -99999 -99999 -99999 -99999 -99999 -99999 -99999 -99999 -99999 -99999 -99999 -99999 -99999 -99999 -99999 -99999 -99999 -99999
-99999 -99999 -99999 -99999 -99999 -99999 -99999 -99999 -99999 -99999 -99999 -99999 -99999 -99999 -99999 -99999 -99999 -99999 -99999 -99999 -99999 -99999 -99999 -99999 -99999 -99999 -99999 -99999 -99999 -99999 -99999 -99999 -99999 -99999 -99999 -99999 -99999 -99999 -99999 -99999 -99999 -99999 -99999 -99999 -99999 -99999 1.69073 1.43508 1.42869 1.4274 1.7673 1.44759 1.39902 0.741391 0.863782 0.774161 0.84592 0.538144 0.774144 0.492517 1.37858 1.56861 1.01668 0.771644 0.0245129 0.411478 1.39865 1.34289 1.41314 1.31358 1.33 0.470045 0.87225 0.562901 0.056984 0.0309204 0.0978398 0.137858 0.666533 0.680595 0.547039 0.461577 0.693536 0.678283 0.884708 0.438129 1.17321 0.980766 1.33236 0.652721 0.710603 0.63751 1.12419 1.24529 1.13505 1.24009 1.18112 1.41591 1.27447 1.73657 0.858695 1.36534 1.14726 1.05983 0.914368 0.909681 0.796057 0.114819 0.237388 0.440576 0.263269 0.458686 0.190121 0.102034 0.259657 0.892886 0.416632 1.04223 0.892419 -99999 -99999 -99999 -99999 -99999 -99999 -99999 -99999 -99999 -99999 -99999 -99999 -99999 -99999 -99999 -99999 -99999 -99999 -99999 -99999 -99999 -99999 -99999 -99999 -99999 -99999 -99999 -99999 -99999 -99999 -99999 -99999 -99999 -99999 -99999 -99999 -99999
-99999 -99999 -99999 -99999 -99999 -99999 -99999 -99999 -99999 -99999 -99999 -99999 -99999 -99999 -99999 -99999 -99999 -99999 -99999 -99999 -99999 -99999 -99999 -99999 -99999 -99999 -99999 -99999 -99999 -99999 -99999 -99999 -99999 -99999 -99999 -99999 -99999 -99999 -99999 -99999 -99999 -99999 -99999 -99999 -99999 -99999 1.45908 1.4054 1.4376 1.0001 0.413374 0.597704 1.33181 1.3875 1.08974 1.43766 1.52801 1.54425 1.28876 1.3192 1.40409 1.55085 1.24486 0.944211 1.05442 0.540016 0.60151 1.38693 0.928879 0.910726 1.46536 0.251614 0.556177 0.167412 0.0354877 0.0404904 0.039008 0.0209313 0.242208 0.770606 0.78063 0.781089 0.796678 0.571347 1.30159 1.64961 1.7182 1.47937 1.64842 0.451757 0.793603 0.861521 0.746943 1.18515 1.31998 1.29671 1.01643 1.30828 0.893901 1.0694 1.15835 1.37104 1.22944 1.36373 1.17283 1.02217 1.30806 0.931786 0.470514 1.02878 0.757329 0.239184 0.0042904 0 0 0.1236 0.265544 1.39167 1.64265 1.73565 -99999 -99999 -99999 -99999 -99999 -99999 -99999 -99999 -99999 -99999 -99999 -99999 -99999 -99999 -99999 -99999 -99999 -99999 -99999 -99999 -99999 -99999 -99999 -99999 -99999 -99999 -99999 -99999 -99999 -99999 -99999 -99999 -99999 -99999 -99999 -99999
-99999 -99999 -99999 -99999 -99999 -99999 -99999 -99999 -99999 -99999 -99999 -99999 -99999 -99999 -99999 -99999 -99999 -99999 -99999 -99999 -99999 -99999 -99999 -99999 -99999 -99999 -99999 -99999 -99999 -99999 -99999 -99999 -99999 -99999 -99999 -99999 -99999 -99999 -99999 -99999 -99999 -99999 -99999 -99999 -99999 -99999 1.2117 1.23651 0.653677 0.691651 0.113411 0.50968 1.13258 1.07475 1.50753 1.24735 1.72643 1.88749 1.34019 0.941125 0.73138 1.34857 0.460752 0.92071 0.751892 0.645496 0.530648 0.123016 0.787176 1.02076 1.45604 0.841055 0.0206082 0 0 0.0204386 0.0923752 0.495512 0.775841 0.698563 0.563327 1.0082 0.925123 0.927189 1.11675 1.28413 1.08742 1.42115 1.50831 1.37788 0.710761 0.88577 0.400363 1.25303 1.17798 1.35722 0.579495 0.900089 0.702004 0.66864 0.746874 1.02155 1.38802 1.05104 0.795033 0.725461 0.875575 0.914011 0.785857 0.517808 0.0407953 0.0402517 0.121011 0.243978 0 0.667684 0.0210758 -99999 -99999 -99999 -99999 -99999 -99999 -99999 -99999 -99999 -99999 -99999 -99999 -99999 -99999 -99999 -99999 -99999 -99999 -99999 -99999 -99999 -99999 -99999 -99999 -99999 -99999 -99999 -99999 -99999 -99999 -99999 -99999 -99999 -99999 -99999 -99999 -99999 -99999 -99999
-99999 -99999 -99999 -99999 -99999 -99999 -99999 -99999 -99999 -99999 -99999 -99999 -99999 -99999 -99999 -99999 -99999 -99999 -99999 -99999 -99999 -99999 -99999 -99999 -99999 -99999 -99999 -99999 -99999 -99999 -99999 -99999 -99999 -99999 -99999 -99999 -99999 -99999 -99999 -99999 -99999 -99999 -99999 -99999 -99999 -99999 -99999 0.969854 1.0011 1.38382 0.788414 0.807893 1.29442 1.56433 1.71234 1.40023 1.44619 1.78999 0.329496 0.686187 1.41034 1.3852 0.469567 0.743716 0.685227 0.370281 0.545784 0.273235 0.742966 0.983989 0.82211 0.702959 0.118283 0.0064 0.016 0 0.0472638 0.398452 0.750927 0.722075 1.06579 0.920755 0.924503 1.29522 0.648449 0.938437 1.19723 1.57202 0.822845 0.986469 1.5337 0.756001 0.965046 1.13936 1.12477 0.989507 0.686626 0.402694 0.379014 0.593614 0.835167 0.615617 0.900761 1.09436 1.3393 1.50116 1.45139 1.41382 1.15053 0.00541907 0 0 0.22624 0.0144438 0.140133 -99999 -99999 -99999 -99999 -99999 -99999 -99999 -99999 -99999 -99999 -99999 -99999 -99999 -99999 -99999 -99999 -99999 -99999 -99999 -99999 -99999 -99999 -99999 -99999 -99999 -99999 -99999 -99999 -99999 -99999 -99999 -99999 -99999 -99999 -99999 -99999 -99999 -99999 -99999 -99999 -99999
-99999 -99999 -99999 -99999 -99999 -99999 -99999 -99999 -99999 -99999 -99999 -99999 -99999 -99999 -99999 -99999 -99999 -99999 -99999 -99999 -99999 -99999 -99999 -99999 -99999 -99999 -99999 -99999 -99999 -99999 -99999 -99999 -99999 -99999 -99999 -99999 -99999 -99999 -99999 -99999 -99999 -99999 -99999 -99999 -99999 -99999 0 0.511769 0.994418 1.2868 0.93734 0.541451 0.866301 0.880618 0.968948 0.975997 1.04186 1.49246 0.441883 0.648461 0.909677 0.823087 0.18597 0.281865 0.0593035 0.405777 0.880251 0.939885 0.812512 1.03557 0.760546 0.87719 0.15971 0 0.0224 0 0.0975115 0.48253 0.769193 0.325236 1.11806 1.05435 0.719551 1.15962 1.0757 1.34486 1.63087 1.43402 0.561136 0.209861 0.833766 1.33502 1.49217 1.32377 1.39374 0.999941 1.32766 0.477617 0.603599 0.540857 1.75555 0.871274 0.967956 1.32073 1.04139 1.24514 1.40401 1.39595 1.34552 0.0545658 0 0 0 0.107395 0.243867 -99999 -99999 -99999 -99999 -99999 -99999 -99999 -99999 -99999 -99999 -99999 -99999 -99999 -99999 -99999 -99999 -99999 -99999 -99999 -99999 -99999 -99999 -99999 -99999 -99999 -99999 -99999 -99999 -99999 -99999 -99999 -99999 -99999 -99999 -99999 -99999 -99999 -99999 -99999 -99999 -99999
-99999 -99999 -99999 -99999 -99999 -99999 -99999 -99999 -99999 -99999 -99999 -99999 -99999 -99999 -99999 -99999 -99999 -99999 -99999 -99999 -99999 -99999 -99999 -99999 -99999 -99999 -99999 -99999 -99999 -99999 -99999 -99999 -99999 -99999 -99999 -99999 -99999 -99999 -99999 -99999 -99999 -99999 -99999 -99999 -99999 1.20938 0.884648 0.817591 1.54931 1.34754 0.850422 0.742355 1.24462 1.31297 0.790863 0.696228 0.913098 0.847247 1.07724 0.649841 1.15189 0.737391 0.701929 0.0486832 0.304597 0.245559 0.841398 1.14265 1.43452 0.474846 0.889389 1.03401 0.565179 0.355233 0.101636 0 0.121263 0.588972 1.24254 0.904252 1.22126 0.762328 1.38243 0.807374 0.757495 0.982023 1.43442 1.25639 1.65942 1.24681 1.15722 1.31214 0.888156 0.307294 0.938064 1.36813 1.29234 1.04221 0.416251 1.07131 1.70933 1.53132 1.21214 0.469663 0.689577 0.985013 1.17991 1.38719 1.46895 1.05025 0.0528873 0 0 0 0 -99999 -99999 -99999 -99999 -99999 -99999 -99999 -99999 -99999 -99999 -99999 -99999 -99999 -99999 -99999 -99999 -99999 -99999 -99999 -99999 -99999 -99999 -99999 -99999 -99999 -99999 -99999 -99999 -99999 -99999 -99999 -99999 -99999 -99999 -99999 -99999 -99999 -99999 -99999 -99999 -99999
-99999 -99999 -99999 -99999 -99999 -99999 -99999 -99999 -99999 -99999 -99999 -99999 -99999 -99999 -99999 -99999 -99999 -99999 -99999 -99999 -99999 -99999 -99999 -99999 -99999 -99999 -99999 -99999 -99999 -99999 -99999 -99999 -99999 -99999 -99999 -99999 -99999 -99999 -99999 -99999 -99999 -99999 -99999 -99999 -99999 0.777549 0.696233 0.920231 1.47628 1.33908 1.34104 0.927793 1.34 1.48125 1.02363 0.850509 1.29436 1.26426 1.13063 1.01572 0.918332 0.755189 0.701834 0.547033 0.483708 0.996459 0.903835 1.13558 0.825286 0.246109 0.928653 1.00157 1.11471 1.05671 0.160036 0.0289015 0.731768 0.536653 0.92531 1.38508 1.20882 1.24637 0.764412 0.722102 0.56793 1.5628 1.2355 1.28693 1.46274 1.57862 0.920142 1.06275 0.813175 0.92085 0.723732 1.21917 1.12035 0.685785 0.687957 1.07434 0.881042 1.27262 0.36612 0.0321274 0.494971 1.12523 0.926895 1.24168 1.43719 0.591601 0.04672 0.09584 0.0773065 0.0190003 -99999 -99999 -99999 -99999 -99999 -99999 -99999 -99999 -99999 -99999 -99999 -99999 -99999 -99999 -99999 -99999 -99999 -99999 -99999 -99999 -99999 -99999 -99999 -99999 -99999 -99999 -99999 -99999 -99999 -99999 -99999 -99999 -99999 -99999 -99999 -99999 -99999 -99999 -99999 -99999 -99999 -99999
-99999 -99999 -99999 -99999 -99999 -99999 -99999 -99999 -99999 -99999 -99999 -99999 -99999 -99999 -99999 -99999 -99999 -99999 -99999 -99999 -99999 -99999 -99999 -99999 -99999 -99999 -99999 -99999 -99999 -99999 -99999 -99999 -99999 -99999 -99999 -99999 -99999 -99999 -99999 -99999 -99999 -99999 -99999 -99999 -99999 0.405456 0.467676 1.35199 1.2534 0.866875 1.52141 1.27624 1.47837 1.70254 0.874278 1.04519 1.27563 1.06213 0.900112 1.18286 0.542515 0.964138 1.0289 0.950155 0.974417 1.31849 1.20995 0.466011 0.420437 0.520738 1.23807 1.28386 1.07332 1.29064 0.380476 0.419266 0.370541 0.108909 0.172924 1.20531 1.12405 1.12965 0.979901 0.881064 1.12807 1.23141 1.15524 0.938976 1.2733 1.61837 1.10386 1.56448 1.31175 1.61438 1.16459 1.17928 1.27932 1.13399 0.745488 0.895043 1.71891 1.66298 0.20979 0.111182 0.29673 0.775357 1.55274 0.677309 0.907287 0.13999 0.502303 0.693184 1.1418 1.72791 -99999 -99999 -99999 -99999 -99999 -99999 -99999 -99999 -99999 -99999 -99999 -99999 -99999 -99999 -99999 -99999 -99999 -99999 -99999 -99999 -99999 -99999 -99999 -99999 -99999 -99999 -99999 -99999 -99999 -99999 -99999 -99999 -99999 -99999 -99999 -99999 -99999 -99999 -99999 -99999 -99999 -99999
-99999 -99999 -99999 -99999 -99999 -99999 -99999 -99999 -99999 -99999 -99999 -99999 -99999 -99999 -99999 -99999 -99999 -99999 -99999 -99999 -99999 -99999 -99999 -99999 -99999 -99999 -99999 -99999 -99999 -99999 -99999 -99999 -99999 -99999 -99999 -99999 -99999 -99999 -99999 -99999 -99999 -99999 -99999 -99999 -99999 0.699574 0.605821 1.60709 1.12028 0.15481 1.18729 0.962525 0.947663 1.20018 1.21505 0.789249 1.12788 0.545652 1.26473 1.04068 0.715434 0.993276 0.729876 0.950517 0.797743 1.29572 0.830149 0.242407 0.165885 0.696061 0.782533 0.709589 1.11 1.01385 1.53395 1.21576 0.487954 0.401535 0.721039 0.504179 1.12248 0.928023 1.17351 0.746334 1.40431 1.22225 1.24736 1.23392 0.903848 1.16888 0.747599 1.49882 1.57559 1.42286 1.44741 1.3753 0.922484 0.558607 0.758411 1.00702 1.23865 1.71585 0.407771 0.276225 0.381994 0.691351 1.06886 1.7347 1.37624 0.619496 0.421094 1.1707 0.744052 0.281879 -99999 -99999 -99999 -99999 -99999 -99999 -99999 -99999 -99999 -99999 -99999 -99999 -99999 -99999 -99999 -99999 -99999 -99999 -99999 -99999 -99999 -99999 -99999 -99999 -99999 -99999 -99999 -99999 -99999 -99999 -99999 -99999 -99999 -99999 -99999 -99999 -99999 -99999 -99999 -99999 -99999 -99999
-99999 -99999 -99999 -99999 -99999 -99999 -99999 -99999 -99999 -99999 -99999 -99999 -99999 -99999 -99999 -99999 -99999 -99999 -99999 -99999 -99999 -99999 -99999 -99999 -99999 -99999 -99999 -99999 -99999 -99999 -99999 -99999 -99999 -99999 -99999 -99999 -99999 -99999 -99999 -99999 -99999 -99999 -99999 -99999 -99999 0.787519 1.06854 1.56941 1.20227 1.16379 1.07326 1.14752 1.37364 1.13392 1.28283 0.938566 0.876416 0.785663 0.360592 1.51088 0.733465 0.859194 0.6671 0.875113 1.45311 1.39091 0.878853 0.786802 0.0947183 0.226283 0.486355 0.480069 1.11179 0.793392 0.950242 1.11092 0.145419 0.58722 1.01677 0.990719 1.09878 1.45504 0.830487 0.729777 0.961512 0.981156 1.18205 1.33677 1.1447 0.267246 0.63531 1.30896 1.56951 1.62696 1.5556 1.26994 1.46941 1.09537 0.801636 1.04012 0.991063 0.890164 0.983336 0.117393 0.535701 0.434204 0.199415 0.391466 0.973812 1.23549 1.35765 1.31808 1.05937 1.03562 -99999 -99999 -99999 -99999 -99999 -99999 -99999 -99999 -99999 -99999 -99999 -99999 -99999 -99999 -99999 -99999 -99999 -99999 -99999 -99999 -99999 -99999 -99999 -99999 -99999 -99999 -99999 -99999 -99999 -99999 -99999 -99999 -99999 -99999 -99999 -99999 -99999 -99999 -99999 -99999 -99999 -99999
-99999 -99999 -99999 -99999 -99999 -99999 -99999 -99999 -99999 -99999 -99999 -99999 -99999 -99999 -99999 -99999 -99999 -99999 -99999 -99999 -99999 -99999 -99999 -99999 -99999 -99999 -99999 -99999 -99999 -99999 -99999 -99999 -99999 -99999 -99999 -99999 -99999 -99999 -99999 -99999 -99999 -99999 -99999 -99999 1.90943 1.15872 0.984458 0.817791 0.774506 1.31456 1.50484 1.55105 1.14352 1.20626 1.0504 0.732049 0.751026 1.17455 0.556252 1.2284 0.716412 0.667671 0.535089 0.750439 1.06991 1.5843 1.84109 0.971009 0.052351 0.0744327 0.265153 0.786472 0.925472 1.13838 0.656244 0.913462 1.01282 1.34815 1.28053 1.27105 0.992241 1.04629 1.12332 0.789347 1.10643 1.03491 1.48298 0.842674 1.287 1.04543 1.16099 1.03594 1.63341 1.56431 1.50253 1.46645 1.65133 1.11162 1.2527 1.20994 0.868839 0.615704 0.992721 0.263996 0.441401 0.714074 0.574087 0.280115 0.37397 0.939222 1.37463 1.28277 1.28731 0.886236 -99999 -99999 -99999 -99999 -99999 -99999 -99999 -99999 -99999 -99999 -99999 -99999 -99999 -99999 -99999 -99999 -99999 -99999 -99999 -99999 -99999 -99999 -99999 -99999 -99999 -99999 -99999 -99999 -99999 -99999 -99999 -99999 -99999 -99999 -99999 -99999 -99999 -99999 -99999 -99999 -99999 -99999
-99999 -99999 -99999 -99999 -99999 -99999 -99999 -99999 -99999 -99999 -99999 -99999 -99999 -99999 -99999 -99999 -99999 -99999 -99999 -99999 -99999 -99999 -99999 -99999 -99999 -99999 -99999 -99999 -99999 -99999 -99999 -99999 -99999 -99999 -99999 -99999 -99999 -99999 -99999 -99999 -99999 -99999 -99999 -99999 -99999 0.498094 0.419939 0.805887 0.987596 1.04871 1.28902 1.19023 1.61159 1.11701 1.20921 1.2154 0.466405 0.864216 0.455801 0.968757 0.921053 0.612242 0.51287 0.75503 0.761346 0.807338 1.25775 0.729415 0.0945833 0.408054 0.578733 0.898378 0.895568 0.832723 1.21794 0.704473 0.710418 0.962446 0.650618 0.922859 1.11617 1.14018 0.4486 0.639092 1.16487 1.00712 1.131 0.64639 0.921472 1.47951 1.36212 1.29962 0.869965 1.43799 1.02472 1.17281 1.35847 1.25739 0.722029 0.726327 1.14263 0.242533 0.787278 0.126925 0.0162986 0.444485 0.48387 0.172829 0.748503 1.11357 1.4951 -99999 -99999 -99999 -99999 -99999 -99999 -99999 -99999 -99999 -99999 -99999 -99999 -99999 -99999 -99999 -99999 -99999 -99999 -99999 -99999 -99999 -99999 -99999 -99999 -99999 -99999 -99999 -99999 -99999 -99999 -99999 -99999 -99999 -99999 -99999 -99999 -99999 -99999 -99999 -99999 -99999 -99999 -99999 -99999 -99999
-99999 -99999 -99999 -99999 -99999 -99999 -99999 -99999 -99999 -99999 -99999 -99999 -99999 -99999 -99999 -99999 -99999 1.77295 1.70767 1.76705 1.87037 1.03767 1.24173 1.54094 1.22708 1.54967 -99999 -99999 -99999 -99999 -99999 -99999 -99999 -99999 -99999 -99999 -99999 -99999 -99999 -99999 -99999 -99999 -99999 -99999 -99999 0.130473 0.615637 0.460841 1.2646 0.71143 0.784109 1.00566 1.53749 1.47251 1.32613 1.32081 0.493569 1.06257 0.952563 0.846963 0.419573 0.615747 0.287139 0.812586 1.02895 1.11259 0.870336 0.524121 0.576743 1.55038 1.32922 0.56717 1.20343 1.00146 0.731604 0.216613 0.0199348 0.692774 0.547273 0.133177 0.652663 0.742785 0.425402 0.508489 1.0511 1.26722 1.07537 1.56237 1.14881 0.980715 1.1385 1.14874 1.00641 1.39528 1.32978 0.831624 0.448688 0.938194 1.13577 1.1666 0.933307 0.746998 0.294955 0.220908 0.406151 0.607159 0.321535 0.390171 0.781419 1.14446 -99999 -99999 -99999 -99999 -99999 -99999 -99999 -99999 -99999 -99999 -99999 -99999 -99999 -99999 -99999 -99999 -99999 -99999 -99999 -99999 -99999 -99999 -99999 -99999 -99999 -99999 -99999 -99999 -99999 -99999 -99999 -99999 -99999 -99999 -99999 -99999 -99999 -99999 -99999 -99999 -99999 -99999 -99999 -99999 -99999 -99999
-99999 -99999 -99999 -99999 -99999 -99999 -99999 -99999 -99999 -99999 -99999 -99999 -99999 -99999 -99999 -99999 -99999 1.81979 1.55421 1.42392 1.40054 1.00467 1.34129 0.543527 1.02188 1.59366 -99999 -99999 -99999 -99999 -99999 -99999 -99999 -99999 -99999 -99999 -99999 -99999 -99999 -99999 -99999 -99999 -99999 -99999 0 0.335322 0.953964 0.489318 0.615445 0.813862 0.960004 1.32137 1.19793 1.36007 0.865298 1.38289 0.730975 1.2058 0.649767 0.801883 0.555135 0.632447 0.562502 0.993665 0.563567 0.415378 0.640268 0.433777 0.997489 0.91404 0.836222 0.571194 1.4059 1.33386 1.20708 0.832135 0.704394 0.233353 0.901771 0.212326 0.27999 0.189473 1.2815 1.10556 1.29007 0.838628 0.883587 0.831322 1.27357 1.4223 1.27645 1.23769 0.313742 1.05235 1.13019 0.57471 0.429401 1.59372 1.46883 1.39198 0.996223 0.796725 0.665396 0.449018 1.14128 1.18023 0.512968 0.799934 1.1503 0.892531 -99999 -99999 -99999 -99999 -99999 -99999 -99999 -99999 -99999 -99999 -99999 -99999 -99999 -99999 -99999 -99999 -99999 -99999 -99999 -99999 -99999 -99999 -99999 -99999 -99999 -99999 -99999 -99999 -99999 -99999 -99999 -99999 -99999 -99999 -99999 -99999 -99999 -99999 -99999 -99999 -99999 -99999 -99999 -99999 -99999 -99999
-99999 -99999 -99999 -99999 -99999 -99999 -99999 -99999 -99999 -99999 -99999 -99999 -99999 -99999 -99999 -99999 -99999 -99999 1.5342 0.824686 1.09933 1.52106 1.37527 0.244883 1.03625 0.896406 1.98378 -99999 -99999 -99999 -99999 -99999 -99999 -99999 -99999 -99999 -99999 -99999 -99999 -99999 -99999 -99999 -99999 -99999 0 1.03138 0.342679 0.445562 0.543296 0.603213 0.806402 1.39252 1.49855 1.02202 1.51952 0.738386 0.972248 1.50481 1.00746 1.02436 0.640556 0.88232 0.86851 0.772275 0.658998 0.902679 0.667082 1.25537 0.982473 1.45163 1.35928 1.03641 1.46147 1.43456 0.605708 0.300409 0.67416 0.145268 0.318027 0.17327 0.0980583 0.313589 0.761726 1.19901 1.16339 1.03269 0.953473 0.602087 0.458391 1.27135 0.880929 1.31329 1.28019 0.982273 0.776937 1.08358 0.833789 0.575718 0.666282 1.2148 1.28252 0.194668 0.687292 0.284843 0.691428 1.19696 0.577817 0.911446 1.1472 1.10604 -99999 -99999 -99999 -99999 -99999 -99999 -99999 -99999 -99999 -99999 -99999 -99999 -99999 -99999 -99999 -99999 -99999 -99999 -99999 -99999 -99999 -99999 -99999 -99999 -99999 -99999 -99999 -99999 -99999 -99999 -99999 -99999 -99999 -99999 -99999 -99999 -99999 -99999 -99999 -99999 -99999 -99999 -99999 -99999 -99999 -99999
-99999 -99999 -99999 -99999 -99999 -99999 -99999 -99999 -99999 -99999 -99999 -99999 -99999 -99999 -99999 -99999 -99999 -99999 0 1.32682 1.4984 1.59694 1.81139 0.751087 0.594065 0.701105 1.56195 1.28119 1.43697 -99999 -99999 -99999 -99999 -99999 -99999 -99999 -99999 -99999 -99999 -99999 -99999 -99999 -99999 -99999 0.85363 0.939058 0.870134 0.25164 0.0768339 0.325168 0.733055 1.27172 1.46375 0.654979 1.3631 1.24562 1.48894 1.51826 1.39028 1.1757 0.639534 0.73393 0.412349 0.726445 1.47537 1.48725 1.1386 1.25346 1.41098 1.74019 1.19975 1.34848 1.42646 0.940608 0.0128659 0.108906 0.342319 0.185738 0 0 0.29188 1.28312 1.08224 1.17058 0.601766 0.985946 0.58097 0.201031 0.551461 1.06619 1.26863 1.36697 1.4649 1.72672 0.577559 1.46134 0.162161 0.65063 1.04021 0.387795 0.907458 0.809095 0.63035 0.223436 0.263042 1.72853 1.24103 0.819948 1.12409 0.83666 -99999 -99999 -99999 -99999 -99999 -99999 -99999 -99999 -99999 -99999 -99999 -99999 -99999 -99999 -99999 -99999 -99999 -99999 -99999 -99999 -99999 -99999 -99999 -99999 -99999 -99999 -99999 -99999 -99999 -99999 -99999 -99999 -99999 -99999 -99999 -99999 -99999 -99999 -99999 -99999 -99999 -99999 -99999 -99999 -99999 -99999
-99999 -99999 -99999 -99999 -99999 -99999 -99999 -99999 -99999 -99999 -99999 -99999 -99999 -99999 -99999 -99999 -99999 -99999 -99999 1.32318 0.753517 0.651145 1.46406 1.25469 1.73916 1.79053 1.1455 1.33695 0.918916 1.04846 0 0 0.235768 0.0872331 0.56 0 -99999 -99999 -99999 -99999 -99999 -99999 1.74583 1.50245 0.903683 0.83146 0.69894 0 0.0233653 0.140175 0.858411 1.14589 0.97176 0.984897 0.948906 0.959841 1.35672 1.3749 1.27296 0.664494 0.749677 1.12042 0.481686 0.901877 0.841162 0.567313 1.22834 1.52216 1.4109 1.4792 1.24503 1.68545 1.00567 0.150941 0.0709792 0.428209 0.0032 0.0266548 0 0 0.0635823 0.637769 0.908718 1.34225 0.722291 0.923769 0.730535 0.536741 0.578072 0.24594 0.823427 1.21561 1.51146 1.57717 0.702381 0.115392 0.701432 0.182909 0.531609 0.355065 1.01459 0.809153 0.434027 0.260604 0.778139 0.810568 1.0051 0.926636 1.54715 1.04854 -99999 -99999 -99999 -99999 -99999 -99999 -99999 -99999 -99999 -99999 -99999 -99999 -99999 -99999 -99999 -99999 -99999 -99999 -99999 -99999 -99999 -99999 -99999 -99999 -99999 -99999 -99999 -99999 -99999 -99999 -99999 -99999 -99999 -99999 -99999 -99999 -99999 -99999 -99999 -99999 -99999 -99999 -99999 -99999 -99999 -99999
-99999 -99999 -99999 -99999 -99999 -99999 -99999 -99999 -99999 -99999 -99999 -99999 -99999 -99999 -99999 -99999 -99999 -99999 -99999 1.07778 1.36145 0.303588 1.39295 1.27615 1.51916 1.54187 1.14333 0.946455 0.588885 0.615356 0 0 0.0096 0 0.0617836 0 0 -99999 0.0369688 0.0721523 -99999 1.97433 1.52574 1.57685 1.08551 1.35532 0.14242 0 0.258205 0.293499 0.671218 0.652009 1.22276 0.719657 0.5672 0.563371 1.44182 1.66739 1.65106 1.07273 0.669528 0.970257 0.797471 0.928126 1.06913 1.51925 1.03185 0.82964 0.553393 1.37317 1.10947 1.19001 0.444343 0.0756217 0 0 0.07408 0 0.0941468 0.0367196 0 0.117828 0.916909 1.24794 1.05163 0.826453 1.06981 0.680243 0.348234 0.0149321 0.763331 0.731319 1.0808 1.29975 1.291 0.0750094 0.651476 0.023253 0.000172649 0.11809 0.629599 0.469448 0.160409 0.273323 0.661857 0.850273 0.985582 0.968086 -99999 -99999 -99999 -99999 -99999 -99999 -99999 -99999 -99999 -99999 -99999 -99999 -99999 -99999 -99999 -99999 -99999 -99999 -99999 -99999 -99999 -99999 -99999 -99999 -99999 -99999 -99999 -99999 -99999 -99999 -99999 -99999 -99999 -99999 -99999 -99999 -99999 -99999 -99999 -99999 -99999 -99999 -99999 -99999 -99999 -99999 -99999 -99999
-99999 -99999 -99999 -99999 -99999 -99999 -99999 -99999 -99999 -99999 -99999 -99999 -99999 -99999 -99999 -99999 -99999 -99999 -99999 -99999 1.96773 0.142135 1.06431 1.35065 1.0953 1.62538 1.46534 1.47042 0.296865 0.28784 0.581702 0.753052 0.0748525 0.049724 0.271725 0.0295673 0 0.113174 0.0932252 0.11037 0.805532 1.671 0.68394 1.34662 1.56939 0.550744 0.0135799 0.012 0.2577 0.00646241 0 0.619218 0.834336 0.188165 0.637669 0.43441 0.757504 1.489 1.1451 1.30795 0.665524 1.06554 0.727931 0.784814 1.31699 1.40793 1.27453 0.500681 0.79873 1.30616 1.26975 0.103934 0.462362 0.47825 0 0 0 0 0.0104243 0.00846932 0.00707916 0.11614 0.412393 0.788788 1.00378 0.634701 0.472181 0.525454 0.298005 0.18003 0.273329 0.157332 0.238618 0.30444 0.668239 0.90702 0.309896 0.0510267 0.271902 0.659957 0.583724 0.475909 0 0.00770735 0.319319 1.33935 1.68098 -99999 -99999 -99999 -99999 -99999 -99999 -99999 -99999 -99999 -99999 -99999 -99999 -99999 -99999 -99999 -99999 -99999 -99999 -99999 -99999 -99999 -99999 -99999 -99999 -99999 -99999 -99999 -99999 -99999 -99999 -99999 -99999 -99999 -99999 -99999 -99999 -99999 -99999 -99999 -99999 -99999 -99999 -99999 -99999 -99999 -99999 -99999 -99999 -99999
-99999 -99999 -99999 -99999 -99999 -99999 -99999 -99999 -99999 -99999 -99999 -99999 -99999 -99999 -99999 -99999 -99999 -99999 -99999 -99999 -99999 0 0.780688 1.51829 1.03363 1.10558 1.61933 1.62548 1.5799 0.414005 0.854641 1.78796 0.740287 0.800739 0.52558 0.853583 0.375559 0.433076 0.213184 0.30899 1.26132 1.73206 1.09533 1.39602 0.780755 0.887731 0.0456433 0 0.704322 0.277263 0.02484 0.684382 0.486286 0.461131 0.92676 1.10155 1.45154 1.5406 1.03742 1.32685 1.23986 0.612796 0.516961 0.668308 1.22802 1.38403 1.32551 0.198616 0.841741 0.897846 0.82741 1.04702 0.391516 0.35184 0 0 0 0.16144 0 0 0.48431 0.637695 1.24999 1.21577 0.896855 0.0417547 0.463799 0.333475 0 0 0 0 0.0517013 1.29976 0.873164 0.577733 0.21856 0.0615913 0.819147 1.54955 0.656565 0.337242 0 0 0.137378 1.17187 1.91074 -99999 -99999 -99999 -99999 -99999 -99999 -99999 -99999 -99999 -99999 -99999 -99999 -99999 -99999 -99999 -99999 -99999 -99999 -99999 -99999 -99999 -99999 -99999 -99999 -99999 -99999 -99999 -99999 -99999 -99999 -99999 -99999 -99999 -99999 -99999 -99999 -99999 -99999 -99999 -99999 -99999 -99999 -99999 -99999 -99999 -99999 -99999 -99999 -99999
-99999 -99999 -99999 -99999 -99999 -99999 -99999 -99999 -99999 -99999 -99999 -99999 -99999 -99999 -99999 -99999 -99999 -99999 -99999 -99999 -99999 -99999 1.74355 1.57162 1.5227 1.45486 1.65873 1.34405 1.2895 1.44962 1.0952 1.2851 0.249361 0.371505 1.62667 0.564315 0.99707 1.38434 1.15085 1.65853 1.64775 1.62156 0.782455 1.62579 1.58605 1.28034 0.339989 0.00680949 0.16646 1.08574 0.631292 0.909916 0.716605 0.505748 0.890359 1.20284 0.637082 1.00383 1.25084 1.45969 1.39727 1.02449 0.877541 0.809412 1.1089 0.818868 1.18251 1.3503 0.864181 0.878489 1.22296 1.44391 1.01616 0.775296 0.090289 0.324217 0.144141 0.106971 0.0111167 0.463796 1.34701 0.939479 1.34979 1.39634 0.788422 0.078293 0.934827 0.0311433 0.0271347 0 0 0 0 0.573639 0.880828 0.793793 1.12172 0.02704 0.687928 0.370815 0.706816 0.106776 0 0 0.0588314 0.164017 0 -99999 -99999 -99999 -99999 -99999 -99999 -99999 -99999 -99999 -99999 -99999 -99999 -99999 -99999 -99999 -99999 -99999 -99999 -99999 -99999 -99999 -99999 -99999 -99999 -99999 -99999 -99999 -99999 -99999 -99999 -99999 -99999 -99999 -99999 -99999 -99999 -99999 -99999 -99999 -99999 -99999 -99999 -99999 -99999 -99999 -99999 -99999 -99999 -99999
-99999 -99999 -99999 -99999 -99999 -99999 -99999 -99999 -99999 -99999 -99999 -99999 -99999 -99999 -99999 -99999 -99999 -99999 -99999 -99999 -99999 -99999 2 1.72926 1.26225 0.456306 1.26103 1.46084 0.413823 0.943526 1.20921 1.3008 0.803244 1.47171 1.91929 1.72169 1.33134 1.35539 1.53657 1.58896 1.76859 1.65189 1.69656 1.47481 1.48803 1.31757 0.85061 0.334886 1.10193 1.77377 1.46623 1.24279 0.949421 0.734094 1.1819 1.35994 1.25557 1.03639 1.0538 1.1951 1.2079 1.26375 0.643939 0.743687 0.405785 0.851676 1.25228 0.236434 0.423561 0.704184 1.4068 1.6155 0.812029 0.384525 0.593295 1.11532 1.46109 1.48256 0.403819 0.908196 0.933373 1.59407 1.59838 1.29044 1.05089 0.221442 0.44034 0.202691 0.0882563 0.24434 0.584678 0.00191832 0.0032 0.286351 1.00956 1.71784 1.78656 1.04456 0.919925 1.11042 1.21745 1.06332 0.285201 0.00161265 0.093687 0.769002 -99999 -99999 -99999 -99999 -99999 -99999 -99999 -99999 -99999 -99999 -99999 -99999 -99999 -99999 -99999 -99999 -99999 -99999 -99999 -99999 -99999 -99999 -99999 -99999 -99999 -99999 -99999 -99999 -99999 -99999 -99999 -99999 -99999 -99999 -99999 -99999 -99999 -99999 -99999 -99999 -99999 -99999 -99999 -99999 -99999 -99999 -99999 -99999 -99999 -99999
-99999 -99999 -99999 -99999 -99999 -99999 -99999 -99999 -99999 -99999 -99999 -99999 -99999 -99999 -99999 -99999 -99999 -99999 -99999 -99999 -99999 -99999 -99999 1.33182 1.1529 1.40647 0.905067 1.24159 1.49422 1.73127 1.37374 0.733238 1.61255 1.20512 1.49662 1.82132 1.30963 0.988652 1.84168 1.59611 1.39002 1.67192 1.0131 1.06857 1.76221 0.95752 0.323118 0.197435 1.32442 1.20221 1.28129 0.984631 1.26366 1.26942 1.54429 0.835125 1.15755 1.30828 0.916903 0.459893 0.69853 1.19598 0.425773 0.306446 0.218634 0.911211 1.21407 0.694325 0.352685 0.203516 0.295022 1.18948 1.54935 1.24911 1.30143 1.60384 1.79886 0.504264 0.00570485 0.356852 0.523221 1.17949 0.810795 1.48408 1.07477 1.4108 0.710989 0.321279 0 0.207682 1.48086 1.25517 0.491612 0.461563 0.932023 1.43349 1.79746 1.89771 1.7778 1.28197 1.02985 0.506793 0.47106 0.144531 0.195656 1.26197 -99999 -99999 -99999 -99999 -99999 -99999 -99999 -99999 -99999 -99999 -99999 -99999 -99999 -99999 -99999 -99999 -99999 -99999 -99999 -99999 -99999 -99999 -99999 -99999 -99999 -99999 -99999 -99999 -99999 -99999 -99999 -99999 -99999 -99999 -99999 -99999 -99999 -99999 -99999 -99999 -99999 -99999 -99999 -99999 -99999 -99999 -99999 -99999 -99999 -99999
-99999 -99999 -99999 -99999 -99999 -99999 -99999 -99999 -99999 -99999 -99999 -99999 -99999 -99999 -99999 -99999 -99999 -99999 -99999 -99999 -99999 -99999 -99999 0.661607 1.11806 1.55711 1.44719 0.411159 0.708169 0.993482 1.50176 1.5539 1.65123 1.19915 1.7822 1.84429 1.58253 1.26455 1.37534 1.80965 1.61796 1.50407 1.40907 1.22492 0.920267 0.910136 0.131919 0.625771 1.10657 1.03718 0.709242 0.794494 1.16988 1.49354 1.4367 0.6718 0.999849 1.14198 1.23949 0.21531 0.524266 0.603371 0.627448 0.507125 0.27497 0.982022 0.735131 0.45689 0.164068 0.123553 0.13536 0.341268 0.636116 1.02243 1.49922 1.89797 1.52503 0.122655 0.308446 0.302409 0.0848767 0.15671 0.941495 1.10545 1.26569 0.833037 1.24442 0.115314 0.0184024 1.27618 1.44855 1.55828 1.39397 1.48393 0.936875 0.879519 1.76871 1.56483 0.381738 0.459888 0.231242 0.00864 0.0568207 0.0064 0 0 -99999 -99999 -99999 -99999 -99999 -99999 -99999 -99999 -99999 -99999 -99999 -99999 -99999 -99999 -99999 -99999 -99999 -99999 -99999 -99999 -99999 -99999 -99999 -99999 -99999 -99999 -99999 -99999 -99999 -99999 -99999 -99999 -99999 -99999 -99999 -99999 -99999 -99999 -99999 -99999 -99999 -99999 -99999 -99999 -99999 -99999 -99999 -99999 -99999 -99999
-99999 -99999 -99999 -99999 -99999 -99999 -99999 -99999 -99999 -99999 -99999 -99999 -99999 -99999 -99999 -99999 -99999 -99999 -99999 -99999 -99999 -99999 -99999 -99999 0.704056 0.994819 0.306328 0.086104 0.394366 0.733568 1.07496 1.72317 1.69954 1.31307 1.72339 1.40847 0.669765 1.12777 1.24642 1.13268 1.10565 0.931691 1.12839 0.447617 0.837039 0.283762 0.181459 0.41168 1.67619 0.661121 1.59556 0.646394 1.2081 1.49205 1.11654 0.714205 0.811903 1.41752 1.22163 0.17758 1.06777 1.34017 0.681246 0.426963 0.19122 0.951066 1.14474 0.714157 0.418907 0.448449 0.296342 0.0847112 0.202789 0.316759 0.921976 1.20975 0.394478 0.504308 0.776928 0.459065 0.349097 0.17426 0.245537 0.324372 1.09591 0.605138 0.473928 0.0113881 0.0385265 0.00479947 0.792963 1.57335 1.34254 1.49441 1.36001 0.84323 1.66729 0.737738 0.520836 0.066302 0 0 0.00752 0.00126735 0.000172649 0.0192924 -99999 -99999 -99999 -99999 -99999 -99999 -99999 -99999 -99999 -99999 -99999 -99999 -99999 -99999 -99999 -99999 -99999 -99999 -99999 -99999 -99999 -99999 -99999 -99999 -99999 -99999 -99999 -99999 -99999 -99999 -99999 -99999 -99999 -99999 -99999 -99999 -99999 -99999 -99999 -99999 -99999 -99999 -99999 -99999 -99999 -99999 -99999 -99999 -99999 -99999
-99999 -99999 -99999 -99999 -99999 -99999 -99999 -99999 -99999 -99999 -99999 -99999 -99999 -99999 -99999 -99999 -99999 -99999 -99999 -99999 -99999 -99999 -99999 -99999 -99999 0 0 0 0.1728 0.171615 1.1155 1.78775 1.19009 1.61861 1.54979 1.53272 1.49669 1.03578 0.575787 0.980447 1.47324 1.1757 1.07153 0.145279 0.861777 0.249598 0.995175 0.86814 0.91367 1.67518 1.1135 0.536097 0.814842 1.32 0.111999 0 0.322177 0.923507 0.786217 0.04864 0.314181 1.13533 1.02712 0.662384 1.03364 1.40794 1.04225 0.287798 0.192177 0.248529 0.275449 0.0782961 0.226702 0.202376 1.38743 0.853818 0.503689 0.492954 0.486459 0.696433 0.332295 0.0287707 0.115761 0.182115 0.0550364 0.0306192 0.0010548 0 0.0042548 0 0.0755802 0.491281 0.433295 0.975115 1.64612 1.12084 1.25749 0.758068 0 0 0 0 0.00144 0 0 0.97535 0 -99999 -99999 -99999 -99999 -99999 -99999 -99999 -99999 -99999 -99999 -99999 -99999 -99999 -99999 -99999 -99999 -99999 -99999 -99999 -99999 -99999 -99999 -99999 -99999 -99999 -99999 -99999 -99999 -99999 -99999 -99999 -99999 -99999 -99999 -99999 -99999 -99999 -99999 -99999 -99999 -99999 -99999 -99999 -99999 -99999 -99999 -99999 -99999 -99999
-99999 -99999 -99999 -99999 -99999 -99999 -99999 -99999 -99999 -99999 -99999 -99999 -99999 -99999 -99999 -99999 -99999 -99999 -99999 -99999 -99999 -99999 -99999 -99999 -99999 -99999 0 0 0.0160741 0.0758164 0.0687995 0.656821 1.37924 1.17002 1.06911 1.71442 1.72124 0.480825 1.33578 1.00144 1.16815 1.0155 0.837295 0.723632 0.51492 0.229154 1.33455 1.20794 1.28837 1.31747 1.04441 0.455873 0.4209 0.306702 0.0021452 0 0 0.300401 0.133679 0.0210904 0.0389127 0.154451 0.56165 0.405118 0.465864 1.06735 0.0327371 0.412652 0.164101 0.781843 1.06983 0.297073 0.62524 0.219259 0.548789 1.33059 1.18966 0.609422 0.603435 0.602054 0.472116 0.789631 0.270552 0.0226236 0.032898 0.184702 0.0096 0 0.00608 0.0254103 0.89054 1.06704 0.6757 0.34899 0.367863 1.21871 0.616749 0.312657 0.0490437 0.0479163 0.330376 0.0731436 0 0 0 0.927981 -99999 -99999 -99999 -99999 -99999 -99999 -99999 -99999 -99999 -99999 -99999 -99999 -99999 -99999 -99999 -99999 -99999 -99999 -99999 -99999 -99999 -99999 -99999 -99999 -99999 -99999 -99999 -99999 -99999 -99999 -99999 -99999 -99999 -99999 -99999 -99999 -99999 -99999 -99999 -99999 -99999 -99999 -99999 -99999 -99999 -99999 -99999 -99999 -99999 -99999
-99999 -99999 -99999 -99999 -99999 -99999 -99999 -99999 -99999 -99999 -99999 -99999 -99999 -99999 -99999 -99999 -99999 -99999 -99999 -99999 -99999 -99999 -99999 -99999 -99999 -99999 -99999 -99999 0 0.651464 0.209022 0.198413 0.0532028 0.0426352 0.687425 1.30772 1.56434 1.1652 1.37838 1.62447 1.55239 1.60608 1.35007 1.11575 1.22485 1.00739 1.46655 0.845306 1.31289 0.40083 0.238759 0.0885191 0.0923481 0.00281634 0.00463847 0.12144 0.0568 0.122255 0.0064 0.0021096 0.0383844 0.00470606 0 0.0849333 0.848585 1.13617 0.160474 0.169241 0.146612 0.303144 0.830272 0.422278 0.548255 0.786087 0.535695 1.4166 1.23246 1.01033 1.03594 0.609831 0.820549 1.41043 0.739547 0.675104 0.0963414 0.436048 0.0032 0 0.00464 0 0.000417751 0.0311187 0.0252716 1.54678 1.11137 1.44971 0.0072938 0 0 0 0 0 0 0 0 0 -99999 -99999 -99999 -99999 -99999 -99999 -99999 -99999 -99999 -99999 -99999 -99999 -99999 -99999 -99999 -99999 -99999 -99999 -99999 -99999 -99999 -99999 -99999 -99999 -99999 -99999 -99999 -99999 -99999 -99999 -99999 -99999 -99999 -99999 -99999 -99999 -99999 -99999 -99999 -99999 -99999 -99999 -99999 -99999 -99999 -99999 -99999 -99999 -99999 -99999
-99999 -99999 -99999 -99999 -99999 -99999 -99999 -99999 -99999 -99999 -99999 -99999 -99999 -99999 -99999 -99999 -99999 -99999 -99999 -99999 -99999 -99999 -99999 -99999 -99999 -99999 -99999 -99999 -99999 -99999 0.362651 0.324316 0 0 0.514034 1.3179 1.64615 1.47928 1.54304 0.867683 1.20272 1.63679 1.52304 1.42639 0.7392 1.31277 0.984506 0.78313 0.55439 0.514368 0.17151 0.153401 0.0662111 0.143022 0.0283852 0.0504 0.0424653 0.0868443 0 0.00281634 0.405107 0.0452118 0 0.12048 0.484905 0.74329 0.146241 0.152734 0.012 0 0.107396 0.791304 0.364813 0.589926 0.764286 0.767595 0.956585 1.13514 1.65446 0.905615 1.55324 1.49186 1.17501 0.589057 1.33396 1.63412 1.11481 0.0811224 0 0 0.0032 0 0.531108 0.52213 0.542356 0.599747 0.0405163 0 0 0 0 0 0 0 0 0 -99999 -99999 -99999 -99999 -99999 -99999 -99999 -99999 -99999 -99999 -99999 -99999 -99999 -99999 -99999 -99999 -99999 -99999 -99999 -99999 -99999 -99999 -99999 -99999 -99999 -99999 -99999 -99999 -99999 -99999 -99999 -99999 -99999 -99999 -99999 -99999 -99999 -99999 -99999 -99999 -99999 -99999 -99999 -99999 -99999 -99999 -99999 -99999 -99999 -99999
-99999 -99999 -99999 -99999 -99999 -99999 -99999 -99999 -99999 -99999 -99999 -99999 -99999 -99999 -99999 -99999 -99999 -99999 -99999 -99999 -99999 -99999 -99999 -99999 -99999 -99999 -99999 -99999 -99999 -99999 -99999 -99999 0 0.233156 0.185247 1.19013 1.74134 1.56058 1.60977 0.999081 1.28647 1.14234 0.809724 0.919103 1.34162 1.05628 0.416503 1.42723 1.13599 0.866475 0.31301 0.108247 0.0642678 0.262132 0.0176948 0.0021452 0.0032 0 0 0.0184327 0.0125421 0 0 0.0432653 0.342871 0.252647 0.24389 0.290316 0.0256 0.0085452 0.235535 0.91655 0.711904 0.195966 0.0782363 0.199569 1.2445 1.04133 0.438371 0.0408945 0.290662 1.1437 1.35488 0.854507 1.75949 1.92586 1.42516 0.231376 0 0 0.0032 0 0 0 0 0 0 0 0 0 0 0 0 0 0 -99999 -99999 -99999 -99999 -99999 -99999 -99999 -99999 -99999 -99999 -99999 -99999 -99999 -99999 -99999 -99999 -99999 -99999 -99999 -99999 -99999 -99999 -99999 -99999 -99999 -99999 -99999 -99999 -99999 -99999 -99999 -99999 -99999 -99999 -99999 -99999 -99999 -99999 -99999 -99999 -99999 -99999 -99999 -99999 -99999 -99999 -99999 -99999 -99999 -99999 -99999
-99999 -99999 -99999 -99999 -99999 -99999 -99999 -99999 -99999 -99999 -99999 -99999 -99999 -99999 -99999 -99999 -99999 -99999 -99999 -99999 -99999 -99999 -99999 -99999 -99999 -99999 -99999 -99999 -99999 -99999 -99999 -99999 -99999 -99999 0.965695 1.40078 1.3837 1.58169 1.26118 0.971829 1.14558 1.58161 1.11382 1.11136 0.929304 1.45345 0.981455 1.25035 0.973381 0.911388 0.658922 0.3607 1.52754 1.01748 0.236253 0.0010548 0 0 0.0072 0 0.0032 0 0 0 0.0988475 0.093562 0.297632 0.385574 0 0.0010548 0.648353 0.891498 0.697147 0.762265 1.40598 1.08762 1.22335 1.50362 0.818086 0 0.0162274 0.828511 1.57509 1.37477 1.62959 1.37789 0.230426 0.214933 0.244599 0.042617 0 0.00432 0.0032 0 0 0 0 0 0 0 -99999 -99999 -99999 -99999 -99999 -99999 -99999 -99999 -99999 -99999 -99999 -99999 -99999 -99999 -99999 -99999 -99999 -99999 -99999 -99999 -99999 -99999 -99999 -99999 -99999 -99999 -99999 -99999 -99999 -99999 -99999 -99999 -99999 -99999 -99999 -99999 -99999 -99999 -99999 -99999 -99999 -99999 -99999 -99999 -99999 -99999 -99999 -99999 -99999 -99999 -99999 -99999 -99999 -99999 -99999 -99999
-99999 -99999 -99999 -99999 -99999 -99999 -99999 -99999 -99999 -99999 -99999 -99999 -99999 -99999 -99999 -99999 -99999 -99999 -99999 -99999 -99999 -99999 -99999 -99999 -99999 -99999 -99999 -99999 -99999 -99999 -99999 -99999 -99999 -99999 -99999 -99999 0.448039 1.51714 1.58334 0.850248 0.789122 1.14757 1.53387 1.28417 1.47375 1.08365 0.378218 0.600611 0.67362 0.991715 0.731679 1.32415 1.26825 1.31482 1.58123 0.9604 0.0474029 0 0.0064 0.0042904 0.103077 0.00998367 0 0 0 0.0559156 0.564243 0.408269 0.00746012 0 0.494271 1.19891 0.475261 0.710442 1.44687 1.06472 1.56889 1.49503 0.702348 0 0 0.65796 1.43546 1.71332 1.50507 1.44021 1.41988 1.46721 1.02251 0.702272 0.0618024 0.0144 0.00784 0 0 0.290375 0.386476 0 0 0.0199281 -99999 -99999 -99999 -99999 -99999 -99999 -99999 -99999 -99999 -99999 -99999 -99999 -99999 -99999 -99999 -99999 -99999 -99999 -99999 -99999 -99999 -99999 -99999 -99999 -99999 -99999 -99999 -99999 -99999 -99999 -99999 -99999 -99999 -99999 -99999 -99999 -99999 -99999 -99999 -99999 -99999 -99999 -99999 -99999 -99999 -99999 -99999 -99999 -99999 -99999 -99999 -99999 -99999 -99999 -99999 -99999
-99999 -99999 -99999 -99999 -99999 -99999 -99999 -99999 -99999 -99999 -99999 -99999 -99999 -99999 -99999 -99999 -99999 -99999 -99999 -99999 -99999 -99999 -99999 -99999 -99999 -99999 -99999 -99999 -99999 -99999 -99999 -99999 -99999 -99999 -99999 -99999 -99999 2 1.55401 1.52208 1.50595 1.42309 1.24501 1.44557 1.35267 0.70684 0.200555 0.400061 0.823977 1.13877 0.622602 0.106177 1.25882 0.77412 1.58889 1.20931 1.05215 0.178055 0.0064 0.15091 0.204124 0.0216 0 0 0 0.769445 1.09334 0.994077 0.962985 0.0273106 0.603481 0.832134 0.608588 0.725819 0.784256 1.40187 1.36142 -99999 -99999 0 0 0.918889 1.19619 1.52841 1.22881 0.802895 1.48309 1.27721 1.60933 0.200144 0.142805 0.283489 0.109023 0.162764 0.871648 1.214 1.04826 0.808185 0.252767 0.414802 -99999 -99999 -99999 -99999 -99999 -99999 -99999 -99999 -99999 -99999 -99999 -99999 -99999 -99999 -99999 -99999 -99999 -99999 -99999 -99999 -99999 -99999 -99999 -99999 -99999 -99999 -99999 -99999 -99999 -99999 -99999 -99999 -99999 -99999 -99999 -99999 -99999 -99999 -99999 -99999 -99999 -99999 -99999 -99999 -99999 -99999 -99999 -99999 -99999 -99999 -99999 -99999 -99999 -99999 -99999 -99999
-99999 -99999 -99999 -99999 -99999 -99999 -99999 -99999 -99999 -99999 -99999 -99999 -99999 -99999 -99999 -99999 -99999 -99999 -99999 -99999 -99999 -99999 -99999 -99999 -99999 -99999 -99999 -99999 -99999 -99999 -99999 -99999 -99999 -99999 -99999 -99999 -99999 -99999 1.5 1.5346 1.42824 1.19613 1.35919 1.50606 1.59369 1.10077 0.923163 0.911656 0.374972 0.137701 0.0572497 0.0032 1.0862 0.840454 1.11945 1.08788 1.37687 0.483611 0.114641 0.12672 0.289838 0.158441 0.55766 0 0.111908 0.449432 0.817952 1.06498 0.897775 2 0.701757 1.05641 1.16898 0.492283 0.286106 1.28903 1.22798 -99999 -99999 -99999 -99999 0.9 1.22359 1.20765 1.22615 1.14037 1.14996 1.40211 1.39988 1.16331 0.275552 0.694154 0.567169 1.12947 1.4542 1.3537 1.15789 1.61532 1.42147 1.5124 -99999 -99999 -99999 -99999 -99999 -99999 -99999 -99999 -99999 -99999 -99999 -99999 -99999 -99999 -99999 -99999 -99999 -99999 -99999 -99999 -99999 -99999 -99999 -99999 -99999 -99999 -99999 -99999 -99999 -99999 -99999 -99999 -99999 -99999 -99999 -99999 -99999 -99999 -99999 -99999 -99999 -99999 -99999 -99999 -99999 -99999 -99999 -99999 -99999 -99999 -99999 -99999 -99999 -99999 -99999 -99999
-99999 -99999 -99999 -99999 -99999 -99999 -99999 -99999 -99999 -99999 -99999 -99999 -99999 -99999 -99999 -99999 -99999 -99999 -99999 -99999 -99999 -99999 -99999 -99999 -99999 -99999 -99999 -99999 -99999 -99999 -99999 -99999 -99999 -99999 -99999 -99999 -99999 -99999 -99999 -99999 1.4943 0.780315 1.65273 1.60495 0.762925 0.581595 0.574559 0 0.456728 1.14424 0.0568478 0.00960981 0.00884483 0.436384 1.21252 1.08385 1.07242 0.959022 1.08844 0.858878 0.971706 0.870648 1.44314 -99999 0.50466 0.9 -99999 -99999 -99999 -99999 -99999 -99999 1.87062 0.964497 0.710481 1.29757 -99999 -99999 -99999 -99999 -99999 -99999 0 1.06403 1.15646 1.26983 1.70777 1.68123 1.28111 1.1417 0.680011 1.57542 1.24044 1.54551 1.32732 1.35445 0.84871 0.923351 1.25514 1.59134 -99999 -99999 -99999 -99999 -99999 -99999 -99999 -99999 -99999 -99999 -99999 -99999 -99999 -99999 -99999 -99999 -99999 -99999 -99999 -99999 -99999 -99999 -99999 -99999 -99999 -99999 -99999 -99999 -99999 -99999 -99999 -99999 -99999 -99999 -99999 -99999 -99999 -99999 -99999 -99999 -99999 -99999 -99999 -99999 -99999 -99999 -99999 -99999 -99999 -99999 -99999 -99999 -99999 -99999 -99999 -99999
-99999 -99999 -99999 -99999 -99999 -99999 -99999 -99999 -99999 -99999 -99999 -99999 -99999 -99999 -99999 -99999 -99999 -99999 -99999 -99999 -99999 -99999 -99999 -99999 -99999 -99999 -99999 -99999 -99999 -99999 -99999 -99999 -99999 -99999 -99999 -99999 -99999 -99999 -99999 -99999 -99999 -99999 -99999 -99999 -99999 -99999 -99999 -99999 -99999 -99999 -99999 -99999 -99999 -99999 -99999 -99999 -99999 1.87496 1.08907 1.14044 0.902338 0.721126 -99999 -99999 -99999 -99999 -99999 -99999 -99999 -99999 -99999 -99999 -99999 -99999 1.56295 -99999 -99999 -99999 -99999 -99999 -99999 -99999 -99999 0.386849 1.07439 0.993852 1.36059 1.274 1.72025 1.00568 1.07997 0.899404 1.3984 1.74346 1.70579 1.12063 0.612692 0.915769 0.849258 -99999 -99999 -99999 -99999 -99999 -99999 -99999 -99999 -99999 -99999 -99999 -99999 -99999 -99999 -99999 -99999 -99999 -99999 -99999 -99999 -99999 -99999 -99999 -99999 -99999 -99999 -99999 -99999 -99999 -99999 -99999 -99999 -99999 -99999 -99999 -99999 -99999 -99999 -99999 -99999 -99999 -99999 -99999 -99999 -99999 -99999 -99999 -99999 -99999 -99999 -99999 -99999 -99999 -99999 -99999 -99999 -99999
-99999 -99999 -99999 -99999 -99999 -99999 -99999 -99999 -99999 -99999 -99999 -99999 -99999 -99999 -99999 -99999 -99999 -99999 -99999 -99999 -99999 -99999 -99999 -99999 -99999 -99999 -99999 -99999 -99999 -99999 -99999 -99999 -99999 -99999 -99999 -99999 -99999 -99999 -99999 -99999 -99999 -99999 -99999 -99999 -99999 -99999 -99999 -99999 -99999 -99999 -99999 -99999 -99999 -99999 -99999 -99999 -99999 -99999 -99999 1.35966 -99999 -99999 -99999 -99999 -99999 -99999 -99999 -99999 -99999 -99999 -99999 -99999 -99999 -99999 -99999 -99999 -99999 -99999 -99999 -99999 -99999 -99999 -99999 -99999 1.37404 1.19656 0.161915 0.934801 1.48085 1.25295 0.902948 0.984527 1.30733 1.65933 1.11677 0.812439 0.682727 0.875818 -99999 -99999 -99999 -99999 -99999 -99999 -99999 -99999 -99999 -99999 -99999 -99999 -99999 -99999 -99999 -99999 -99999 -99999 -99999 -99999 -99999 -99999 -99999 -99999 -99999 -99999 -99999 -99999 -99999 -99999 -99999 -99999 -99999 -99999 -99999 -99999 -99999 -99999 -99999 -99999 -99999 -99999 -99999 -99999 -99999 -99999 -99999 -99999 -99999 -99999 -99999 -99999 -99999 -99999 -99999 -99999 -99999 -99999
-99999 -99999 -99999 -99999 -99999 -99999 -99999 -99999 -99999 -99999 -99999 -99999 -99999 -99999 -99999 -99999 -99999 -99999 -99999 -99999 -99999 -99999 -99999 -99999 -99999 -99999 -99999 -99999 -99999 -99999 -99999 -99999 -99999 -99999 -99999 -99999 -99999 -99999 -99999 -99999 -99999 -99999 -99999 -99999 -99999 -99999 -99999 -99999 -99999 -99999 -99999 -99999 -99999 -99999 -99999 -99999 -99999 -99999 -99999 -99999 -99999 -99999 -99999 -99999 -99999 -99999 -99999 -99999 -99999 -99999 -99999 -99999 -99999 -99999 -99999 -99999 -99999 -99999 -99999 -99999 -99999 -99999 -99999 -99999 -99999 -99999 0 1.00984 1.21622 1.62138 1.4425 1.10912 1.31239 0.273563 -99999 -99999 -99999 -99999 -99999 -99999 -99999 -99999 -99999 -99999 -99999 -99999 -99999 -99999 -99999 -99999 -99999 -99999 -99999 -99999 -99999 -99999 -99999 -99999 -99999 -99999 -99999 -99999 -99999 -99999 -99999 -99999 -99999 -99999 -99999 -99999 -99999 -99999 -99999 -99999 -99999 -99999 -99999 -99999 -99999 -99999 -99999 -99999 -99999 -99999 -99999 -99999 -99999 -99999 -99999 -99999 -99999 -99999 -99999 -99999 -99999 -99999
-99999 -99999 -99999 -99999 -99999 -99999 -99999 -99999 -99999 -99999 -99999 -99999 -99999 -99999 -99999 -99999 -99999 -99999 -99999 -99999 -99999 -99999 -99999 -99999 -99999 -99999 -99999 -99999 -99999 -99999 -99999 -99999 -99999 -99999 -99999 -99999 -99999 -99999 -99999 -99999 -99999 -99999 -99999 -99999 -99999 -99999 -99999 -99999 -99999 -99999 -99999 -99999 -99999 -99999 -99999 -99999 -99999 -99999 -99999 -99999 -99999 -99999 -99999 -99999 -99999 -99999 -99999 -99999 -99999 -99999 -99999 -99999 -99999 -99999 -99999 -99999 -99999 -99999 -99999 -99999 -99999 -99999 -99999 -99999 -99999 -99999 -99999 0.268743 1.37271 1.87431 -99999 -99999 -99999 -99999 -99999 -99999 -99999 -99999 -99999 -99999 -99999 -99999 -99999 -99999 -99999 -99999 -99999 -99999 -99999 -99999 -99999 -99999 -99999 -99999 -99999 -99999 -99999 -99999 -99999 -99999 -99999 -99999 -99999 -99999 -99999 -99999 -99999 -99999 -99999 -99999 -99999 -99999 -99999 -99999 -99999 -99999 -99999 -99999 -99999 -99999 -99999 -99999 -99999 -99999 -99999 -99999 -99999 -99999 -99999 -99999 -99999 -99999 -99999 -99999 -99999 -99999
-99999 -99999 -99999 -99999 -99999 -99999 -99999 -99999 -99999 -99999 -99999 -99999 -99999 -99999 -99999 -99999 -99999 -99999 -99999 -99999 -99999 -99999 -99999 -99999 -99999 -99999 -99999 -99999 -99999 -99999 -99999 -99999 -99999 -99999 -99999 -99999 -99999 -99999 -99999 -99999 -99999 -99999 -99999 -99999 -99999 -99999 -99999 -99999 -99999 -99999 -99999 -99999 -99999 -99999 -99999 -99999 -99999 -99999 -99999 -99999 -99999 -99999 -99999 -99999 -99999 -99999 -99999 -99999 -99999 -99999 -99999 -99999 -99999 -99999 -99999 -99999 -99999 -99999 -99999 -99999 -99999 -99999 -99999 -99999 -99999 -99999 -99999 -99999 -99999 -99999 -99999 -99999 -99999 -99999 -99999 -99999 -99999 -99999 -99999 -99999 -99999 -99999 -99999 -99999 -99999 -99999 -99999 -99999 -99999 -99999 -99999 -99999 -99999 -99999 -99999 -99999 -99999 -99999 -99999 -99999 -99999 -99999 -99999 -99999 -99999 -99999 -99999 -99999 -99999 -99999 -99999 -99999 -99999 -99999 -99999 -99999 -99999 -99999 -99999 -99999 -99999 -99999 -99999 -99999 -99999 -99999 -99999 -99999 -99999 -99999 -99999 -99999 -99999 -99999 -99999 -99999
-99999 -99999 -99999 -99999 -99999 -99999 -99999 -99999 -99999 -99999 -99999 -99999 -99999 -99999 -99999 -99999 -99999 -99999 -99999 -99999 -99999 -99999 -99999 -99999 -99999 -99999 -99999 -99999 -99999 -99999 -99999 -99999 -99999 -99999 -99999 -99999 -99999 -99999 -99999 -99999 -99999 -99999 -99999 -99999 -99999 -99999 -99999 -99999 -99999 -99999 -99999 -99999 -99999 -99999 -99999 -99999 -99999 -99999 -99999 -99999 -99999 -99999 -99999 -99999 -99999 -99999 -99999 -99999 -99999 -99999 -99999 -99999 -99999 -99999 -99999 -99999 -99999 -99999 -99999 -99999 -99999 -99999 -99999 -99999 -99999 -99999 -99999 -99999 -99999 -99999 -99999 -99999 -99999 -99999 -99999 -99999 -99999 -99999 -99999 -99999 -99999 -99999 -99999 -99999 -99999 -99999 -99999 -99999 -99999 -99999 -99999 -99999 -99999 -99999 -99999 -99999 -99999 -99999 -99999 -99999 -99999 -99999 -99999 -99999 -99999 -99999 -99999 -99999 -99999 -99999 -99999 -99999 -99999 -99999 -99999 -99999 -99999 -99999 -99999 -99999 -99999 -99999 -99999 -99999 -99999 -99999 -99999 -99999 -99999 -99999 -99999 -99999 -99999 -99999 -99999 -99999
-99999 -99999 -99999 -99999 -99999 -99999 -99999 -99999 -99999 -99999 -99999 -99999 -99999 -99999 -99999 -99999 -99999 -99999 -99999 -99999 -99999 -99999 -99999 -99999 -99999 -99999 -99999 -99999 -99999 -99999 -99999 -99999 -99999 -99999 -99999 -99999 -99999 -99999 -99999 -99999 -99999 -99999 -99999 -99999 -99999 -99999 -99999 -99999 -99999 -99999 -99999 -99999 -99999 -99999 -99999 -99999 -99999 -99999 -99999 -99999 -99999 -99999 -99999 -99999 -99999 -99999 -99999 -99999 -99999 -99999 -99999 -99999 -99999 -99999 -99999 -99999 -99999 -99999 -99999 -99999 -99999 -99999 -99999 -99999 -99999 -99999 -99999 -99999 -99999 -99999 -99999 -99999 -99999 -99999 -99999 -99999 -99999 -99999 -99999 -99999 -99999 -99999 -99999 -99999 -99999 -99999 -99999 -99999 -99999 -99999 -99999 -99999 -99999 -99999 -99999 -99999 -99999 -99999 -99999 -99999 -99999 -99999 -99999 -99999 -99999 -99999 -99999 -99999 -99999 -99999 -99999 -99999 -99999 -99999 -99999 -99999 -99999 -99999 -99999 -99999 -99999 -99999 -99999 -99999 -99999 -99999 -99999 -99999 -99999 -99999 -99999 -99999 -99999 -99999 -99999 -99999
-99999 -99999 -99999 -99999 -99999 -99999 -99999 -99999 -99999 -99999 -99999 -99999 -99999 -99999 -99999 -99999 -99999 -99999 -99999 -99999 -99999 -99999 -99999 -99999 -99999 -99999 -99999 -99999 -99999 -99999 -99999 -99999 -99999 -99999 -99999 -99999 -99999 -99999 -99999 -99999 -99999 -99999 -99999 -99999 -99999 -99999 -99999 -99999 -99999 -99999 -99999 -99999 -99999 -99999 -99999 -99999 -99999 -99999 -99999 -99999 -99999 -99999 -99999 -99999 -99999 -99999 -99999 -99999 -99999 -99999 -99999 -99999 -99999 -99999 -99999 -99999 -99999 -99999 -99999 -99999 -99999 -99999 -99999 -99999 -99999 -99999 -99999 -99999 -99999 -99999 -99999 -99999 -99999 -99999 -99999 -99999 -99999 -99999 -99999 -99999 -99999 -99999 -99999 -99999 -99999 -99999 -99999 -99999 -99999 -99999 -99999 -99999 -99999 -99999 -99999 -99999 -99999 -99999 -99999 -99999 -99999 -99999 -99999 -99999 -99999 -99999 -99999 -99999 -99999 -99999 -99999 -99999 -99999 -99999 -99999 -99999 -99999 -99999 -99999 -99999 -99999 -99999 -99999 -99999 -99999 -99999 -99999 -99999 -99999 -99999 -99999 -99999 -99999 -99999 -99999 -99999
-99999 -99999 -99999 -99999 -99999 -99999 -99999 -99999 -99999 -99999 -99999 -99999 -99999 -99999 -99999 -99999 -99999 -99999 -99999 -99999 -99999 -99999 -99999 -99999 -99999 -99999 -99999 -99999 -99999 -99999 -99999 -99999 -99999 -99999 -99999 -99999 -99999 -99999 -99999 -99999 -99999 -99999 -99999 -99999 -99999 -99999 -99999 -99999 -99999 -99999 -99999 -99999 -99999 -99999 -99999 -99999 -99999 -99999 -99999 -99999 -99999 -99999 -99999 -99999 -99999 -99999 -99999 -99999 -99999 -99999 -99999 -99999 -99999 -99999 -99999 -99999 -99999 -99999 -99999 -99999 -99999 -99999 -99999 -99999 -99999 -99999 -99999 -99999 -99999 -99999 -99999 -99999 -99999 -99999 -99999 -99999 -99999 -99999 -99999 -99999 -99999 -99999 -99999 -99999 -99999 -99999 -99999 -99999 -99999 -99999 -99999 -99999 -99999 -99999 -99999 -99999 -99999 -99999 -99999 -99999 -99999 -99999 -99999 -99999 -99999 -99999 -99999 -99999 -99999 -99999 -99999 -99999 -99999 -99999 -99999 -99999 -99999 -99999 -99999 -99999 -99999 -99999 -99999 -99999 -99999 -99999 -99999 -99999 -99999 -99999 -99999 -99999 -99999 -99999 -99999 -99999
-99999 -99999 -99999 -99999 -99999 -99999 -99999 -99999 -99999 -99999 -99999 -99999 -99999 -99999 -99999 -99999 -99999 -99999 -99999 -99999 -99999 -99999 -99999 -99999 -99999 -99999 -99999 -99999 -99999 -99999 -99999 -99999 -99999 -99999 -99999 -99999 -99999 -99999 -99999 -99999 -99999 -99999 -99999 -99999 -99999 -99999 -99999 -99999 -99999 -99999 -99999 -99999 -99999 -99999 -99999 -99999 -99999 -99999 -99999 -99999 -99999 -99999 -99999 -99999 -99999 -99999 -99999 -99999 -99999 -99999 -99999 -99999 -99999 -99999 -99999 -99999 -99999 -99999 -99999 -99999 -99999 -99999 -99999 -99999 -99999 -99999 -99999 -99999 -99999 -99999 -99999 -99999 -99999 -99999 -99999 -99999 -99999 -99999 -99999 -99999 -99999 -99999 -99999 -99999 -99999 -99999 -99999 -99999 -99999 -99999 -99999 -99999 -99999 -99999 -99999 -99999 -99999 -99999 -99999 -99999 -99999 -99999 -99999 -99999 -99999 -99999 -99999 -99999 -99999 -99999 -99999 -99999 -99999 -99999 -99999 -99999 -99999 -99999 -99999 -99999 -99999 -99999 -99999 -99999 -99999 -99999 -99999 -99999 -99999 -99999 -99999 -99999 -99999 -99999 -99999 -99999
-99999 -99999 -99999 -99999 -99999 -99999 -99999 -99999 -99999 -99999 -99999 -99999 -99999 -99999 -99999 -99999 -99999 -99999 -99999 -99999 -99999 -99999 -99999 -99999 -99999 -99999 -99999 -99999 -99999 -99999 -99999 -99999 -99999 -99999 -99999 -99999 -99999 -99999 -99999 -99999 -99999 -99999 -99999 -99999 -99999 -99999 -99999 -99999 -99999 -99999 -99999 -99999 -99999 -99999 -99999 -99999 -99999 -99999 -99999 -99999 -99999 -99999 -99999 -99999 -99999 -99999 -99999 -99999 -99999 -99999 -99999 -99999 -99999 -99999 -99999 -99999 -99999 -99999 -99999 -99999 -99999 -99999 -99999 -99999 -99999 -99999 -99999 -99999 -99999 -99999 -99999 -99999 -99999 -99999 -99999 -99999 -99999 -99999 -99999 -99999 -99999 -99999 -99999 -99999 -99999 -99999 -99999 -99999 -99999 -99999 -99999 -99999 -99999 -99999 -99999 -99999 -99999 -99999 -99999 -99999 -99999 -99999 -99999 -99999 -99999 -99999 -99999 -99999 -99999 -99999 -99999 -99999 -99999 -99999 -99999 -99999 -99999 -99999 -99999 -99999 -99999 -99999 -99999 -99999 -99999 -99999 -99999 -99999 -99999 -99999 -99999 -99999 -99999 -99999 -99999 -99999
-99999 -99999 -99999 -99999 -99999 -99999 -99999 -99999 -99999 -99999 -99999 -99999 -99999 -99999 -99999 -99999 -99999 -99999 -99999 -99999 -99999 -99999 -99999 -99999 -99999 -99999 -99999 -99999 -99999 -99999 -99999 -99999 -99999 -99999 -99999 -99999 -99999 -99999 -99999 -99999 -99999 -99999 -99999 -99999 -99999 -99999 -99999 -99999 -99999 -99999 -99999 -99999 -99999 -99999 -99999 -99999 -99999 -99999 -99999 -99999 -99999 -99999 -99999 -99999 -99999 -99999 -99999 -99999 -99999 -99999 -99999 -99999 -99999 -99999 -99999 -99999 -99999 -99999 -99999 -99999 -99999 -99999 -99999 -99999 -99999 -99999 -99999 -99999 -99999 -99999 -99999 -99999 -99999 -99999 -99999 -99999 -99999 -99999 -99999 -99999 -99999 -99999 -99999 -99999 -99999 -99999 -99999 -99999 -99999 -99999 -99999 -99999 -99999 -99999 -99999 -99999 -99999 -99999 -99999 -99999 -99999 -99999 -99999 -99999 -99999 -99999 -99999 -99999 -99999 -99999 -99999 -99999 -99999 -99999 -99999 -99999 -99999 -99999 -99999 -99999 -99999 -99999 -99999 -99999 -99999 -99999 -99999 -99999 -99999 -99999 -99999 -99999 -99999 -99999 -99999 -99999
-99999 -99999 -99999 -99999 -99999 -99999 -99999 -99999 -99999 -99999 -99999 -99999 -99999 -99999 -99999 -99999 -99999 -99999 -99999 -99999 -99999 -99999 -99999 -99999 -99999 -99999 -99999 -99999 -99999 -99999 -99999 -99999 -99999 -99999 -99999 -99999 -99999 -99999 -99999 -99999 -99999 -99999 -99999 -99999 -99999 -99999 -99999 -99999 -99999 -99999 -99999 -99999 -99999 -99999 -99999 -99999 -99999 -99999 -99999 -99999 -99999 -99999 -99999 -99999 -99999 -99999 -99999 -99999 -99999 -99999 -99999 -99999 -99999 -99999 -99999 -99999 -99999 -99999 -99999 -99999 -99999 -99999 -99999 -99999 -99999 -99999 -99999 -99999 -99999 -99999 -99999 -99999 -99999 -99999 -99999 -99999 -99999 -99999 -99999 -99999 -99999 -99999 -99999 -99999 -99999 -99999 -99999 -99999 -99999 -99999 -99999 -99999 -99999 -99999 -99999 -99999 -99999 -99999 -99999 -99999 -99999 -99999 -99999 -99999 -99999 -99999 -99999 -99999 -99999 -99999 -99999 -99999 -99999 -99999 -99999 -99999 -99999 -99999 -99999 -99999 -99999 -99999 -99999 -99999 -99999 -99999 -99999 -99999 -99999 -99999 -99999 -99999 -99999 -99999 -99999 -99999
-99999 -99999 -99999 -99999 -99999 -99999 -99999 -99999 -99999 -99999 -99999 -99999 -99999 -99999 -99999 -99999 -99999 -99999 -99999 -99999 -99999 -99999 -99999 -99999 -99999 -99999 -99999 -99999 -99999 -99999 -99999 -99999 -99999 -99999 -99999 -99999 -99999 -99999 -99999 -99999 -99999 -99999 -99999 -99999 -99999 -99999 -99999 -99999 -99999 -99999 -99999 -99999 -99999 -99999 -99999 -99999 -99999 -99999 -99999 -99999 -99999 -99999 -99999 -99999 -99999 -99999 -99999 -99999 -99999 -99999 -99999 -99999 -99999 -99999 -99999 -99999 -99999 -99999 -99999 -99999 -99999 -99999 -99999 -99999 -99999 -99999 -99999 -99999 -99999 -99999 -99999 -99999 -99999 -99999 -99999 -99999 -99999 -99999 -99999 -99999 -99999 -99999 -99999 -99999 -99999 -99999 -99999 -99999 -99999 -99999 -99999 -99999 -99999 -99999 -99999 -99999 -99999 -99999 -99999 -99999 -99999 -99999 -99999 -99999 -99999 -99999 -99999 -99999 -99999 -99999 -99999 -99999 -99999 -99999 -99999 -99999 -99999 -99999 -99999 -99999 -99999 -99999 -99999 -99999 -99999 -99999 -99999 -99999 -99999 -99999 -99999 -99999 -99999 -99999 -99999 -99999
