ncols        156
nrows        105
xllcorner    798778.801047321060
yllcorner    1484563.296254347777
cellsize     250.000000000000
NODATA_value -99999
-99999 -99999 -99999 -99999 -99999 -99999 -99999 -99999 -99999 -99999 -99999 -99999 -99999 -99999 -99999 -99999 -99999 -99999 -99999 -99999 -99999 -99999 -99999 -99999 -99999 -99999 -99999 -99999 -99999 -99999 -99999 -99999 -99999 -99999 -99999 -99999 -99999 -99999 -99999 -99999 -99999 -99999 -99999 -99999 -99999 -99999 -99999 -99999 -99999 -99999 -99999 -99999 -99999 -99999 -99999 -99999 -99999 -99999 -99999 -99999 -99999 -99999 -99999 -99999 -99999 -99999 -99999 -99999 -99999 -99999 -99999 -99999 -99999 -99999 -99999 -99999 -99999 -99999 -99999 -99999 -99999 -99999 -99999 -99999 -99999 -99999 -99999 -99999 -99999 -99999 -99999 -99999 -99999 -99999 -99999 -99999 -99999 -99999 -99999 -99999 -99999 -99999 -99999 -99999 -99999 -99999 -99999 -99999 -99999 -99999 -99999 -99999 -99999 -99999 -99999 -99999 -99999 -99999 -99999 -99999 -99999 -99999 -99999 -99999 -99999 -99999 -99999 -99999 -99999 -99999 -99999 -99999 -99999 -99999 -99999 -99999 -99999 -99999 -99999 -99999 -99999 -99999 -99999 -99999 -99999 -99999 -99999 -99999 -99999 -99999 -99999 -99999 -99999 -99999 -99999 -99999
-99999 -99999 -99999 -99999 -99999 -99999 -99999 -99999 -99999 -99999 -99999 -99999 -99999 -99999 -99999 -99999 -99999 -99999 -99999 -99999 -99999 -99999 -99999 -99999 -99999 -99999 -99999 -99999 -99999 -99999 -99999 -99999 -99999 -99999 -99999 -99999 -99999 -99999 -99999 -99999 -99999 -99999 -99999 -99999 -99999 -99999 -99999 -99999 -99999 -99999 -99999 -99999 -99999 -99999 -99999 -99999 -99999 -99999 -99999 -99999 -99999 -99999 -99999 -99999 -99999 -99999 -99999 -99999 -99999 -99999 -99999 -99999 -99999 -99999 -99999 -99999 -99999 -99999 -99999 -99999 -99999 -99999 -99999 -99999 -99999 -99999 -99999 -99999 -99999 -99999 -99999 -99999 -99999 -99999 -99999 -99999 -99999 -99999 -99999 -99999 -99999 -99999 -99999 -99999 -99999 -99999 -99999 -99999 -99999 -99999 -99999 -99999 -99999 -99999 -99999 -99999 -99999 -99999 -99999 -99999 -99999 -99999 -99999 -99999 -99999 -99999 -99999 -99999 -99999 -99999 -99999 -99999 -99999 -99999 -99999 -99999 -99999 -99999 -99999 -99999 -99999 -99999 -99999 -99999 -99999 -99999 -99999 -99999 -99999 -99999 -99999 -99999 -99999 -99999 -99999 -99999
-99999 -99999 -99999 -99999 -99999 -99999 -99999 -99999 -99999 -99999 -99999 -99999 -99999 -99999 -99999 -99999 -99999 -99999 -99999 -99999 -99999 -99999 -99999 -99999 -99999 -99999 -99999 -99999 -99999 -99999 -99999 -99999 -99999 -99999 -99999 -99999 -99999 -99999 -99999 -99999 -99999 -99999 -99999 -99999 -99999 -99999 -99999 -99999 -99999 -99999 -99999 -99999 -99999 -99999 -99999 -99999 -99999 -99999 -99999 -99999 -99999 -99999 -99999 -99999 -99999 -99999 -99999 -99999 -99999 -99999 -99999 -99999 -99999 -99999 -99999 -99999 -99999 -99999 -99999 -99999 -99999 -99999 -99999 -99999 -99999 -99999 -99999 -99999 -99999 -99999 -99999 -99999 -99999 -99999 -99999 -99999 -99999 -99999 -99999 -99999 -99999 -99999 -99999 -99999 -99999 -99999 -99999 -99999 -99999 -99999 -99999 -99999 -99999 -99999 -99999 -99999 -99999 -99999 -99999 -99999 -99999 -99999 -99999 -99999 -99999 -99999 -99999 -99999 -99999 -99999 -99999 -99999 -99999 -99999 -99999 -99999 -99999 -99999 -99999 -99999 -99999 -99999 -99999 -99999 -99999 -99999 -99999 -99999 -99999 -99999 -99999 -99999 -99999 -99999 -99999 -99999
-99999 -99999 -99999 -99999 -99999 -99999 -99999 -99999 -99999 -99999 -99999 -99999 -99999 -99999 -99999 -99999 -99999 -99999 -99999 -99999 -99999 -99999 -99999 -99999 -99999 -99999 -99999 -99999 -99999 -99999 -99999 -99999 -99999 -99999 -99999 -99999 -99999 -99999 -99999 -99999 -99999 -99999 -99999 -99999 -99999 -99999 -99999 -99999 -99999 -99999 -99999 -99999 -99999 -99999 -99999 -99999 -99999 -99999 -99999 -99999 -99999 -99999 -99999 -99999 -99999 -99999 -99999 -99999 -99999 -99999 -99999 -99999 -99999 -99999 -99999 -99999 -99999 -99999 -99999 -99999 -99999 -99999 -99999 -99999 -99999 -99999 -99999 -99999 -99999 -99999 -99999 -99999 -99999 -99999 -99999 -99999 -99999 -99999 -99999 -99999 -99999 -99999 -99999 -99999 -99999 -99999 -99999 -99999 -99999 -99999 -99999 -99999 -99999 -99999 -99999 -99999 -99999 -99999 -99999 -99999 -99999 -99999 -99999 -99999 -99999 -99999 -99999 -99999 -99999 -99999 -99999 -99999 -99999 -99999 -99999 -99999 -99999 -99999 -99999 -99999 -99999 -99999 -99999 -99999 -99999 -99999 -99999 -99999 -99999 -99999 -99999 -99999 -99999 -99999 -99999 -99999
-99999 -99999 -99999 -99999 -99999 -99999 -99999 -99999 -99999 -99999 -99999 -99999 -99999 -99999 -99999 -99999 -99999 -99999 -99999 -99999 -99999 -99999 -99999 -99999 -99999 -99999 -99999 -99999 -99999 -99999 -99999 -99999 -99999 -99999 -99999 -99999 -99999 -99999 -99999 -99999 -99999 -99999 -99999 -99999 -99999 -99999 -99999 -99999 -99999 -99999 -99999 -99999 -99999 -99999 -99999 -99999 -99999 -99999 -99999 -99999 -99999 -99999 -99999 -99999 -99999 -99999 -99999 -99999 -99999 -99999 -99999 -99999 -99999 -99999 -99999 -99999 -99999 -99999 -99999 -99999 -99999 -99999 -99999 -99999 -99999 -99999 -99999 -99999 -99999 -99999 -99999 -99999 -99999 -99999 -99999 -99999 -99999 -99999 -99999 -99999 -99999 -99999 -99999 -99999 -99999 -99999 -99999 -99999 -99999 -99999 -99999 -99999 -99999 -99999 -99999 -99999 -99999 -99999 -99999 -99999 -99999 -99999 -99999 -99999 -99999 -99999 -99999 -99999 -99999 -99999 -99999 -99999 -99999 -99999 -99999 -99999 -99999 -99999 -99999 -99999 -99999 -99999 -99999 -99999 -99999 -99999 -99999 -99999 -99999 -99999 -99999 -99999 -99999 -99999 -99999 -99999
-99999 -99999 -99999 -99999 -99999 -99999 -99999 -99999 -99999 -99999 -99999 -99999 -99999 -99999 -99999 -99999 -99999 -99999 -99999 -99999 -99999 -99999 -99999 -99999 -99999 -99999 -99999 -99999 -99999 -99999 -99999 -99999 -99999 -99999 -99999 -99999 -99999 -99999 -99999 -99999 -99999 -99999 -99999 -99999 -99999 -99999 -99999 -99999 -99999 -99999 -99999 -99999 -99999 -99999 -99999 -99999 -99999 -99999 -99999 -99999 -99999 -99999 -99999 -99999 -99999 -99999 -99999 -99999 -99999 -99999 -99999 -99999 -99999 -99999 -99999 -99999 -99999 -99999 -99999 -99999 -99999 -99999 -99999 -99999 -99999 -99999 -99999 -99999 -99999 -99999 -99999 -99999 -99999 -99999 -99999 -99999 -99999 -99999 -99999 -99999 -99999 -99999 -99999 -99999 -99999 -99999 -99999 -99999 -99999 -99999 -99999 -99999 -99999 -99999 -99999 -99999 -99999 -99999 -99999 -99999 -99999 -99999 -99999 -99999 -99999 -99999 -99999 -99999 -99999 -99999 -99999 -99999 -99999 -99999 -99999 -99999 -99999 -99999 -99999 -99999 -99999 -99999 -99999 -99999 -99999 -99999 -99999 -99999 -99999 -99999 -99999 -99999 -99999 -99999 -99999 -99999
-99999 -99999 -99999 -99999 -99999 -99999 -99999 -99999 -99999 -99999 -99999 -99999 -99999 -99999 -99999 -99999 -99999 -99999 -99999 -99999 -99999 -99999 -99999 -99999 -99999 -99999 -99999 -99999 -99999 -99999 -99999 -99999 -99999 -99999 -99999 -99999 -99999 -99999 -99999 -99999 -99999 -99999 -99999 -99999 -99999 -99999 -99999 -99999 -99999 -99999 -99999 -99999 -99999 -99999 -99999 -99999 -99999 -99999 -99999 -99999 -99999 -99999 -99999 -99999 -99999 -99999 -99999 -99999 -99999 -99999 -99999 -99999 -99999 -99999 -99999 -99999 -99999 -99999 -99999 -99999 -99999 -99999 -99999 -99999 -99999 -99999 -99999 -99999 -99999 -99999 -99999 -99999 -99999 -99999 -99999 -99999 -99999 -99999 -99999 -99999 -99999 -99999 -99999 -99999 -99999 -99999 -99999 -99999 -99999 -99999 -99999 -99999 -99999 -99999 -99999 -99999 -99999 -99999 -99999 -99999 -99999 -99999 -99999 -99999 -99999 -99999 -99999 -99999 -99999 -99999 -99999 -99999 -99999 -99999 -99999 -99999 -99999 -99999 -99999 -99999 -99999 -99999 -99999 -99999 -99999 -99999 -99999 -99999 -99999 -99999 -99999 -99999 -99999 -99999 -99999 -99999
-99999 -99999 -99999 -99999 -99999 -99999 -99999 -99999 -99999 -99999 -99999 -99999 -99999 -99999 -99999 -99999 -99999 -99999 -99999 -99999 -99999 -99999 -99999 -99999 -99999 -99999 -99999 -99999 -99999 -99999 -99999 -99999 -99999 -99999 -99999 -99999 -99999 -99999 -99999 -99999 -99999 -99999 -99999 -99999 -99999 -99999 -99999 -99999 -99999 -99999 -99999 -99999 -99999 -99999 -99999 -99999 -99999 -99999 -99999 -99999 -99999 -99999 -99999 -99999 -99999 -99999 -99999 -99999 -99999 -99999 -99999 -99999 -99999 -99999 -99999 -99999 -99999 -99999 -99999 -99999 -99999 -99999 -99999 -99999 -99999 -99999 -99999 -99999 -99999 -99999 -99999 -99999 -99999 -99999 -99999 -99999 -99999 -99999 -99999 -99999 -99999 -99999 -99999 -99999 -99999 -99999 -99999 -99999 -99999 -99999 -99999 -99999 -99999 -99999 -99999 -99999 -99999 -99999 -99999 -99999 -99999 -99999 -99999 -99999 -99999 -99999 -99999 -99999 -99999 -99999 -99999 -99999 -99999 -99999 -99999 -99999 -99999 -99999 -99999 -99999 -99999 -99999 -99999 -99999 -99999 -99999 -99999 -99999 -99999 -99999 -99999 -99999 -99999 -99999 -99999 -99999
-99999 -99999 -99999 -99999 -99999 -99999 -99999 -99999 -99999 -99999 -99999 -99999 -99999 -99999 -99999 -99999 -99999 -99999 -99999 -99999 -99999 -99999 -99999 -99999 -99999 -99999 -99999 -99999 -99999 -99999 -99999 -99999 -99999 -99999 -99999 -99999 -99999 -99999 -99999 -99999 -99999 -99999 -99999 -99999 -99999 -99999 -99999 -99999 -99999 -99999 -99999 -99999 -99999 -99999 -99999 -99999 -99999 -99999 -99999 -99999 -99999 -99999 -99999 -99999 -99999 -99999 -99999 -99999 -99999 -99999 -99999 -99999 -99999 -99999 -99999 -99999 -99999 -99999 -99999 -99999 -99999 -99999 -99999 -99999 -99999 -99999 -99999 -99999 -99999 -99999 -99999 -99999 -99999 -99999 -99999 -99999 -99999 -99999 -99999 -99999 -99999 -99999 -99999 -99999 -99999 -99999 -99999 -99999 -99999 -99999 -99999 -99999 -99999 -99999 -99999 -99999 -99999 -99999 -99999 -99999 -99999 -99999 -99999 -99999 -99999 -99999 -99999 -99999 -99999 -99999 -99999 -99999 -99999 -99999 -99999 -99999 -99999 -99999 -99999 -99999 -99999 -99999 -99999 -99999 -99999 -99999 -99999 -99999 -99999 -99999 -99999 -99999 -99999 -99999 -99999 -99999
-99999 -99999 -99999 -99999 -99999 -99999 -99999 -99999 -99999 -99999 -99999 -99999 -99999 -99999 -99999 -99999 -99999 -99999 -99999 -99999 -99999 -99999 -99999 -99999 -99999 -99999 -99999 -99999 -99999 -99999 -99999 -99999 -99999 -99999 -99999 -99999 -99999 -99999 -99999 -99999 -99999 -99999 -99999 -99999 -99999 -99999 -99999 -99999 -99999 -99999 -99999 -99999 -99999 -99999 -99999 -99999 -99999 -99999 -99999 -99999 -99999 -99999 -99999 -99999 -99999 -99999 -99999 -99999 -99999 -99999 -99999 -99999 -99999 -99999 -99999 -99999 -99999 -99999 -99999 -99999 -99999 -99999 -99999 -99999 -99999 -99999 -99999 -99999 -99999 -99999 -99999 -99999 -99999 -99999 -99999 -99999 -99999 -99999 -99999 -99999 -99999 -99999 -99999 -99999 -99999 -99999 -99999 -99999 -99999 -99999 -99999 -99999 -99999 -99999 -99999 -99999 -99999 -99999 -99999 -99999 -99999 -99999 -99999 -99999 -99999 -99999 -99999 -99999 -99999 -99999 -99999 -99999 -99999 -99999 -99999 -99999 -99999 -99999 -99999 -99999 -99999 -99999 -99999 -99999 -99999 -99999 -99999 -99999 -99999 -99999 -99999 -99999 -99999 -99999 -99999 -99999
-99999 -99999 -99999 -99999 -99999 -99999 -99999 -99999 -99999 -99999 -99999 -99999 -99999 -99999 -99999 -99999 -99999 -99999 -99999 -99999 -99999 -99999 -99999 -99999 -99999 -99999 -99999 -99999 -99999 -99999 -99999 -99999 -99999 -99999 -99999 -99999 -99999 -99999 -99999 -99999 -99999 -99999 -99999 -99999 -99999 -99999 -99999 -99999 -99999 -99999 -99999 -99999 -99999 -99999 -99999 -99999 -99999 -99999 -99999 -99999 -99999 -99999 -99999 -99999 -99999 -99999 -99999 -99999 -99999 -99999 -99999 -99999 -99999 -99999 -99999 -99999 -99999 -99999 -99999 -99999 -99999 -99999 -99999 -99999 -99999 -99999 -99999 -99999 -99999 -99999 -99999 -99999 -99999 -99999 -99999 -99999 -99999 -99999 -99999 -99999 -99999 -99999 -99999 -99999 -99999 -99999 -99999 -99999 -99999 -99999 -99999 -99999 -99999 -99999 -99999 -99999 -99999 -99999 -99999 -99999 -99999 -99999 -99999 -99999 -99999 -99999 -99999 -99999 -99999 -99999 -99999 -99999 -99999 -99999 -99999 -99999 -99999 -99999 -99999 -99999 -99999 -99999 -99999 -99999 -99999 -99999 -99999 -99999 -99999 -99999 -99999 -99999 -99999 -99999 -99999 -99999
-99999 -99999 -99999 -99999 -99999 -99999 -99999 -99999 -99999 -99999 -99999 -99999 -99999 -99999 -99999 -99999 -99999 -99999 -99999 -99999 -99999 -99999 -99999 -99999 -99999 -99999 -99999 -99999 -99999 -99999 -99999 -99999 -99999 -99999 -99999 -99999 -99999 -99999 -99999 -99999 -99999 -99999 -99999 -99999 -99999 -99999 -99999 -99999 -99999 -99999 -99999 -99999 -99999 -99999 -99999 -99999 -99999 -99999 -99999 -99999 -99999 -99999 -99999 -99999 -99999 -99999 -99999 -99999 -99999 -99999 -99999 -99999 -99999 -99999 -99999 -99999 -99999 -99999 -99999 -99999 -99999 -99999 -99999 -99999 -99999 -99999 -99999 -99999 -99999 -99999 -99999 -99999 -99999 -99999 -99999 -99999 -99999 -99999 -99999 -99999 -99999 -99999 -99999 -99999 -99999 -99999 -99999 -99999 -99999 -99999 -99999 -99999 -99999 -99999 -99999 -99999 -99999 -99999 -99999 -99999 -99999 -99999 -99999 -99999 -99999 -99999 -99999 -99999 -99999 -99999 -99999 -99999 -99999 -99999 -99999 -99999 -99999 -99999 -99999 -99999 -99999 -99999 -99999 -99999 -99999 -99999 -99999 -99999 -99999 -99999 -99999 -99999 -99999 -99999 -99999 -99999
-99999 -99999 -99999 -99999 -99999 -99999 -99999 -99999 -99999 -99999 -99999 -99999 -99999 -99999 -99999 -99999 -99999 -99999 -99999 -99999 -99999 -99999 -99999 -99999 -99999 -99999 -99999 -99999 -99999 -99999 -99999 -99999 -99999 -99999 -99999 -99999 -99999 -99999 -99999 -99999 -99999 -99999 -99999 -99999 -99999 -99999 -99999 -99999 -99999 -99999 -99999 -99999 -99999 -99999 -99999 -99999 -99999 -99999 -99999 -99999 -99999 -99999 -99999 -99999 -99999 -99999 -99999 -99999 -99999 -99999 -99999 -99999 -99999 -99999 -99999 -99999 -99999 -99999 -99999 -99999 -99999 -99999 -99999 -99999 -99999 -99999 -99999 -99999 -99999 -99999 -99999 -99999 -99999 -99999 -99999 -99999 -99999 -99999 -99999 -99999 -99999 -99999 -99999 -99999 -99999 -99999 -99999 -99999 -99999 -99999 -99999 -99999 -99999 -99999 -99999 -99999 -99999 -99999 -99999 -99999 -99999 -99999 -99999 -99999 -99999 -99999 -99999 -99999 -99999 -99999 -99999 -99999 -99999 -99999 -99999 -99999 -99999 -99999 -99999 -99999 -99999 -99999 -99999 -99999 -99999 -99999 -99999 -99999 -99999 -99999 -99999 -99999 -99999 -99999 -99999 -99999
-99999 -99999 -99999 -99999 -99999 -99999 -99999 -99999 -99999 -99999 -99999 -99999 -99999 -99999 -99999 -99999 -99999 -99999 -99999 -99999 -99999 -99999 -99999 -99999 -99999 -99999 -99999 -99999 -99999 -99999 -99999 -99999 -99999 -99999 -99999 -99999 -99999 -99999 -99999 -99999 -99999 -99999 -99999 -99999 -99999 -99999 -99999 -99999 -99999 -99999 -99999 -99999 -99999 -99999 -99999 -99999 -99999 -99999 -99999 -99999 -99999 -99999 -99999 -99999 -99999 -99999 -99999 -99999 -99999 -99999 -99999 -99999 -99999 -99999 -99999 -99999 -99999 -99999 -99999 -99999 -99999 -99999 -99999 -99999 -99999 -99999 -99999 -99999 -99999 -99999 -99999 -99999 -99999 -99999 -99999 -99999 -99999 -99999 -99999 -99999 -99999 -99999 -99999 -99999 -99999 -99999 -99999 -99999 -99999 -99999 -99999 -99999 -99999 -99999 -99999 -99999 -99999 -99999 -99999 -99999 -99999 -99999 -99999 -99999 -99999 -99999 -99999 -99999 -99999 -99999 -99999 -99999 -99999 -99999 -99999 -99999 -99999 -99999 -99999 -99999 -99999 -99999 -99999 -99999 -99999 -99999 -99999 -99999 -99999 -99999 -99999 -99999 -99999 -99999 -99999 -99999
-99999 -99999 -99999 -99999 -99999 -99999 -99999 -99999 -99999 -99999 -99999 -99999 -99999 -99999 -99999 -99999 -99999 -99999 -99999 -99999 -99999 -99999 -99999 -99999 -99999 -99999 -99999 -99999 -99999 -99999 -99999 -99999 -99999 -99999 -99999 -99999 -99999 -99999 -99999 -99999 -99999 -99999 -99999 -99999 -99999 -99999 -99999 -99999 -99999 -99999 -99999 -99999 -99999 -99999 -99999 -99999 -99999 -99999 -99999 -99999 -99999 -99999 -99999 -99999 -99999 -99999 -99999 -99999 -99999 -99999 -99999 -99999 -99999 -99999 -99999 -99999 -99999 -99999 -99999 -99999 -99999 -99999 -99999 -99999 -99999 -99999 -99999 -99999 -99999 -99999 -99999 -99999 -99999 -99999 -99999 -99999 -99999 -99999 -99999 -99999 -99999 -99999 -99999 -99999 -99999 -99999 -99999 -99999 -99999 -99999 -99999 -99999 -99999 -99999 -99999 -99999 -99999 -99999 -99999 -99999 -99999 -99999 -99999 -99999 -99999 -99999 -99999 -99999 -99999 -99999 -99999 -99999 -99999 -99999 -99999 -99999 -99999 -99999 -99999 -99999 -99999 -99999 -99999 -99999 -99999 -99999 -99999 -99999 -99999 -99999 -99999 -99999 -99999 -99999 -99999 -99999
-99999 -99999 -99999 -99999 -99999 -99999 -99999 -99999 -99999 -99999 -99999 -99999 -99999 -99999 -99999 -99999 -99999 -99999 -99999 -99999 -99999 -99999 -99999 -99999 -99999 -99999 -99999 -99999 -99999 -99999 -99999 -99999 -99999 -99999 -99999 -99999 -99999 -99999 -99999 -99999 -99999 -99999 -99999 -99999 -99999 -99999 -99999 -99999 -99999 -99999 -99999 -99999 -99999 -99999 -99999 -99999 -99999 -99999 -99999 -99999 -99999 -99999 -99999 -99999 -99999 -99999 -99999 -99999 -99999 -99999 -99999 -99999 -99999 -99999 -99999 -99999 -99999 -99999 -99999 -99999 -99999 -99999 -99999 -99999 -99999 -99999 -99999 -99999 -99999 -99999 -99999 -99999 -99999 -99999 -99999 -99999 -99999 -99999 -99999 -99999 -99999 -99999 -99999 -99999 -99999 -99999 -99999 -99999 -99999 -99999 -99999 -99999 -99999 -99999 -99999 -99999 -99999 -99999 -99999 -99999 -99999 -99999 -99999 -99999 -99999 -99999 -99999 -99999 -99999 -99999 -99999 -99999 -99999 -99999 -99999 -99999 -99999 -99999 -99999 -99999 -99999 -99999 -99999 -99999 -99999 -99999 -99999 -99999 -99999 -99999 -99999 -99999 -99999 -99999 -99999 -99999
-99999 -99999 -99999 -99999 -99999 -99999 -99999 -99999 -99999 -99999 -99999 -99999 -99999 -99999 -99999 -99999 -99999 -99999 -99999 -99999 -99999 -99999 -99999 -99999 -99999 -99999 -99999 -99999 -99999 -99999 -99999 -99999 -99999 -99999 -99999 -99999 -99999 -99999 -99999 -99999 -99999 -99999 -99999 -99999 -99999 -99999 -99999 -99999 -99999 -99999 -99999 -99999 -99999 -99999 -99999 -99999 -99999 -99999 -99999 -99999 -99999 -99999 -99999 -99999 -99999 -99999 -99999 -99999 -99999 -99999 -99999 -99999 -99999 -99999 -99999 -99999 -99999 -99999 -99999 -99999 -99999 -99999 -99999 -99999 -99999 -99999 -99999 -99999 -99999 -99999 -99999 -99999 -99999 -99999 -99999 -99999 -99999 -99999 -99999 -99999 -99999 -99999 -99999 -99999 -99999 -99999 -99999 -99999 -99999 -99999 -99999 -99999 -99999 -99999 -99999 -99999 -99999 -99999 -99999 -99999 -99999 -99999 -99999 -99999 -99999 -99999 -99999 -99999 -99999 -99999 -99999 -99999 -99999 -99999 -99999 -99999 -99999 -99999 -99999 -99999 -99999 -99999 -99999 -99999 -99999 -99999 -99999 -99999 -99999 -99999 -99999 -99999 -99999 -99999 -99999 -99999
-99999 -99999 -99999 -99999 -99999 -99999 -99999 -99999 -99999 -99999 -99999 -99999 -99999 -99999 -99999 -99999 -99999 -99999 -99999 -99999 -99999 -99999 -99999 -99999 -99999 -99999 -99999 -99999 -99999 -99999 -99999 -99999 -99999 -99999 -99999 -99999 -99999 -99999 -99999 -99999 -99999 -99999 -99999 -99999 -99999 -99999 -99999 -99999 -99999 -99999 -99999 -99999 -99999 -99999 -99999 -99999 -99999 -99999 -99999 -99999 100 -99999 -99999 -99999 -99999 -99999 -99999 -99999 -99999 -99999 -99999 -99999 -99999 -99999 -99999 -99999 -99999 -99999 -99999 -99999 -99999 -99999 -99999 -99999 -99999 -99999 -99999 -99999 -99999 -99999 -99999 -99999 -99999 -99999 -99999 -99999 -99999 -99999 -99999 -99999 -99999 -99999 -99999 -99999 -99999 -99999 -99999 -99999 -99999 -99999 -99999 -99999 -99999 -99999 -99999 -99999 -99999 -99999 -99999 -99999 -99999 -99999 -99999 -99999 -99999 -99999 -99999 -99999 -99999 -99999 -99999 -99999 -99999 -99999 -99999 -99999 -99999 -99999 -99999 -99999 -99999 -99999 -99999 -99999 -99999 -99999 -99999 -99999 -99999 -99999 -99999 -99999 -99999 -99999 -99999 -99999
-99999 -99999 -99999 -99999 -99999 -99999 -99999 -99999 -99999 -99999 -99999 -99999 -99999 -99999 -99999 -99999 -99999 -99999 -99999 -99999 -99999 -99999 -99999 -99999 -99999 -99999 -99999 -99999 -99999 -99999 -99999 -99999 -99999 -99999 -99999 -99999 -99999 -99999 -99999 -99999 -99999 -99999 -99999 -99999 -99999 -99999 -99999 -99999 -99999 -99999 -99999 -99999 -99999 -99999 -99999 -99999 -99999 349.513 100 100 100 -99999 -99999 -99999 -99999 -99999 -99999 -99999 -99999 -99999 -99999 -99999 -99999 -99999 -99999 -99999 -99999 -99999 -99999 -99999 -99999 -99999 -99999 -99999 -99999 -99999 -99999 -99999 -99999 -99999 -99999 -99999 -99999 -99999 -99999 -99999 -99999 -99999 -99999 -99999 -99999 -99999 -99999 -99999 -99999 -99999 -99999 -99999 -99999 -99999 -99999 -99999 -99999 -99999 -99999 -99999 -99999 -99999 -99999 -99999 -99999 -99999 -99999 -99999 -99999 -99999 -99999 -99999 -99999 -99999 -99999 -99999 -99999 -99999 -99999 -99999 -99999 -99999 -99999 -99999 -99999 -99999 -99999 -99999 -99999 -99999 -99999 -99999 -99999 -99999 -99999 -99999 -99999 -99999 -99999 -99999
-99999 -99999 -99999 -99999 -99999 -99999 -99999 -99999 -99999 -99999 -99999 -99999 -99999 -99999 -99999 -99999 -99999 -99999 -99999 -99999 -99999 -99999 -99999 -99999 -99999 -99999 -99999 -99999 -99999 -99999 -99999 -99999 -99999 -99999 -99999 -99999 -99999 -99999 -99999 -99999 -99999 -99999 -99999 -99999 -99999 -99999 -99999 -99999 -99999 -99999 -99999 -99999 -99999 -99999 -99999 -99999 -99999 388.17 100 109.12 319.957 850.941 -99999 -99999 -99999 -99999 -99999 -99999 -99999 -99999 -99999 -99999 -99999 -99999 -99999 -99999 -99999 -99999 -99999 -99999 -99999 -99999 -99999 -99999 -99999 -99999 -99999 -99999 -99999 -99999 -99999 -99999 -99999 -99999 -99999 -99999 -99999 -99999 -99999 -99999 -99999 -99999 -99999 -99999 -99999 -99999 -99999 -99999 -99999 -99999 -99999 -99999 -99999 -99999 -99999 -99999 -99999 -99999 -99999 -99999 -99999 -99999 -99999 -99999 -99999 -99999 -99999 -99999 -99999 -99999 -99999 -99999 -99999 -99999 -99999 -99999 -99999 -99999 -99999 -99999 -99999 -99999 -99999 -99999 -99999 -99999 -99999 -99999 -99999 -99999 -99999 -99999 -99999 -99999 -99999 -99999
-99999 -99999 -99999 -99999 -99999 -99999 -99999 -99999 -99999 -99999 -99999 -99999 -99999 -99999 -99999 -99999 -99999 -99999 -99999 -99999 -99999 -99999 -99999 -99999 -99999 -99999 -99999 -99999 -99999 -99999 -99999 -99999 -99999 -99999 -99999 -99999 -99999 -99999 -99999 -99999 -99999 -99999 -99999 -99999 -99999 -99999 -99999 -99999 -99999 -99999 -99999 -99999 -99999 -99999 -99999 -99999 -99999 100 102.038 286.059 1336.22 1937.36 -99999 -99999 -99999 -99999 -99999 -99999 -99999 -99999 -99999 -99999 -99999 -99999 -99999 -99999 -99999 -99999 -99999 -99999 -99999 -99999 -99999 -99999 -99999 -99999 -99999 -99999 -99999 -99999 -99999 -99999 -99999 -99999 -99999 -99999 -99999 -99999 -99999 -99999 -99999 -99999 -99999 -99999 -99999 -99999 -99999 -99999 -99999 -99999 -99999 -99999 -99999 -99999 -99999 -99999 -99999 -99999 -99999 -99999 -99999 -99999 -99999 -99999 -99999 -99999 -99999 -99999 -99999 -99999 -99999 -99999 -99999 -99999 -99999 -99999 -99999 -99999 -99999 -99999 -99999 -99999 -99999 -99999 -99999 -99999 -99999 -99999 -99999 -99999 -99999 -99999 -99999 -99999 -99999 -99999
-99999 -99999 -99999 -99999 -99999 -99999 -99999 -99999 -99999 -99999 -99999 -99999 -99999 -99999 -99999 -99999 -99999 -99999 -99999 -99999 -99999 -99999 -99999 -99999 -99999 -99999 -99999 -99999 -99999 -99999 -99999 -99999 -99999 -99999 -99999 -99999 -99999 -99999 -99999 -99999 -99999 -99999 -99999 -99999 -99999 -99999 -99999 -99999 -99999 -99999 -99999 -99999 -99999 -99999 -99999 -99999 -99999 103.457 101.002 945.106 1709.27 1155.74 158.449 -99999 -99999 -99999 -99999 -99999 -99999 -99999 -99999 -99999 -99999 -99999 -99999 -99999 -99999 -99999 -99999 -99999 -99999 -99999 -99999 -99999 -99999 -99999 -99999 -99999 -99999 -99999 -99999 -99999 -99999 -99999 -99999 -99999 -99999 -99999 -99999 -99999 -99999 -99999 -99999 -99999 -99999 -99999 -99999 -99999 -99999 -99999 -99999 -99999 -99999 -99999 -99999 -99999 -99999 -99999 -99999 -99999 -99999 -99999 -99999 -99999 -99999 -99999 -99999 -99999 -99999 -99999 -99999 -99999 -99999 -99999 -99999 -99999 -99999 -99999 -99999 -99999 -99999 -99999 -99999 -99999 -99999 -99999 -99999 -99999 -99999 -99999 -99999 -99999 -99999 -99999 -99999 -99999
-99999 -99999 -99999 -99999 -99999 -99999 -99999 -99999 -99999 -99999 -99999 -99999 -99999 -99999 -99999 -99999 -99999 -99999 -99999 -99999 -99999 -99999 -99999 -99999 -99999 -99999 -99999 -99999 -99999 -99999 -99999 -99999 -99999 -99999 -99999 -99999 -99999 -99999 -99999 -99999 -99999 -99999 -99999 -99999 -99999 -99999 -99999 -99999 -99999 -99999 -99999 -99999 -99999 -99999 -99999 -99999 298.359 318.748 276.172 1090.45 1425.71 843.824 152.522 410.578 210.465 -99999 -99999 -99999 -99999 -99999 -99999 -99999 -99999 -99999 -99999 -99999 -99999 -99999 -99999 -99999 -99999 -99999 -99999 -99999 -99999 -99999 -99999 -99999 -99999 -99999 -99999 -99999 -99999 -99999 -99999 -99999 -99999 -99999 -99999 -99999 -99999 -99999 -99999 -99999 -99999 -99999 -99999 -99999 -99999 -99999 -99999 -99999 -99999 -99999 -99999 -99999 -99999 -99999 -99999 -99999 -99999 -99999 -99999 -99999 -99999 -99999 -99999 -99999 -99999 -99999 -99999 -99999 -99999 -99999 -99999 -99999 -99999 -99999 -99999 -99999 -99999 -99999 -99999 -99999 -99999 -99999 -99999 -99999 -99999 -99999 -99999 -99999 -99999 -99999 -99999 -99999
-99999 -99999 -99999 -99999 -99999 -99999 -99999 -99999 -99999 -99999 -99999 -99999 -99999 -99999 -99999 -99999 -99999 -99999 -99999 -99999 -99999 -99999 -99999 -99999 -99999 -99999 -99999 -99999 -99999 -99999 -99999 -99999 -99999 -99999 -99999 -99999 -99999 -99999 -99999 -99999 -99999 -99999 -99999 -99999 -99999 -99999 -99999 -99999 -99999 -99999 -99999 -99999 -99999 -99999 -99999 700.858 523.96 334.536 559.663 1699.13 1545.75 1509.38 1181.04 527.353 1300.78 -99999 -99999 -99999 -99999 -99999 -99999 -99999 -99999 -99999 -99999 -99999 -99999 -99999 -99999 -99999 -99999 -99999 -99999 -99999 -99999 -99999 -99999 -99999 -99999 -99999 -99999 -99999 -99999 -99999 -99999 -99999 -99999 -99999 -99999 -99999 -99999 -99999 -99999 -99999 -99999 -99999 -99999 -99999 -99999 -99999 -99999 -99999 -99999 -99999 -99999 -99999 -99999 -99999 -99999 -99999 -99999 -99999 -99999 -99999 -99999 -99999 -99999 -99999 -99999 -99999 -99999 -99999 -99999 -99999 -99999 -99999 -99999 -99999 -99999 -99999 -99999 -99999 -99999 -99999 -99999 -99999 -99999 -99999 -99999 -99999 -99999 -99999 -99999 -99999 -99999 -99999
-99999 -99999 -99999 -99999 -99999 -99999 -99999 -99999 -99999 -99999 -99999 -99999 -99999 -99999 -99999 -99999 -99999 -99999 -99999 -99999 -99999 -99999 -99999 -99999 -99999 -99999 -99999 -99999 -99999 -99999 -99999 -99999 -99999 -99999 -99999 -99999 -99999 -99999 -99999 -99999 -99999 -99999 -99999 -99999 -99999 -99999 -99999 -99999 -99999 -99999 -99999 -99999 -99999 -99999 -99999 868.488 1063.58 1287.17 1654.6 1296.16 1616.91 1523.38 1298.65 1332.53 1168.36 652.443 -99999 -99999 -99999 -99999 -99999 -99999 -99999 -99999 -99999 -99999 -99999 -99999 -99999 -99999 -99999 -99999 -99999 -99999 -99999 -99999 -99999 -99999 -99999 -99999 -99999 -99999 -99999 -99999 -99999 -99999 -99999 -99999 -99999 -99999 -99999 -99999 -99999 -99999 -99999 -99999 -99999 -99999 -99999 -99999 -99999 -99999 -99999 -99999 -99999 -99999 -99999 -99999 -99999 -99999 -99999 -99999 -99999 -99999 -99999 -99999 -99999 -99999 -99999 -99999 -99999 -99999 -99999 -99999 -99999 -99999 -99999 -99999 -99999 -99999 -99999 -99999 -99999 -99999 -99999 -99999 -99999 -99999 -99999 -99999 -99999 -99999 -99999 -99999 -99999 -99999
-99999 -99999 -99999 -99999 -99999 -99999 -99999 -99999 -99999 -99999 -99999 -99999 -99999 -99999 -99999 -99999 -99999 -99999 -99999 -99999 -99999 -99999 -99999 -99999 -99999 -99999 -99999 -99999 -99999 -99999 -99999 -99999 -99999 -99999 -99999 -99999 -99999 -99999 -99999 -99999 -99999 -99999 -99999 -99999 -99999 -99999 -99999 -99999 -99999 -99999 -99999 -99999 -99999 -99999 694.462 783.129 1505.16 366.66 1547.69 1249.72 1812.28 944.543 1700.93 1378.56 1471.1 2000 -99999 -99999 -99999 -99999 -99999 -99999 -99999 -99999 -99999 -99999 -99999 -99999 -99999 -99999 -99999 -99999 -99999 -99999 -99999 -99999 -99999 -99999 -99999 -99999 -99999 -99999 -99999 -99999 -99999 -99999 -99999 -99999 -99999 -99999 -99999 -99999 -99999 -99999 -99999 -99999 -99999 -99999 -99999 -99999 -99999 -99999 -99999 -99999 -99999 -99999 -99999 -99999 -99999 -99999 -99999 -99999 -99999 -99999 -99999 -99999 -99999 -99999 -99999 -99999 -99999 -99999 -99999 -99999 -99999 -99999 -99999 -99999 -99999 -99999 -99999 -99999 -99999 -99999 -99999 -99999 -99999 -99999 -99999 -99999 -99999 -99999 -99999 -99999 -99999 -99999
-99999 -99999 -99999 -99999 -99999 -99999 -99999 -99999 -99999 -99999 -99999 -99999 -99999 -99999 -99999 -99999 -99999 -99999 -99999 -99999 -99999 -99999 -99999 -99999 -99999 -99999 -99999 -99999 -99999 -99999 -99999 -99999 -99999 -99999 -99999 -99999 -99999 -99999 -99999 -99999 -99999 -99999 -99999 -99999 -99999 -99999 -99999 -99999 -99999 -99999 -99999 -99999 -99999 214.226 777.412 1584.3 1602.22 745.501 1104.23 1611.72 1777.88 1716.27 1535.12 1374.9 1311.11 -99999 -99999 -99999 -99999 -99999 -99999 -99999 -99999 -99999 628.98 1398 -99999 -99999 -99999 -99999 -99999 -99999 -99999 -99999 -99999 -99999 -99999 -99999 -99999 -99999 -99999 -99999 -99999 -99999 -99999 -99999 -99999 -99999 -99999 -99999 -99999 -99999 -99999 -99999 -99999 -99999 -99999 -99999 -99999 -99999 -99999 1335.66 831.539 636.828 -99999 -99999 -99999 -99999 -99999 -99999 -99999 -99999 -99999 -99999 -99999 -99999 -99999 -99999 -99999 -99999 -99999 -99999 -99999 -99999 -99999 -99999 -99999 -99999 -99999 -99999 -99999 -99999 -99999 -99999 -99999 -99999 -99999 -99999 -99999 -99999 -99999 -99999 -99999 -99999 -99999 -99999
-99999 -99999 -99999 -99999 -99999 -99999 -99999 -99999 -99999 -99999 -99999 -99999 -99999 -99999 -99999 -99999 -99999 -99999 -99999 -99999 -99999 -99999 -99999 -99999 -99999 -99999 -99999 -99999 -99999 -99999 -99999 -99999 -99999 -99999 -99999 -99999 -99999 -99999 -99999 -99999 -99999 -99999 -99999 -99999 -99999 -99999 -99999 -99999 -99999 -99999 -99999 -99999 1272.72 892.49 111.311 841.705 1817.05 1841.52 1649.44 1453.53 1546.35 1007.66 1232.92 1390.49 1528.91 -99999 -99999 -99999 -99999 -99999 -99999 -99999 100 297.875 1057.7 478.151 100 -99999 -99999 -99999 -99999 -99999 -99999 -99999 -99999 -99999 -99999 -99999 -99999 -99999 -99999 -99999 -99999 -99999 -99999 -99999 -99999 -99999 -99999 -99999 -99999 -99999 -99999 -99999 -99999 -99999 -99999 -99999 -99999 -99999 -99999 535.655 674.626 557.509 443.231 849.726 -99999 -99999 -99999 -99999 -99999 -99999 -99999 -99999 -99999 -99999 -99999 -99999 -99999 -99999 -99999 -99999 -99999 -99999 -99999 -99999 -99999 -99999 -99999 -99999 -99999 -99999 -99999 -99999 -99999 -99999 -99999 -99999 -99999 -99999 -99999 -99999 -99999 -99999 -99999 -99999
-99999 -99999 -99999 -99999 -99999 -99999 -99999 -99999 -99999 -99999 -99999 -99999 -99999 -99999 -99999 -99999 -99999 -99999 -99999 -99999 -99999 -99999 -99999 -99999 -99999 -99999 -99999 -99999 -99999 -99999 -99999 -99999 -99999 -99999 -99999 -99999 -99999 -99999 -99999 -99999 -99999 -99999 -99999 -99999 -99999 -99999 -99999 -99999 -99999 -99999 -99999 -99999 159.695 1008.46 741.873 556.922 765.439 1046.4 1801.91 1634.86 501.748 719.937 847.985 998.634 -99999 -99999 -99999 -99999 -99999 -99999 -99999 -99999 1788.29 1020.16 104.008 100 100 -99999 -99999 -99999 -99999 -99999 -99999 -99999 -99999 100 152.285 280.888 1567.87 -99999 -99999 -99999 -99999 -99999 -99999 -99999 -99999 -99999 100 704.809 323.454 900 -99999 -99999 -99999 -99999 -99999 -99999 -99999 -99999 756.527 886.278 711.561 654.474 1134.12 1128.39 1200.34 1085.9 1904.83 -99999 -99999 -99999 -99999 -99999 -99999 -99999 -99999 -99999 -99999 -99999 -99999 -99999 -99999 -99999 -99999 -99999 -99999 -99999 -99999 -99999 -99999 -99999 -99999 -99999 -99999 -99999 -99999 -99999 -99999 -99999 -99999 -99999 -99999 -99999 -99999 -99999
-99999 -99999 -99999 -99999 -99999 -99999 -99999 -99999 -99999 -99999 -99999 -99999 -99999 -99999 -99999 -99999 -99999 -99999 -99999 -99999 -99999 -99999 -99999 -99999 -99999 -99999 -99999 -99999 -99999 -99999 -99999 -99999 -99999 -99999 -99999 -99999 -99999 -99999 -99999 -99999 -99999 -99999 -99999 -99999 -99999 -99999 -99999 1872.98 966.373 432.752 225.521 120.137 103.101 287.995 573.602 569.086 1049.83 1368.81 1633.99 1234.38 226.218 103.04 300.889 677.348 934.555 100 -99999 -99999 873.547 1483.79 1366.99 -99999 1794.06 749.682 112.889 100 100 1412.85 1562.95 -99999 -99999 -99999 -99999 -99999 -99999 105.13 314.075 128.122 1423.76 273.335 576.274 -99999 -99999 -99999 -99999 -99999 -99999 -99999 496.382 210.131 414.231 459.924 839.287 770.599 1463.8 -99999 -99999 326.107 1170.71 1169.38 1051.11 1183.4 923.586 658.401 1267.41 1248.38 877.411 1180.81 1560.95 -99999 -99999 -99999 -99999 -99999 -99999 -99999 -99999 -99999 -99999 -99999 -99999 -99999 -99999 -99999 -99999 -99999 -99999 -99999 -99999 -99999 -99999 -99999 -99999 -99999 -99999 -99999 -99999 -99999 -99999 -99999 -99999 -99999 -99999 -99999 -99999 -99999
-99999 -99999 -99999 -99999 -99999 -99999 -99999 -99999 -99999 -99999 -99999 -99999 -99999 -99999 -99999 -99999 -99999 -99999 -99999 -99999 -99999 -99999 -99999 -99999 -99999 -99999 -99999 -99999 -99999 -99999 -99999 -99999 -99999 -99999 -99999 -99999 -99999 -99999 -99999 -99999 -99999 -99999 -99999 -99999 -99999 -99999 -99999 1662.78 290.964 690.987 1035.51 870.306 246.044 351.835 803.112 892.455 1578.09 1676.41 1323.35 1121.24 215.396 392.756 586.888 372.406 122.214 100 -99999 112.694 154.784 777.684 1522.39 1795.82 1619.36 489.991 100 100 100 589.528 198.273 100 112.194 198.149 255.954 105.781 170.555 190.89 274.292 131.493 213.193 149.43 646.228 977.477 -99999 -99999 -99999 -99999 -99999 100 1257.54 511.125 536.984 886.961 1153.46 584.153 1383.55 1307.92 101.327 100 591.138 1246.95 1196.69 1303.45 1191.42 1031.33 1274.79 563.35 1613.62 856.399 -99999 -99999 -99999 -99999 -99999 -99999 -99999 -99999 -99999 -99999 -99999 -99999 -99999 -99999 -99999 -99999 -99999 -99999 -99999 -99999 -99999 -99999 -99999 -99999 -99999 -99999 -99999 -99999 -99999 -99999 -99999 -99999 -99999 -99999 -99999 -99999 -99999 -99999
-99999 -99999 -99999 -99999 -99999 -99999 -99999 -99999 -99999 -99999 -99999 -99999 -99999 -99999 -99999 -99999 -99999 -99999 -99999 -99999 -99999 -99999 -99999 -99999 -99999 -99999 -99999 -99999 -99999 -99999 -99999 -99999 -99999 -99999 -99999 -99999 -99999 -99999 -99999 -99999 -99999 -99999 -99999 -99999 -99999 -99999 187.991 519.815 897.032 892.25 653.117 249.348 100 283.402 116.202 517.51 1749.35 1701.92 1743.25 1005.5 156.993 331.408 161.712 100 112.16 136.942 291.959 149.209 100 123.591 197.115 403.019 149.004 127.36 100 100 151.2 122.56 100 100 436.822 556.029 100 100 111.642 106.531 128.294 100 620.559 444.011 875.979 994.688 1353.46 -99999 -99999 1567.96 1630.32 769.532 676.079 342.768 474.89 1473.92 1648.03 1184.61 1468.42 1359.63 207.885 100 526.526 1431.18 1557.37 1273 1161.99 968.335 1101.24 740.305 1590.9 830.527 -99999 -99999 -99999 -99999 -99999 -99999 -99999 -99999 -99999 -99999 -99999 -99999 -99999 -99999 -99999 -99999 -99999 -99999 -99999 -99999 -99999 -99999 -99999 -99999 -99999 -99999 -99999 -99999 -99999 -99999 -99999 -99999 -99999 -99999 -99999 -99999 -99999 -99999
-99999 -99999 -99999 -99999 -99999 -99999 -99999 -99999 -99999 -99999 -99999 -99999 -99999 -99999 -99999 -99999 -99999 -99999 -99999 -99999 -99999 -99999 -99999 -99999 -99999 -99999 -99999 -99999 -99999 -99999 -99999 -99999 -99999 -99999 -99999 -99999 -99999 -99999 -99999 -99999 -99999 -99999 -99999 -99999 -99999 -99999 403.227 449.328 426.014 223.638 285.468 117.507 100 182.08 124.354 1039.78 1480.7 1305.26 1532.84 841.446 151.68 102.004 264.069 101.093 100 100 239.84 118.24 100 100 100 101.424 100 100 248.259 663.136 564.83 161.112 121.28 100 807.305 812.995 133.44 100 120.187 101.093 199.386 117.424 755.54 619.285 1437.29 895.686 485.937 406.067 1446.4 1252.63 724.444 249.023 1217.52 530.653 456.267 1647.52 1766.66 1478.52 1108.43 1422.67 777.428 414.977 469.715 1016.32 1619.05 1391.4 1328.5 1693.07 1329.48 1141.93 1211.88 1159.35 1761.33 -99999 -99999 -99999 -99999 -99999 -99999 -99999 -99999 -99999 -99999 -99999 -99999 -99999 -99999 -99999 -99999 -99999 -99999 -99999 -99999 -99999 -99999 -99999 -99999 -99999 -99999 -99999 -99999 -99999 -99999 -99999 -99999 -99999 -99999 -99999 -99999 -99999
-99999 -99999 -99999 -99999 -99999 -99999 -99999 -99999 -99999 -99999 -99999 -99999 -99999 -99999 -99999 -99999 -99999 -99999 -99999 -99999 -99999 -99999 -99999 -99999 -99999 -99999 -99999 -99999 -99999 -99999 -99999 -99999 -99999 -99999 -99999 -99999 -99999 -99999 -99999 -99999 -99999 -99999 -99999 -99999 -99999 -99999 1011.44 891.739 586.653 498.992 276.396 235.41 529.17 646.008 364.604 783.507 790.025 1179.86 1254.27 947.318 100 100 110.122 146.402 711.229 100.364 100 100 100 100 140.345 114.298 100 100 852.832 1142.05 261.348 135.688 111.431 115.929 335.318 291.393 116.48 100 112.16 200.905 712.875 489.632 1043.88 534.458 1335.54 1300 909.929 765.721 1342.5 1666.26 1265.26 988.234 915.614 238.624 514.932 1564.81 1614.19 1383.44 1019.93 1323.35 1270.25 748.579 1078.93 632.135 1191.3 1300.27 1026.65 1353.38 1143.95 755.222 1224.02 1446.82 1534.51 991.429 -99999 -99999 -99999 -99999 -99999 -99999 -99999 -99999 -99999 -99999 -99999 -99999 -99999 -99999 -99999 -99999 -99999 -99999 -99999 -99999 -99999 -99999 -99999 -99999 -99999 -99999 -99999 -99999 -99999 -99999 -99999 -99999 -99999 -99999 -99999 -99999
-99999 -99999 -99999 -99999 -99999 -99999 -99999 -99999 -99999 -99999 -99999 -99999 -99999 -99999 -99999 -99999 -99999 -99999 -99999 -99999 -99999 -99999 -99999 -99999 -99999 -99999 -99999 -99999 -99999 -99999 -99999 -99999 -99999 -99999 -99999 -99999 -99999 -99999 -99999 -99999 -99999 -99999 -99999 -99999 -99999 -99999 -99999 1115.34 1108.75 1306.96 580.017 1074.68 1134.78 746.493 593.785 156.672 322.961 802.964 133.44 374.122 107.36 134.476 204.396 1296.31 1300.68 653.093 610.019 360.652 145.6 111.858 350.901 397.209 100 229.687 1608.17 846.768 149.824 402.345 100 100 159.982 211.532 165.634 473.137 148.434 446.864 1430.66 1616.85 974.295 1250.72 1252.74 1256.17 809.987 929.132 840.131 1423.34 1195.76 1251.56 941.856 334.591 316.94 1146.18 1392.69 1022.95 1132.38 445.337 430.223 447.542 620.882 1482.48 1504.49 1173.56 1136.14 699.929 1503.29 1447.5 946.031 981.475 1191.53 1573.87 1006.38 -99999 -99999 -99999 -99999 -99999 -99999 -99999 -99999 -99999 -99999 -99999 -99999 -99999 -99999 -99999 -99999 -99999 -99999 -99999 -99999 -99999 -99999 -99999 -99999 -99999 -99999 -99999 -99999 -99999 -99999 -99999 -99999 -99999 -99999 -99999
-99999 -99999 -99999 -99999 -99999 -99999 -99999 -99999 -99999 -99999 -99999 -99999 -99999 -99999 -99999 -99999 -99999 -99999 -99999 -99999 -99999 -99999 -99999 -99999 -99999 -99999 -99999 -99999 -99999 -99999 -99999 -99999 -99999 -99999 -99999 -99999 -99999 -99999 -99999 -99999 -99999 -99999 -99999 -99999 -99999 -99999 -99999 822.064 1582.66 994.056 1503.52 1109.14 535.942 204.096 285.458 296.972 987.967 1315.94 274.669 171.655 192.107 580.714 766.037 1318.37 1695.81 1582.15 1773.98 1538.7 928.574 761.365 1298.29 1698.86 1516.74 1588.13 1493.23 1495.61 1040.08 1251.18 115.2 100 102.253 154.901 217.35 837.303 226.995 1097.72 1176.62 1502.67 1447.44 1081.33 1155.33 712.576 362.273 972.488 1392.55 1050.47 981.385 963.272 1094.48 1020.91 1008.39 1397.21 1373.66 1200.67 1474.53 1531.51 1239.77 1263.75 964.99 1005.35 1094.5 353.588 358.237 1116.05 1544.22 1470.92 1732.19 1546.16 1437.96 1608.52 -99999 -99999 -99999 -99999 -99999 -99999 -99999 -99999 -99999 -99999 -99999 -99999 -99999 -99999 -99999 -99999 -99999 -99999 -99999 -99999 -99999 -99999 -99999 -99999 -99999 -99999 -99999 -99999 -99999 -99999 -99999 -99999 -99999 -99999 -99999 -99999
-99999 -99999 -99999 -99999 -99999 -99999 -99999 -99999 -99999 -99999 -99999 -99999 -99999 -99999 -99999 -99999 -99999 -99999 -99999 -99999 -99999 -99999 -99999 -99999 -99999 -99999 -99999 -99999 -99999 -99999 -99999 -99999 -99999 -99999 -99999 -99999 -99999 -99999 -99999 -99999 -99999 -99999 -99999 -99999 -99999 -99999 -99999 1259.17 802.055 918.972 1620.13 1402.56 875.07 1175.15 806.055 1117.46 1288.42 712.552 923.955 720.244 414.164 760.253 873.443 1113.83 1164.89 1117.92 1382.88 1286.1 1072.31 1253.4 1355.09 1277.42 1502.02 1676.22 1299.79 1456.18 1446.52 526.004 100 100 238.55 323.268 840.237 1174.38 499.055 886.246 1437.69 1741.19 1412.09 761.409 1533.69 1266.23 902.041 1711.67 1063.57 1205.41 921.943 942.978 1090.05 1521.26 1551.62 1370.25 1471.94 697.678 1401.38 1659.53 1440.46 1439.76 1077.43 1396.83 1147.56 545.625 979.277 1521.18 1504.1 1676.32 1431.06 1696.24 1787.01 1235.35 1929.35 2000 -99999 -99999 -99999 -99999 -99999 -99999 -99999 -99999 -99999 -99999 -99999 -99999 -99999 -99999 -99999 -99999 -99999 -99999 -99999 -99999 -99999 -99999 -99999 -99999 -99999 -99999 -99999 -99999 -99999 -99999 -99999 -99999 -99999 -99999
-99999 -99999 -99999 -99999 -99999 -99999 -99999 -99999 -99999 -99999 -99999 -99999 -99999 -99999 -99999 -99999 -99999 -99999 -99999 -99999 -99999 -99999 -99999 -99999 -99999 -99999 -99999 -99999 -99999 -99999 -99999 -99999 -99999 -99999 -99999 -99999 -99999 -99999 -99999 -99999 -99999 -99999 -99999 -99999 1787.15 1549.81 1013.51 1678.2 1683.9 1276.57 1237.65 1172.07 1554.26 1266.69 1201.18 1546.71 1620.03 1518.86 1438.97 1380.16 1039.44 1371.83 1324.24 1726.14 1655.52 1588.52 1491.17 1493.87 1383.89 1481.19 1290.82 1476.46 1853.35 1791.29 1223.14 1597.2 1570.71 930.304 108.218 100 375.62 1241.5 1431.36 865.829 161.289 1575.98 1520.72 1733.61 1671.73 1553.51 1458.33 1516.47 1486.7 1477.86 1224.03 861.822 1018.2 1314.2 1319.99 1718.85 1376.64 1282.32 1645.12 1610.89 1692.42 1658.66 1389.33 1554.04 1402.11 1651.17 1017.2 1092.21 1543.15 1257.74 1669.65 1466.76 1168.45 1282.59 1503.94 1634.93 1545.13 1469.11 -99999 -99999 -99999 -99999 -99999 -99999 -99999 -99999 -99999 -99999 -99999 -99999 -99999 -99999 -99999 -99999 -99999 -99999 -99999 -99999 -99999 -99999 -99999 -99999 -99999 -99999 -99999 -99999 -99999 -99999 -99999 -99999 -99999 -99999
-99999 -99999 -99999 -99999 -99999 -99999 -99999 -99999 -99999 -99999 -99999 -99999 -99999 -99999 -99999 -99999 -99999 -99999 -99999 -99999 -99999 -99999 -99999 -99999 -99999 -99999 -99999 -99999 -99999 -99999 -99999 -99999 -99999 -99999 -99999 -99999 -99999 -99999 -99999 -99999 -99999 -99999 -99999 -99999 1821.38 1631.85 1569.2 1594.18 1687.9 1200.26 1524.14 1075.04 1117.71 1267.31 1723.65 1415.28 1176.46 1549.23 1561.32 1549.15 1251.3 1294.84 1198.21 1694.08 1225.98 1666.41 1570.05 1394.25 1193.57 884.713 1583.22 1377.2 1291.22 1595.84 1404 1671.71 1544.95 1407.94 100.422 100 183.496 1286.1 1441.08 773.208 998.25 1527.09 1684.29 1319.86 1615.24 1550.93 1387.13 1128.45 823.31 862.223 853.575 354.549 822.516 1262.39 876.382 1263.78 1347.13 1202.17 1496.77 1519.53 1405.23 1609.84 1324.8 1621.25 1217.01 767.414 1119.71 1123.55 896.496 1423.34 1720.29 1436.93 1274.71 1398 1646.72 1529.11 1097.53 1265.23 -99999 -99999 -99999 -99999 -99999 -99999 -99999 -99999 -99999 -99999 -99999 -99999 -99999 -99999 -99999 -99999 -99999 -99999 -99999 -99999 -99999 -99999 -99999 -99999 -99999 -99999 -99999 -99999 -99999 -99999 -99999 -99999 -99999 -99999
-99999 -99999 -99999 -99999 -99999 -99999 -99999 -99999 -99999 -99999 -99999 -99999 -99999 -99999 -99999 -99999 -99999 -99999 -99999 -99999 -99999 -99999 -99999 -99999 -99999 -99999 -99999 -99999 -99999 -99999 -99999 -99999 -99999 -99999 -99999 -99999 -99999 -99999 -99999 -99999 -99999 -99999 880.995 1452.26 1710.46 1599.34 1521.17 1542.94 1219.28 1575.38 1539.17 1120.06 667.297 1553.91 1158.98 1594.29 1463.11 1352.01 1335.54 1014.42 1341.02 1320.31 1489.77 1446.32 1257.85 1366.11 1515.05 1550.43 1467.43 1267.45 1283.42 1149.26 1356.24 1712.76 1233.27 1403.71 1361.73 1137.03 993.351 467.122 1030.77 993.573 958.69 869.465 775.188 1428.89 1437.27 821.502 1550.7 1437.07 1429.55 893.925 664.229 935.997 1064.55 1116.84 1215.55 1049.06 1293.11 1690.48 1666.97 1408.61 1553 1397.48 1355.45 1016.67 1546.67 1474.6 1457.08 1470.38 1469.11 1233.85 1272.26 1842.42 1740.36 1754.03 1638.55 1517.93 1734.79 1373.16 1137.06 911.736 -99999 -99999 -99999 -99999 -99999 -99999 -99999 -99999 -99999 -99999 -99999 -99999 -99999 -99999 -99999 -99999 -99999 -99999 -99999 -99999 -99999 -99999 -99999 -99999 -99999 -99999 -99999 -99999 -99999 -99999 -99999 -99999 -99999 -99999
-99999 -99999 -99999 -99999 -99999 -99999 -99999 -99999 -99999 -99999 -99999 -99999 -99999 -99999 -99999 -99999 -99999 -99999 -99999 -99999 -99999 -99999 -99999 -99999 -99999 -99999 -99999 -99999 -99999 -99999 -99999 -99999 -99999 -99999 -99999 -99999 -99999 -99999 -99999 -99999 -99999 -99999 1233.54 1336.52 1363.85 1731.8 843.041 1320.32 1257.65 1416.63 1376.15 755.001 1214.9 1548.78 1073.08 1454.91 1450.16 1219.04 1402.66 1559.44 1014.27 496.27 251.699 1035.33 1234.59 1557.48 1457.68 1791.2 1636.97 1454.01 1439.09 1780.66 1263.19 1616.52 1660.5 1558.86 1343.61 1547.71 1184.84 959.298 1149.85 1148.22 132.501 162.49 100 153.467 706.047 1429.33 1706.85 1729.5 1558.63 1139.66 1041.85 244.367 488.719 695.007 1393.86 1774.22 1749.08 1567.35 1094.09 1049.89 1508.16 1464.46 1436.6 1121.2 1575.35 1163.64 1283 848.832 1334.99 1573.09 1502 1850.18 1638.23 1810.1 1341.94 1654.99 1651.97 1646.57 1350.99 889.184 -99999 -99999 -99999 -99999 -99999 -99999 -99999 -99999 -99999 -99999 -99999 -99999 -99999 -99999 -99999 -99999 -99999 -99999 -99999 -99999 -99999 -99999 -99999 -99999 -99999 -99999 -99999 -99999 -99999 -99999 -99999 -99999 -99999 -99999
-99999 -99999 -99999 -99999 -99999 -99999 -99999 -99999 -99999 -99999 -99999 -99999 -99999 -99999 -99999 -99999 -99999 -99999 -99999 -99999 -99999 -99999 -99999 -99999 -99999 -99999 -99999 -99999 -99999 -99999 -99999 -99999 -99999 -99999 -99999 -99999 -99999 -99999 -99999 -99999 -99999 -99999 -99999 1668.92 1696.65 1215.61 1517.67 1226.32 769.793 1479.95 1250.41 1263.76 1499.36 1156.17 902.226 1512.13 1431.94 1208.42 1507.59 1444.91 1089.55 764.798 557.815 1371.6 1467.25 1596.22 1748.98 1791.17 1677.35 1433.4 1524.32 1678.2 1329.07 1150.4 1324.05 1795.17 1263.06 1245.73 725.36 1206.99 1637.87 1800.34 891.054 1118.29 290.302 745.586 1548.13 1144.91 1263.07 1289.94 924.457 1430.82 1554.45 101.496 100 758.808 1170.2 1002.42 1522.22 1843.09 1325.33 1276.7 1487.69 1287.3 1609.36 1596.16 1662.14 1424.58 1035.3 732.316 1440.2 1114.56 914.019 1726.74 1841.62 1401.6 1456.55 1500.38 1135.83 1588.99 1409.54 740.499 -99999 -99999 -99999 -99999 -99999 -99999 -99999 -99999 -99999 -99999 -99999 -99999 -99999 -99999 -99999 -99999 -99999 -99999 -99999 -99999 -99999 -99999 -99999 -99999 -99999 -99999 -99999 -99999 -99999 -99999 -99999 -99999 -99999 -99999
-99999 -99999 -99999 -99999 -99999 -99999 -99999 -99999 -99999 -99999 -99999 -99999 -99999 -99999 -99999 -99999 -99999 -99999 -99999 -99999 -99999 -99999 -99999 -99999 -99999 -99999 -99999 -99999 -99999 -99999 -99999 -99999 -99999 -99999 -99999 -99999 -99999 -99999 -99999 -99999 -99999 -99999 -99999 1964.35 1914.08 1798 1057.06 959.44 738.428 1083.85 967.472 1206.09 1857.96 1074.03 940.198 1226.03 1617.07 1533.82 1141.77 1457.09 1636.52 1633.46 849.806 1218.1 912.585 1587.55 1609.71 1751.92 1262.23 1687.7 1329.08 856.373 1331.63 950.064 1284.47 1460.08 1502.2 1561.3 1347.28 1118.56 1330.11 1557.48 1424.04 887.194 720.768 1468.1 1700.39 976.713 1515.42 1430.44 1585.2 1433.49 825.932 100 100 377.742 1054.98 1258.33 1581.08 1433.06 1168.33 1193.73 702.678 504.33 1364.7 1136.73 1477.73 1192.78 1251.95 1403.4 1405.75 1156.9 1505.31 1266.44 1312.9 1599.79 1214.66 1691.18 1616.47 1251.56 1631.37 1446.64 -99999 -99999 -99999 -99999 -99999 -99999 -99999 -99999 -99999 -99999 -99999 -99999 -99999 -99999 -99999 -99999 -99999 -99999 -99999 -99999 -99999 -99999 -99999 -99999 -99999 -99999 -99999 -99999 -99999 -99999 -99999 -99999 -99999 -99999
-99999 -99999 -99999 -99999 -99999 -99999 -99999 -99999 -99999 -99999 -99999 -99999 -99999 -99999 -99999 -99999 -99999 -99999 -99999 -99999 -99999 -99999 -99999 -99999 -99999 -99999 -99999 -99999 -99999 -99999 -99999 -99999 -99999 -99999 -99999 -99999 -99999 -99999 -99999 -99999 -99999 -99999 -99999 -99999 1640.45 1758.68 1580.33 1433.88 1052.48 1060.9 1330.11 1133.19 1702.9 1014.64 1094.59 1268.79 1691.16 1271.46 1187.91 1544.35 1824.71 1526.87 1222 1142.46 1275.72 1264.05 1310.01 1244.34 1809.52 1506.94 1564.86 1492.04 1486.92 877.037 1409.56 1007.01 957.805 1213.7 1112.49 1596.39 427.249 553.49 1486.57 533.432 315.881 893.762 1700.81 1464.98 1198.87 1357.04 1282.42 1080.47 480.699 100 1161.42 951.853 1044.02 926.664 1360.19 1255.94 1174.28 319.502 613.079 1065.38 1212.16 1619.82 1443.45 989.69 1453.1 1615.82 1552.63 1276.91 1703.8 1712.08 1050.34 1712.86 1865.1 1535.44 1797.65 1788.55 1384.21 1189.89 -99999 -99999 -99999 -99999 -99999 -99999 -99999 -99999 -99999 -99999 -99999 -99999 -99999 -99999 -99999 -99999 -99999 -99999 -99999 -99999 -99999 -99999 -99999 -99999 -99999 -99999 -99999 -99999 -99999 -99999 -99999 -99999 -99999 -99999
-99999 -99999 -99999 -99999 -99999 -99999 -99999 -99999 -99999 -99999 -99999 -99999 -99999 -99999 -99999 -99999 -99999 -99999 -99999 -99999 -99999 -99999 -99999 -99999 -99999 -99999 -99999 -99999 -99999 -99999 -99999 -99999 -99999 -99999 -99999 -99999 -99999 -99999 -99999 -99999 -99999 -99999 -99999 -99999 1329.56 1737.55 1653.91 1727.5 1551.9 1750.84 1488.11 1265.05 1022.73 1158.34 1264.76 1604.34 1481.6 1683.58 1552.18 1626.13 1432.77 985.307 1505.52 1616.1 1420.35 1355.75 1373.43 1610.46 966.326 1706.39 1787.66 1826.69 1416.35 1175.43 1188.84 693.531 1125.21 1237.22 664.739 1140.72 128.996 958.966 1207.33 660.602 507.491 750.719 1412.53 1313.31 1027.98 976.646 964.219 947.833 125.558 397.605 1503.56 1352.29 1166.34 916.143 544.039 1220.82 750.956 534.954 181.015 1058.22 1089.78 274.651 628.15 425.967 1004.75 1498.27 1740.47 664.245 1416.73 1647.11 1193.96 1286.7 1568.17 1652.87 1519.05 1506.38 1502.74 1158.35 -99999 -99999 -99999 -99999 -99999 -99999 -99999 -99999 -99999 -99999 -99999 -99999 -99999 -99999 -99999 -99999 -99999 -99999 -99999 -99999 -99999 -99999 -99999 -99999 -99999 -99999 -99999 -99999 -99999 -99999 -99999 -99999 -99999 -99999
-99999 -99999 -99999 -99999 -99999 -99999 -99999 -99999 -99999 -99999 -99999 -99999 -99999 -99999 -99999 -99999 -99999 -99999 -99999 -99999 -99999 -99999 -99999 -99999 -99999 -99999 -99999 -99999 -99999 -99999 -99999 -99999 -99999 -99999 -99999 -99999 -99999 -99999 -99999 -99999 -99999 -99999 -99999 -99999 -99999 1976.32 1660.14 1670.74 1697.29 1634.76 1706.17 1540.32 1483.13 1180.88 1277.5 1425.92 1442.84 1592.14 1284.72 1149.05 1605.41 1509.96 1044.4 1633.45 788.679 1217.6 1443.9 1790.91 1371.35 1244.8 1146.87 1625.59 1198.21 715.565 1273.58 809.042 585.249 692.886 1440.65 1070.59 991.885 1091.77 1086.25 709.286 567.615 1182.26 1464.76 1405.87 823.355 325.444 1076.73 474.785 326.191 385.98 1273.88 1040.65 678.065 1377.14 696.207 795.183 943.347 591.759 102.742 625.591 1396.62 439.546 696.984 129.364 736.256 1560.64 1529.94 1608.67 1345.63 1152.27 1626.49 1423.4 1527.12 1411.99 1276.93 1436.22 1097.94 -99999 -99999 -99999 -99999 -99999 -99999 -99999 -99999 -99999 -99999 -99999 -99999 -99999 -99999 -99999 -99999 -99999 -99999 -99999 -99999 -99999 -99999 -99999 -99999 -99999 -99999 -99999 -99999 -99999 -99999 -99999 -99999 -99999 -99999 -99999
-99999 -99999 -99999 -99999 -99999 -99999 -99999 -99999 -99999 -99999 -99999 -99999 -99999 -99999 -99999 -99999 -99999 -99999 -99999 -99999 -99999 -99999 -99999 -99999 -99999 -99999 -99999 -99999 -99999 -99999 -99999 -99999 -99999 -99999 -99999 -99999 -99999 -99999 -99999 -99999 -99999 -99999 -99999 -99999 -99999 -99999 1512.65 1458.37 1851.82 1968.78 1614.24 1490.97 1374.49 1028.7 899.897 1568.4 1408.94 1641.9 1276.06 1651.9 1672.03 1389.91 1503.04 1506.74 1338.91 1440.21 1222.95 1218.08 1671.83 1706.47 1188.52 1264.85 1456.73 1706.6 1338.01 1242.54 1441.55 1416.38 1031.33 1734.93 1324.28 1498.19 1545.15 1459.54 702.651 549.506 1807.7 1637.01 789.019 354.737 582.417 215.505 115.353 590.947 837.402 1309.68 619.174 358.669 759.475 744.289 951.366 134.609 100 788.95 751.831 907.512 186.328 100 972.515 1097.99 1206.73 1810.79 1830.5 1697.88 1787.19 1587.98 1622.52 1425.53 1739.52 1472.15 -99999 -99999 -99999 -99999 -99999 -99999 -99999 -99999 -99999 -99999 -99999 -99999 -99999 -99999 -99999 -99999 -99999 -99999 -99999 -99999 -99999 -99999 -99999 -99999 -99999 -99999 -99999 -99999 -99999 -99999 -99999 -99999 -99999 -99999 -99999 -99999
-99999 -99999 -99999 -99999 -99999 -99999 -99999 -99999 -99999 -99999 -99999 -99999 -99999 -99999 -99999 -99999 -99999 -99999 -99999 -99999 -99999 -99999 -99999 -99999 -99999 -99999 -99999 -99999 -99999 -99999 -99999 -99999 -99999 -99999 -99999 -99999 -99999 -99999 -99999 -99999 -99999 -99999 -99999 -99999 -99999 -99999 680.3 1176.49 1565.12 1674.5 1779.01 1644.72 1390.45 665.534 675.03 905.612 832.42 812.794 1789.36 1560.58 1569.02 1546.33 1570.51 1541.43 1631.69 1297.07 1269.46 1443.45 1654.37 1597.89 1820.12 1724.21 1407.06 1198.49 1302.83 1460.31 1215.78 1653.21 1755.59 1362.96 1216.53 1038.76 1296.54 1090.72 222.998 665.809 1837.53 1684.84 1020.31 475.159 142.72 101.002 197 731.461 534.78 865.165 859.753 669.788 726.37 993.534 219.848 100 131.436 498.469 787.088 537.801 100 100 907.726 1630.7 1120.67 1610.07 1774.12 1691.96 1186.04 1033.27 1525.76 1515.12 1398.04 992.696 -99999 -99999 -99999 -99999 -99999 -99999 -99999 -99999 -99999 -99999 -99999 -99999 -99999 -99999 -99999 -99999 -99999 -99999 -99999 -99999 -99999 -99999 -99999 -99999 -99999 -99999 -99999 -99999 -99999 -99999 -99999 -99999 -99999 -99999 -99999 -99999
-99999 -99999 -99999 -99999 -99999 -99999 -99999 -99999 -99999 -99999 -99999 -99999 -99999 -99999 -99999 -99999 -99999 -99999 -99999 -99999 -99999 -99999 -99999 -99999 -99999 -99999 -99999 -99999 -99999 -99999 -99999 -99999 -99999 -99999 -99999 -99999 -99999 -99999 -99999 -99999 -99999 -99999 -99999 -99999 -99999 -99999 886.123 1024.22 1126.45 1591.9 1964.53 1191.29 1266.01 1412.17 1125.48 1025.52 905.572 624.612 1252.24 959.737 1518.81 1839.81 760.2 1291.2 1406.43 1227.86 1169.62 1595.1 1605.52 1027.62 1648.27 1673.53 1694.62 979.015 1010.06 1476.87 914.072 1563.04 1341.14 1486.8 1478.35 1211.94 1051.8 612.01 440.848 635.539 1023.68 1653.63 912.917 388.116 107.36 123.874 487.444 723.549 1242.78 1308.42 1114.65 725.484 586.449 178.232 100 145.414 102.004 277.426 1122.87 335.504 551.6 725.6 163.557 1130.57 1759.7 1622.7 1640.14 1571.58 1649.38 1273.79 1468.19 1321.48 1025.88 -99999 -99999 -99999 -99999 -99999 -99999 -99999 -99999 -99999 -99999 -99999 -99999 -99999 -99999 -99999 -99999 -99999 -99999 -99999 -99999 -99999 -99999 -99999 -99999 -99999 -99999 -99999 -99999 -99999 -99999 -99999 -99999 -99999 -99999 -99999 -99999 -99999
-99999 -99999 -99999 -99999 -99999 -99999 -99999 -99999 -99999 -99999 -99999 -99999 -99999 -99999 -99999 -99999 -99999 -99999 -99999 -99999 -99999 -99999 -99999 -99999 -99999 -99999 -99999 -99999 -99999 -99999 -99999 -99999 -99999 -99999 -99999 -99999 -99999 -99999 -99999 -99999 -99999 -99999 -99999 -99999 -99999 -99999 785.501 1372.98 1553.76 1428.81 1686.49 1635.32 1578.92 1322.06 969.506 926.496 1238.45 1469.81 1402.72 1531.72 1683.93 1404.08 1082.23 1215.9 1175.57 941.171 546.826 1228.5 1593.31 1188.21 1451.19 1532.49 1612.58 1380.72 1233.08 989.898 1258.61 1196.65 1289.81 1474.41 1257.38 854.519 959.582 364.401 1519.51 1742.14 1535.62 1712.86 1575.76 433.247 156.647 234.921 1193.65 887.984 1004.92 712.516 986.107 1132.18 221.602 699.957 433.009 271.494 109.12 577.613 1615.99 1513.16 1667.08 774.351 159.031 255.228 1254.38 1564.93 1461.18 1359.78 1107.17 1492.44 1502.72 1440.73 1248.2 -99999 -99999 -99999 -99999 -99999 -99999 -99999 -99999 -99999 -99999 -99999 -99999 -99999 -99999 -99999 -99999 -99999 -99999 -99999 -99999 -99999 -99999 -99999 -99999 -99999 -99999 -99999 -99999 -99999 -99999 -99999 -99999 -99999 -99999 -99999 -99999 -99999
-99999 -99999 -99999 -99999 -99999 -99999 -99999 -99999 -99999 -99999 -99999 -99999 -99999 -99999 -99999 -99999 -99999 -99999 -99999 -99999 -99999 -99999 -99999 -99999 -99999 -99999 -99999 -99999 -99999 -99999 -99999 -99999 -99999 -99999 -99999 -99999 -99999 -99999 -99999 -99999 -99999 -99999 -99999 -99999 -99999 -99999 1028.9 1419.8 1390.74 1549.6 1558.32 957.862 1511.79 1355.69 1182.46 593.416 1874.68 1359.98 1161.35 1506.07 1204.54 1382.99 1363.45 1728.32 1315.67 287.952 647.319 1368.29 1046.25 1326.78 1615.95 1418.62 1011.13 844.057 583.809 928.007 1047.99 1339 1416.42 1502.77 1490.84 1603.56 1099.38 302.577 898.115 1600.45 1538.23 835.424 1086.75 649.285 241.27 180.148 1363.77 1332.46 748.73 823.637 1234.28 1333.69 517.824 993.476 801.393 543.124 164.796 829.343 1425.71 1117.11 1772.97 1142.39 945.875 354.606 425.176 1061.12 1125.92 969.292 658.554 978.357 490.583 119.117 853.072 -99999 -99999 -99999 -99999 -99999 -99999 -99999 -99999 -99999 -99999 -99999 -99999 -99999 -99999 -99999 -99999 -99999 -99999 -99999 -99999 -99999 -99999 -99999 -99999 -99999 -99999 -99999 -99999 -99999 -99999 -99999 -99999 -99999 -99999 -99999 -99999 -99999
-99999 -99999 -99999 -99999 -99999 -99999 -99999 -99999 -99999 -99999 -99999 -99999 -99999 -99999 -99999 -99999 -99999 -99999 -99999 -99999 -99999 -99999 -99999 -99999 -99999 -99999 -99999 -99999 -99999 -99999 -99999 -99999 -99999 -99999 -99999 -99999 -99999 -99999 -99999 -99999 -99999 -99999 -99999 -99999 -99999 -99999 780.554 1192.54 1307.45 1267.9 1626.78 1357.46 1490.29 1327.82 1678.5 1400.6 1823.02 1122.5 1114.29 1628.14 1386.06 1508.96 1346.02 1657.61 1399.66 403.436 708.69 977.203 1415.54 1390.54 1670.67 918.314 287.656 150.062 213.229 1219.12 733.095 1001.23 1530.68 946.768 1403.38 1399.49 1412.75 783.544 1292.23 1422.44 1066.13 1437.4 1101.39 701.776 699.766 187.886 1246.48 1358.53 1225.15 1366.33 1508.14 1519.52 967.396 1077.74 970.826 847.523 172.485 1582.85 1456.94 1296.87 1525.66 875.262 1822.24 1390.15 1077.68 1587.05 1288.34 165.008 241.103 988.725 151.138 103.523 1028.31 -99999 -99999 -99999 -99999 -99999 -99999 -99999 -99999 -99999 -99999 -99999 -99999 -99999 -99999 -99999 -99999 -99999 -99999 -99999 -99999 -99999 -99999 -99999 -99999 -99999 -99999 -99999 -99999 -99999 -99999 -99999 -99999 -99999 -99999 -99999 -99999 -99999
-99999 -99999 -99999 -99999 -99999 -99999 -99999 -99999 -99999 -99999 -99999 -99999 -99999 -99999 -99999 -99999 -99999 -99999 -99999 -99999 -99999 -99999 -99999 -99999 -99999 -99999 -99999 -99999 -99999 -99999 -99999 -99999 -99999 -99999 -99999 -99999 -99999 -99999 -99999 -99999 -99999 -99999 -99999 -99999 -99999 -99999 1782.01 1473.58 1266.14 1520.5 1779.85 1723.96 1658.98 1561.96 1148.47 1582.9 1828.42 1262.5 1099.33 1404.57 1139.16 1322.19 1210.57 1613.42 1693.95 989.178 869.769 804.219 1432.02 1664.59 1470.56 515.163 129.754 227.36 173.799 1466.15 833.973 1071.45 1609.34 372.32 214.286 346.099 1155.82 720.473 953.958 1396.79 1406.86 1586.95 725.9 887.979 444.048 123.798 749.241 1117.8 582.314 1422.41 1576.3 977.977 1227.12 1132.9 774.746 838.45 787.048 1066.66 1641.32 1166.22 1306.7 993.959 1087.85 633.282 879.924 1124.7 1376.07 285.645 462.983 245.361 197.76 100 -99999 -99999 -99999 -99999 -99999 -99999 -99999 -99999 -99999 -99999 -99999 -99999 -99999 -99999 -99999 -99999 -99999 -99999 -99999 -99999 -99999 -99999 -99999 -99999 -99999 -99999 -99999 -99999 -99999 -99999 -99999 -99999 -99999 -99999 -99999 -99999 -99999 -99999
-99999 -99999 -99999 -99999 -99999 -99999 -99999 -99999 -99999 -99999 -99999 -99999 -99999 -99999 -99999 -99999 -99999 -99999 -99999 -99999 -99999 -99999 -99999 -99999 -99999 -99999 -99999 -99999 -99999 -99999 -99999 -99999 -99999 -99999 -99999 -99999 -99999 -99999 -99999 -99999 -99999 -99999 -99999 -99999 -99999 -99999 1213.33 1270.47 1240 1150.61 1402.57 1519.22 1235.57 871.886 1355.45 1133.4 1786.34 1312.65 1177.69 1394.44 1696.51 1599.71 621.375 1278.57 1666.09 1668.64 1193.02 1180.46 1428.32 1398.28 1222.81 1050.05 636.954 114.72 101.502 782.202 675.427 1093.5 1273.1 204.81 121.28 334.413 609.511 506.28 1182.54 1419.4 1112.2 1184.05 1394.5 1326.57 708.277 139.553 1036.35 1013.95 1326.78 1532.81 1477.77 1284.02 1570.78 1239.75 1310.58 1271.81 1188.87 818.888 1046.63 1156.35 1309.28 639.619 724.355 762.317 903.328 649.178 1287.26 716.56 453.173 660.301 230.647 100 -99999 -99999 -99999 -99999 -99999 -99999 -99999 -99999 -99999 -99999 -99999 -99999 -99999 -99999 -99999 -99999 -99999 -99999 -99999 -99999 -99999 -99999 -99999 -99999 -99999 -99999 -99999 -99999 -99999 -99999 -99999 -99999 -99999 -99999 -99999 -99999 -99999 -99999
-99999 -99999 -99999 -99999 -99999 -99999 -99999 -99999 -99999 -99999 -99999 -99999 -99999 -99999 -99999 -99999 -99999 -99999 -99999 -99999 -99999 -99999 -99999 -99999 -99999 -99999 -99999 -99999 -99999 -99999 -99999 -99999 -99999 -99999 -99999 -99999 -99999 -99999 -99999 -99999 -99999 -99999 -99999 -99999 -99999 -99999 928.828 1436.36 1469.17 1141.68 1133.63 1564.12 1301.19 632.119 310.845 913.071 1378.69 1155.73 1664.21 1566.76 1698.02 1489.62 1634.89 1659.66 1465.65 1631.69 1827.32 1115.4 1502.77 1307.84 958.095 978.388 648.422 127.973 100.738 151.741 871.576 1205.75 918.851 140.254 137.17 131.863 523.815 378.482 620.565 1110.23 874.457 954.409 1434.61 1450.48 607.564 361.582 1282.64 905.938 1019.7 1677.79 1807.96 1417.81 1653.26 563.422 628.042 773.383 1118.69 1213.03 563.904 883.928 773.218 203.59 608.46 640.52 1225.46 1128.64 1230.06 1366.57 1128.91 964.096 412.03 102.093 100 -99999 -99999 -99999 -99999 -99999 -99999 -99999 -99999 -99999 -99999 -99999 -99999 -99999 -99999 -99999 -99999 -99999 -99999 -99999 -99999 -99999 -99999 -99999 -99999 -99999 -99999 -99999 -99999 -99999 -99999 -99999 -99999 -99999 -99999 -99999 -99999 -99999
-99999 -99999 -99999 -99999 -99999 -99999 -99999 -99999 -99999 -99999 -99999 -99999 -99999 -99999 -99999 -99999 -99999 -99999 -99999 -99999 -99999 -99999 -99999 -99999 -99999 -99999 -99999 -99999 -99999 -99999 -99999 -99999 -99999 -99999 -99999 -99999 -99999 -99999 -99999 -99999 -99999 -99999 -99999 -99999 -99999 -99999 1443.64 1589.96 749.408 1433.22 1600.73 1607.64 1694.73 1128.82 258.361 207.041 113.215 979.813 1247.42 922.934 990.658 1471.89 1383.47 1571.99 1011.51 1354.77 1532.5 1357.86 1462.85 1146.49 1209.17 762.008 900.563 743.703 270.26 286.449 598.875 687.591 761.222 329.397 385.3 182.199 310.806 386.776 1421.6 1340.47 665.519 1100.09 1632.38 1043.59 528.243 849.156 877.734 1051.75 997.468 1648.41 1352.02 1232.37 946.146 1183.66 1553.57 578.63 872.961 932.649 152.178 616.806 277.338 100 497.256 228.188 788.127 563.915 968.304 1072.6 1377.67 1465.15 1182.26 690.398 156.229 -99999 -99999 -99999 -99999 -99999 -99999 -99999 -99999 -99999 -99999 -99999 -99999 -99999 -99999 -99999 -99999 -99999 -99999 -99999 -99999 -99999 -99999 -99999 -99999 -99999 -99999 -99999 -99999 -99999 -99999 -99999 -99999 -99999 -99999 -99999 -99999 -99999
-99999 -99999 -99999 -99999 -99999 -99999 -99999 -99999 -99999 -99999 -99999 -99999 -99999 -99999 -99999 -99999 -99999 -99999 -99999 -99999 -99999 -99999 -99999 -99999 -99999 -99999 -99999 -99999 -99999 -99999 -99999 -99999 -99999 -99999 -99999 -99999 -99999 -99999 -99999 -99999 -99999 -99999 -99999 -99999 -99999 -99999 1695.19 1445.67 1452.66 1450.05 1774.48 1466.82 1419.97 790.192 919.888 833.13 903.065 610.045 830.118 565.855 1399.03 1580.77 1053.08 823.645 122.74 490.388 1425.51 1374.64 1434.58 1338.59 1356.89 541.989 924.3 621.072 153.538 127.876 189.053 227.662 725.746 744.386 612.801 536.234 744.038 743.985 934.792 511.889 1206.59 1030.81 1364.5 704.566 749.431 680.092 1144.53 1255.04 1152.09 1245.25 1196.71 1431.01 1300.07 1739.87 906.088 1384.05 1171.37 1078.04 944.481 939.805 837.479 205.553 323.869 502.821 345.15 522.561 273.507 194.446 345.717 944.934 489.958 1081.36 940.402 -99999 -99999 -99999 -99999 -99999 -99999 -99999 -99999 -99999 -99999 -99999 -99999 -99999 -99999 -99999 -99999 -99999 -99999 -99999 -99999 -99999 -99999 -99999 -99999 -99999 -99999 -99999 -99999 -99999 -99999 -99999 -99999 -99999 -99999 -99999 -99999 -99999
-99999 -99999 -99999 -99999 -99999 -99999 -99999 -99999 -99999 -99999 -99999 -99999 -99999 -99999 -99999 -99999 -99999 -99999 -99999 -99999 -99999 -99999 -99999 -99999 -99999 -99999 -99999 -99999 -99999 -99999 -99999 -99999 -99999 -99999 -99999 -99999 -99999 -99999 -99999 -99999 -99999 -99999 -99999 -99999 -99999 -99999 1478.15 1423.61 1454.6 1034.85 492.216 665.89 1355.84 1403.32 1123.18 1456.59 1549.21 1563.57 1318.07 1346.5 1419.42 1564.38 1273.23 989.989 1090.89 609.275 669.089 1409.82 978.243 962.37 1490 337.455 624.296 256.92 133.709 137.735 135.874 119.885 324.257 804.643 825.349 837.445 846.669 641.369 1328.29 1660.32 1728.12 1490.88 1658.4 516.938 827.854 887.639 791.728 1192.83 1323.75 1305.18 1035.56 1316.21 944.6 1100.08 1180.34 1386.24 1243.58 1379.8 1199.31 1058.17 1315.43 971.708 539.622 1052.2 788.045 321.87 104.076 100 100 214.343 348.907 1418.05 1654.96 1746.02 -99999 -99999 -99999 -99999 -99999 -99999 -99999 -99999 -99999 -99999 -99999 -99999 -99999 -99999 -99999 -99999 -99999 -99999 -99999 -99999 -99999 -99999 -99999 -99999 -99999 -99999 -99999 -99999 -99999 -99999 -99999 -99999 -99999 -99999 -99999 -99999
-99999 -99999 -99999 -99999 -99999 -99999 -99999 -99999 -99999 -99999 -99999 -99999 -99999 -99999 -99999 -99999 -99999 -99999 -99999 -99999 -99999 -99999 -99999 -99999 -99999 -99999 -99999 -99999 -99999 -99999 -99999 -99999 -99999 -99999 -99999 -99999 -99999 -99999 -99999 -99999 -99999 -99999 -99999 -99999 -99999 -99999 1246.01 1265.56 718.439 752.552 207.642 580.477 1159.76 1107.43 1521.8 1272.81 1736.8 1892.6 1358.11 983.603 790.435 1367.35 530.64 966.577 811.13 708.242 592.127 216.315 843.992 1067.6 1476.09 888.484 119.578 100 100 119.251 187.415 557.882 815.184 732.368 612.34 1054.61 969.408 969.865 1148.12 1307.79 1120.46 1438.01 1521.41 1393.1 750.526 916.62 475.002 1274.26 1205.98 1376.15 639.519 940.601 759.74 721.901 793.774 1059.19 1408.36 1084.63 833.139 777.425 916.559 955.269 842.749 590.137 137.584 137.975 214.179 330.545 100 708.163 118.734 -99999 -99999 -99999 -99999 -99999 -99999 -99999 -99999 -99999 -99999 -99999 -99999 -99999 -99999 -99999 -99999 -99999 -99999 -99999 -99999 -99999 -99999 -99999 -99999 -99999 -99999 -99999 -99999 -99999 -99999 -99999 -99999 -99999 -99999 -99999 -99999 -99999 -99999 -99999
-99999 -99999 -99999 -99999 -99999 -99999 -99999 -99999 -99999 -99999 -99999 -99999 -99999 -99999 -99999 -99999 -99999 -99999 -99999 -99999 -99999 -99999 -99999 -99999 -99999 -99999 -99999 -99999 -99999 -99999 -99999 -99999 -99999 -99999 -99999 -99999 -99999 -99999 -99999 -99999 -99999 -99999 -99999 -99999 -99999 -99999 -99999 996.082 1044.36 1409.08 846.052 860.082 1312.41 1581.94 1718.56 1411.16 1466.08 1799.01 406.98 746.585 1438.01 1401.87 539.518 799.073 745.653 447.085 611.35 359.533 797.804 1023.85 867.242 761.712 212.329 106.08 115.2 100 144.549 471.631 795.012 768.589 1092.69 952.516 968.435 1310.77 705.753 977.809 1222.46 1578.79 854.402 1018.79 1548.76 796.797 1013.95 1171.23 1158.34 1027.62 731.952 473.811 452.727 645.439 874.044 676.659 945.713 1103.34 1344.29 1509.72 1472.46 1429.11 1190.47 105.013 100 100 312.64 113.533 229.452 -99999 -99999 -99999 -99999 -99999 -99999 -99999 -99999 -99999 -99999 -99999 -99999 -99999 -99999 -99999 -99999 -99999 -99999 -99999 -99999 -99999 -99999 -99999 -99999 -99999 -99999 -99999 -99999 -99999 -99999 -99999 -99999 -99999 -99999 -99999 -99999 -99999 -99999 -99999 -99999 -99999
-99999 -99999 -99999 -99999 -99999 -99999 -99999 -99999 -99999 -99999 -99999 -99999 -99999 -99999 -99999 -99999 -99999 -99999 -99999 -99999 -99999 -99999 -99999 -99999 -99999 -99999 -99999 -99999 -99999 -99999 -99999 -99999 -99999 -99999 -99999 -99999 -99999 -99999 -99999 -99999 -99999 -99999 -99999 -99999 -99999 -99999 100 576.903 1035.77 1313.94 989.015 608.43 909.617 931.228 1015.85 1020.89 1069.38 1510.92 503.047 707.72 953.193 871.222 275.012 366.348 155.905 481.78 927.394 988.194 856.272 1076.41 819.5 928.378 251.671 100 121.28 100 189.806 546.085 817.463 399.475 1139.36 1073.03 755.139 1189.47 1119.29 1366.27 1634.25 1449.64 624.143 290.161 873.579 1350.49 1507.74 1352.27 1416.26 1033.31 1349.51 549.443 665.119 604.008 1763.74 925.892 1012.5 1326.4 1060.54 1263.84 1415.61 1406.65 1352.65 149.942 100 100 100 200.759 326.548 -99999 -99999 -99999 -99999 -99999 -99999 -99999 -99999 -99999 -99999 -99999 -99999 -99999 -99999 -99999 -99999 -99999 -99999 -99999 -99999 -99999 -99999 -99999 -99999 -99999 -99999 -99999 -99999 -99999 -99999 -99999 -99999 -99999 -99999 -99999 -99999 -99999 -99999 -99999 -99999 -99999
-99999 -99999 -99999 -99999 -99999 -99999 -99999 -99999 -99999 -99999 -99999 -99999 -99999 -99999 -99999 -99999 -99999 -99999 -99999 -99999 -99999 -99999 -99999 -99999 -99999 -99999 -99999 -99999 -99999 -99999 -99999 -99999 -99999 -99999 -99999 -99999 -99999 -99999 -99999 -99999 -99999 -99999 -99999 -99999 -99999 1241.78 923.206 869.185 1564.87 1371.02 904.579 799.292 1268.49 1328.94 842.355 757.783 956.843 898.902 1110.65 691.502 1176.64 794.939 765.754 145.603 385.176 332.124 890.581 1175.98 1454.08 543.26 931.231 1075.23 630.066 436.73 196.514 100 213.328 641.033 1253.19 934.811 1245.72 807.605 1389.87 849.373 806.124 1016.76 1449.11 1283.79 1665.78 1260.84 1171.81 1325.06 931.571 388.228 973.856 1381.15 1311.97 1065.75 490.153 1087.46 1717.28 1550.64 1249.95 542.608 746.487 1018.27 1195.06 1391.85 1476.7 1088.56 149.694 100 100 100 100 -99999 -99999 -99999 -99999 -99999 -99999 -99999 -99999 -99999 -99999 -99999 -99999 -99999 -99999 -99999 -99999 -99999 -99999 -99999 -99999 -99999 -99999 -99999 -99999 -99999 -99999 -99999 -99999 -99999 -99999 -99999 -99999 -99999 -99999 -99999 -99999 -99999 -99999 -99999 -99999 -99999
-99999 -99999 -99999 -99999 -99999 -99999 -99999 -99999 -99999 -99999 -99999 -99999 -99999 -99999 -99999 -99999 -99999 -99999 -99999 -99999 -99999 -99999 -99999 -99999 -99999 -99999 -99999 -99999 -99999 -99999 -99999 -99999 -99999 -99999 -99999 -99999 -99999 -99999 -99999 -99999 -99999 -99999 -99999 -99999 -99999 831.788 755.627 961.62 1500 1357.07 1361.81 969.229 1357.18 1502.34 1064.47 902.692 1321.48 1293.85 1167.35 1052.6 961.83 811.643 759.255 611.304 553.792 1038.74 941.494 1166.66 879.601 331.588 977.563 1043.26 1141.65 1087.43 251.694 127.456 788.282 588.827 951.527 1390.04 1232.5 1267.51 815.229 778.427 631.085 1577.19 1262.56 1303.88 1475.73 1589.78 952.09 1078.26 855.006 960.599 775.015 1241.92 1153.52 731.618 746.202 1096.48 918.474 1299.78 442.855 128.558 553.545 1137.81 967.997 1258.08 1442.72 656.694 141.92 189.6 172.853 118.05 -99999 -99999 -99999 -99999 -99999 -99999 -99999 -99999 -99999 -99999 -99999 -99999 -99999 -99999 -99999 -99999 -99999 -99999 -99999 -99999 -99999 -99999 -99999 -99999 -99999 -99999 -99999 -99999 -99999 -99999 -99999 -99999 -99999 -99999 -99999 -99999 -99999 -99999 -99999 -99999 -99999 -99999
-99999 -99999 -99999 -99999 -99999 -99999 -99999 -99999 -99999 -99999 -99999 -99999 -99999 -99999 -99999 -99999 -99999 -99999 -99999 -99999 -99999 -99999 -99999 -99999 -99999 -99999 -99999 -99999 -99999 -99999 -99999 -99999 -99999 -99999 -99999 -99999 -99999 -99999 -99999 -99999 -99999 -99999 -99999 -99999 -99999 479.373 534.386 1373.73 1284.59 913.942 1531.08 1283.86 1486.87 1715.26 923.701 1083.62 1304.74 1097.41 941.656 1214.62 609.792 1011.03 1072.67 994.534 1012.09 1339.41 1243.12 539.432 498.807 591.612 1272.17 1305.1 1106.03 1309.45 458.953 493.168 438.15 199.71 263.437 1221.85 1155.55 1161.7 1024.72 931.868 1163.3 1262.23 1185.27 966.649 1299.6 1627.27 1129.38 1572.67 1333.24 1617.47 1185.1 1203.55 1297.2 1156.51 780.309 916.365 1721.35 1674.18 298.381 198.828 366.396 819.162 1564.67 731.697 952.222 232.037 557.467 741.872 1169.7 1731.48 -99999 -99999 -99999 -99999 -99999 -99999 -99999 -99999 -99999 -99999 -99999 -99999 -99999 -99999 -99999 -99999 -99999 -99999 -99999 -99999 -99999 -99999 -99999 -99999 -99999 -99999 -99999 -99999 -99999 -99999 -99999 -99999 -99999 -99999 -99999 -99999 -99999 -99999 -99999 -99999 -99999 -99999
-99999 -99999 -99999 -99999 -99999 -99999 -99999 -99999 -99999 -99999 -99999 -99999 -99999 -99999 -99999 -99999 -99999 -99999 -99999 -99999 -99999 -99999 -99999 -99999 -99999 -99999 -99999 -99999 -99999 -99999 -99999 -99999 -99999 -99999 -99999 -99999 -99999 -99999 -99999 -99999 -99999 -99999 -99999 -99999 -99999 759.359 667.069 1613.81 1161.61 246.039 1217.64 997.359 984.97 1228.35 1239.76 837.486 1163.32 613.575 1300.16 1088.65 776.269 1031.45 787.165 993.888 842.434 1326.38 884.712 328.889 257.59 759.17 832.807 771.243 1141.16 1037.09 1549.71 1242.34 554.902 476.959 765.278 562.894 1141.52 968.21 1204.27 781.64 1413.32 1247.63 1267.52 1246.67 930.284 1200.58 807.284 1505.11 1587.95 1434.39 1460.85 1385.38 961.324 604.084 785.872 1035.24 1258.94 1724.12 466.61 347.982 443.413 727.571 1094.22 1741.15 1398.1 676.721 491.498 1187.44 800.287 365.6 -99999 -99999 -99999 -99999 -99999 -99999 -99999 -99999 -99999 -99999 -99999 -99999 -99999 -99999 -99999 -99999 -99999 -99999 -99999 -99999 -99999 -99999 -99999 -99999 -99999 -99999 -99999 -99999 -99999 -99999 -99999 -99999 -99999 -99999 -99999 -99999 -99999 -99999 -99999 -99999 -99999 -99999
-99999 -99999 -99999 -99999 -99999 -99999 -99999 -99999 -99999 -99999 -99999 -99999 -99999 -99999 -99999 -99999 -99999 -99999 -99999 -99999 -99999 -99999 -99999 -99999 -99999 -99999 -99999 -99999 -99999 -99999 -99999 -99999 -99999 -99999 -99999 -99999 -99999 -99999 -99999 -99999 -99999 -99999 -99999 -99999 -99999 840.113 1104.62 1579.99 1235.98 1194.71 1109.22 1173.72 1392.05 1161.31 1307.4 987.333 928.918 834.689 437.263 1530.55 788.566 898.533 731.157 929.754 1467.74 1413.66 927.444 842.827 189.982 314.744 561.799 549.049 1142.22 836.743 986.653 1141.01 236.092 635.382 1043.92 1023.84 1122.44 1460.58 883.477 784.621 987.113 1016.51 1209.73 1348.5 1172.23 350.834 699.353 1322.65 1571.93 1630.11 1557.47 1278.68 1479.44 1114.11 841.135 1068.84 1013.78 935.764 1023.67 207.128 576.677 487.044 286.002 469.068 1018.78 1258.32 1376.16 1330.89 1080.92 1065.52 -99999 -99999 -99999 -99999 -99999 -99999 -99999 -99999 -99999 -99999 -99999 -99999 -99999 -99999 -99999 -99999 -99999 -99999 -99999 -99999 -99999 -99999 -99999 -99999 -99999 -99999 -99999 -99999 -99999 -99999 -99999 -99999 -99999 -99999 -99999 -99999 -99999 -99999 -99999 -99999 -99999 -99999
-99999 -99999 -99999 -99999 -99999 -99999 -99999 -99999 -99999 -99999 -99999 -99999 -99999 -99999 -99999 -99999 -99999 -99999 -99999 -99999 -99999 -99999 -99999 -99999 -99999 -99999 -99999 -99999 -99999 -99999 -99999 -99999 -99999 -99999 -99999 -99999 -99999 -99999 -99999 -99999 -99999 -99999 -99999 -99999 1909.43 1181.03 1019.27 865.185 830.948 1333.25 1526.02 1565.21 1167.34 1236.34 1088.14 784.227 803.978 1201.26 623.911 1254.63 767.012 722.665 604.348 805.388 1111.89 1599.99 1848.33 1020.78 149.733 170.631 349.83 839.454 960.787 1167.41 712.872 959.793 1047.38 1361.26 1303.34 1296.59 1020.02 1069.64 1151.13 832.008 1133.69 1064.02 1488.84 889.4 1313.33 1081.23 1187.66 1070.06 1642.66 1571.51 1512.04 1474.05 1657.59 1136.83 1271.77 1231.59 908.735 661.296 1021.64 347.384 493.185 744.927 631.098 355.001 443.617 979.167 1388.52 1306.51 1316.69 925.634 -99999 -99999 -99999 -99999 -99999 -99999 -99999 -99999 -99999 -99999 -99999 -99999 -99999 -99999 -99999 -99999 -99999 -99999 -99999 -99999 -99999 -99999 -99999 -99999 -99999 -99999 -99999 -99999 -99999 -99999 -99999 -99999 -99999 -99999 -99999 -99999 -99999 -99999 -99999 -99999 -99999 -99999
-99999 -99999 -99999 -99999 -99999 -99999 -99999 -99999 -99999 -99999 -99999 -99999 -99999 -99999 -99999 -99999 -99999 -99999 -99999 -99999 -99999 -99999 -99999 -99999 -99999 -99999 -99999 -99999 -99999 -99999 -99999 -99999 -99999 -99999 -99999 -99999 -99999 -99999 -99999 -99999 -99999 -99999 -99999 -99999 -99999 560.156 497.03 851.577 1031 1088.34 1316.26 1221 1620.48 1153.29 1242.98 1248.11 541.444 908.413 523.728 1000.57 962.065 665.442 580.025 812.207 817.954 862.33 1294.26 790.995 189.55 486.864 644.761 947.559 944.006 874.671 1227.25 759.109 763.592 999.756 705.317 957.516 1132.69 1169.43 513.274 687.815 1188.95 1038.15 1162.49 700.18 953.494 1492.08 1381.35 1328.39 921.159 1451.23 1046.71 1178.69 1376.84 1263.07 774.298 774.873 1159.1 320.875 815.074 215.897 114.488 505.397 549.119 256.063 795.336 1128.18 1495.1 -99999 -99999 -99999 -99999 -99999 -99999 -99999 -99999 -99999 -99999 -99999 -99999 -99999 -99999 -99999 -99999 -99999 -99999 -99999 -99999 -99999 -99999 -99999 -99999 -99999 -99999 -99999 -99999 -99999 -99999 -99999 -99999 -99999 -99999 -99999 -99999 -99999 -99999 -99999 -99999 -99999 -99999 -99999 -99999 -99999
-99999 -99999 -99999 -99999 -99999 -99999 -99999 -99999 -99999 -99999 -99999 -99999 -99999 -99999 -99999 -99999 -99999 1783.05 1722.02 1775.38 1872.47 1068.28 1276.88 1559.88 1257.76 1571.89 -99999 -99999 -99999 -99999 -99999 -99999 -99999 -99999 -99999 -99999 -99999 -99999 -99999 -99999 -99999 -99999 -99999 -99999 -99999 223.06 677.508 536.335 1296.72 760.047 830.516 1045.63 1552.35 1494.95 1358.09 1350.21 564.523 1090.09 1000.12 894.042 484.975 674.169 366.958 864.8 1069.08 1155.82 925.754 596.663 643.753 1572.06 1359.01 634.574 1236.99 1020.87 780.373 303.009 118.762 736.932 600.617 224.235 702.485 786.016 486.393 566.733 1082.57 1284.55 1110.36 1571.28 1170.75 1005.06 1169.42 1181.13 1046.2 1408.55 1345.82 872.894 521.164 976.503 1166.79 1192.43 968.856 788.227 377.149 298.946 473.826 661.92 404.061 460.707 821.848 1161.39 -99999 -99999 -99999 -99999 -99999 -99999 -99999 -99999 -99999 -99999 -99999 -99999 -99999 -99999 -99999 -99999 -99999 -99999 -99999 -99999 -99999 -99999 -99999 -99999 -99999 -99999 -99999 -99999 -99999 -99999 -99999 -99999 -99999 -99999 -99999 -99999 -99999 -99999 -99999 -99999 -99999 -99999 -99999 -99999 -99999 -99999
-99999 -99999 -99999 -99999 -99999 -99999 -99999 -99999 -99999 -99999 -99999 -99999 -99999 -99999 -99999 -99999 -99999 1823.71 1570.3 1444.42 1425.57 1047.97 1368.66 615.488 1067.89 1609.51 -99999 -99999 -99999 -99999 -99999 -99999 -99999 -99999 -99999 -99999 -99999 -99999 -99999 -99999 -99999 -99999 -99999 -99999 100 417.65 998.782 563.661 683.208 858.146 995.176 1348.96 1227.81 1385.16 920.872 1410.77 784.94 1223.11 705.063 858.477 612.829 694.157 622.005 1038.84 634.138 491.121 700.758 507.715 1043.98 966.637 886.829 631.985 1428.53 1350.95 1239.51 883.642 756.1 315.359 938.647 298.276 356.641 273.714 1301.56 1121.15 1303.06 882.923 926.219 879.625 1299.79 1436.52 1303.52 1272.3 392.566 1094.84 1155.85 643.336 506.143 1606.52 1488.22 1410.39 1029.56 848.755 722.06 516.304 1165.39 1201.31 581.533 840.411 1177.36 914.57 -99999 -99999 -99999 -99999 -99999 -99999 -99999 -99999 -99999 -99999 -99999 -99999 -99999 -99999 -99999 -99999 -99999 -99999 -99999 -99999 -99999 -99999 -99999 -99999 -99999 -99999 -99999 -99999 -99999 -99999 -99999 -99999 -99999 -99999 -99999 -99999 -99999 -99999 -99999 -99999 -99999 -99999 -99999 -99999 -99999 -99999
-99999 -99999 -99999 -99999 -99999 -99999 -99999 -99999 -99999 -99999 -99999 -99999 -99999 -99999 -99999 -99999 -99999 -99999 1556.89 879.528 1136.12 1540.54 1404.07 332.053 1077.06 942.785 1983.78 -99999 -99999 -99999 -99999 -99999 -99999 -99999 -99999 -99999 -99999 -99999 -99999 -99999 -99999 -99999 -99999 -99999 100 1076.19 425.318 521.453 613.682 664.026 853.224 1412.9 1511.88 1063.21 1540.41 791.435 1018.55 1523.98 1052.36 1071.53 700.554 923.427 918.929 827.856 719.618 943.437 723.553 1274.61 1020.35 1468.75 1382.51 1076.78 1477 1451.94 668.794 376.483 726.748 235.604 397.114 261.764 191.017 390.716 803.339 1213.82 1181.53 1057.1 984.331 664.825 526.113 1285.47 927.886 1334.71 1295.73 1017.77 831.872 1121.16 881.567 639.575 721.071 1229.16 1287.92 282.758 743.552 369.641 750.23 1229.62 643.861 951.527 1159.48 1129.14 -99999 -99999 -99999 -99999 -99999 -99999 -99999 -99999 -99999 -99999 -99999 -99999 -99999 -99999 -99999 -99999 -99999 -99999 -99999 -99999 -99999 -99999 -99999 -99999 -99999 -99999 -99999 -99999 -99999 -99999 -99999 -99999 -99999 -99999 -99999 -99999 -99999 -99999 -99999 -99999 -99999 -99999 -99999 -99999 -99999 -99999
-99999 -99999 -99999 -99999 -99999 -99999 -99999 -99999 -99999 -99999 -99999 -99999 -99999 -99999 -99999 -99999 -99999 -99999 100 1357.61 1518.21 1614.05 1815.4 808.197 663.87 763.936 1580.72 1313.09 1463.98 -99999 -99999 -99999 -99999 -99999 -99999 -99999 -99999 -99999 -99999 -99999 -99999 -99999 -99999 -99999 910.948 987.376 918.66 336.987 172.181 402.442 788.447 1299.54 1477.34 721.743 1383.9 1272.61 1501.31 1538.64 1407.53 1207.77 701.822 792.841 488.282 789.803 1494.3 1503.53 1168.65 1280.65 1430.9 1750.78 1233.92 1363.07 1435.55 984.193 112.223 203.197 419.996 273.188 100 100 371.253 1310.35 1113.28 1192.02 662.671 995.524 632.916 279.5 604.285 1094.88 1299.34 1387.1 1485.28 1727.28 644.413 1484.65 253.25 711.857 1062.63 457.97 950.783 865.948 692.423 308.243 347.991 1735.9 1256.56 872.565 1146.93 890.71 -99999 -99999 -99999 -99999 -99999 -99999 -99999 -99999 -99999 -99999 -99999 -99999 -99999 -99999 -99999 -99999 -99999 -99999 -99999 -99999 -99999 -99999 -99999 -99999 -99999 -99999 -99999 -99999 -99999 -99999 -99999 -99999 -99999 -99999 -99999 -99999 -99999 -99999 -99999 -99999 -99999 -99999 -99999 -99999 -99999 -99999
-99999 -99999 -99999 -99999 -99999 -99999 -99999 -99999 -99999 -99999 -99999 -99999 -99999 -99999 -99999 -99999 -99999 -99999 -99999 1352.58 809.165 718.518 1485.37 1278.98 1748.45 1799.14 1184.12 1366.99 967.103 1092.65 100 100 323.98 182.871 632 100 -99999 -99999 -99999 -99999 -99999 -99999 1745.83 1521.57 950.97 887.799 762.53 100 122.138 229.58 911.396 1185.96 1020.36 1022.37 988.502 1003.01 1374.84 1385.09 1290.9 729.04 808.982 1158.51 555.433 948.896 886.702 633.881 1260.84 1536.28 1429.56 1486.86 1264.16 1693.97 1049.76 243.202 167.43 506.27 103.04 125.322 100 100 160.315 699.911 945.368 1360.62 778.793 967.82 767.072 585.887 633.773 332.132 876.5 1251.03 1528.02 1584.26 753.847 208.626 761.96 271.963 589.586 419.13 1051.88 860.183 506.781 342.86 832.302 857.634 1044.06 970.112 1567.11 1048.54 -99999 -99999 -99999 -99999 -99999 -99999 -99999 -99999 -99999 -99999 -99999 -99999 -99999 -99999 -99999 -99999 -99999 -99999 -99999 -99999 -99999 -99999 -99999 -99999 -99999 -99999 -99999 -99999 -99999 -99999 -99999 -99999 -99999 -99999 -99999 -99999 -99999 -99999 -99999 -99999 -99999 -99999 -99999 -99999 -99999 -99999
-99999 -99999 -99999 -99999 -99999 -99999 -99999 -99999 -99999 -99999 -99999 -99999 -99999 -99999 -99999 -99999 -99999 -99999 -99999 1122.58 1388.13 388.262 1417.93 1296.89 1538.05 1557.2 1177.61 992.419 657.838 683.9 100 100 109.12 100 158.694 100 100 -99999 135.12 168.545 -99999 1974.33 1539.4 1589.08 1123.85 1383.95 235.299 100 344.405 377.541 737.137 715.522 1252.05 777.42 621.537 621.219 1459.93 1676.91 1663.11 1116.28 732.795 1015.54 855.168 977.658 1108.93 1533.96 1076.83 885.394 625.061 1393.79 1147.29 1224.1 519.362 171.801 100 100 169.76 100 188.18 134.47 100 210.601 950.619 1266.79 1080.78 879.244 1098.5 707.837 410.185 114.04 820.221 785.029 1122.86 1326.51 1315.34 170.643 710.988 120.888 100.153 208.413 690.318 542.814 251.071 351.368 708.591 901.639 1034.93 1019.68 -99999 -99999 -99999 -99999 -99999 -99999 -99999 -99999 -99999 -99999 -99999 -99999 -99999 -99999 -99999 -99999 -99999 -99999 -99999 -99999 -99999 -99999 -99999 -99999 -99999 -99999 -99999 -99999 -99999 -99999 -99999 -99999 -99999 -99999 -99999 -99999 -99999 -99999 -99999 -99999 -99999 -99999 -99999 -99999 -99999 -99999 -99999 -99999
-99999 -99999 -99999 -99999 -99999 -99999 -99999 -99999 -99999 -99999 -99999 -99999 -99999 -99999 -99999 -99999 -99999 -99999 -99999 -99999 1968.94 234.496 1110.48 1381.7 1138.51 1641.39 1486.17 1490.91 379.514 372.785 652.403 815.399 171.11 146.09 355.766 128.089 100 207.515 188.564 204.74 864.033 1685.17 743.644 1368.51 1583.09 621.778 112.746 111.36 343.392 106.046 100 682.96 885.382 276.626 699.791 504.508 812.072 1501.64 1180.95 1338.54 730.758 1096.51 783.538 838.677 1344 1428 1306.03 574.086 855.114 1332.54 1296.93 193.756 528.597 553.367 100 100 100 100 109.786 107.724 106.65 210.245 483.587 840.104 1041.8 693.94 533.962 574.787 372.129 265.044 359.058 249.161 324.577 385.953 733.291 959.938 393.521 147.645 352.583 723.156 652.978 548.009 100 107.149 399.559 1364.12 1692.48 -99999 -99999 -99999 -99999 -99999 -99999 -99999 -99999 -99999 -99999 -99999 -99999 -99999 -99999 -99999 -99999 -99999 -99999 -99999 -99999 -99999 -99999 -99999 -99999 -99999 -99999 -99999 -99999 -99999 -99999 -99999 -99999 -99999 -99999 -99999 -99999 -99999 -99999 -99999 -99999 -99999 -99999 -99999 -99999 -99999 -99999 -99999 -99999 -99999
-99999 -99999 -99999 -99999 -99999 -99999 -99999 -99999 -99999 -99999 -99999 -99999 -99999 -99999 -99999 -99999 -99999 -99999 -99999 -99999 -99999 100 839.47 1541.14 1081.83 1147.14 1636.5 1643.13 1598.57 491.358 908.399 1793.51 800.844 853.188 598.997 910.664 456.746 510.486 301.973 393.188 1293.74 1738.5 1128.5 1416.29 838.096 939.452 142.464 100 767.926 362.829 123.355 740.611 553.398 530.706 958.993 1132.66 1464.82 1552.13 1069.22 1344.36 1273.01 677.544 585.667 731.439 1255.85 1412.8 1348.73 287.831 898.214 946.089 870.591 1079.64 464.659 428 100 100 100 253.28 100 100 550.584 701.892 1281.17 1231.92 946.108 139.462 537.379 404.491 100 100 100 100 147.236 1318.21 920.146 640.034 305.381 158.483 876.645 1570.33 723.005 419.644 100 100 229.873 1204.76 1913.83 -99999 -99999 -99999 -99999 -99999 -99999 -99999 -99999 -99999 -99999 -99999 -99999 -99999 -99999 -99999 -99999 -99999 -99999 -99999 -99999 -99999 -99999 -99999 -99999 -99999 -99999 -99999 -99999 -99999 -99999 -99999 -99999 -99999 -99999 -99999 -99999 -99999 -99999 -99999 -99999 -99999 -99999 -99999 -99999 -99999 -99999 -99999 -99999 -99999
-99999 -99999 -99999 -99999 -99999 -99999 -99999 -99999 -99999 -99999 -99999 -99999 -99999 -99999 -99999 -99999 -99999 -99999 -99999 -99999 -99999 -99999 1746.54 1592.76 1543.38 1477.68 1672.11 1376.85 1324.22 1469.3 1128.43 1313.59 334.044 447.769 1645.3 630.678 1045.28 1409.21 1189.27 1672.86 1663.91 1635.93 840.801 1634.83 1601.38 1309.07 422.825 106.39 254.176 1128.22 696.306 956.222 772.214 571.845 930.928 1217.35 703.876 1040.74 1274.56 1480.58 1415.27 1063.99 925.671 865.304 1146.65 872.878 1214.88 1379.1 920.044 922.17 1247.57 1461.26 1059.07 829.827 185.087 401.094 235.961 201.24 110.443 535.944 1355.56 980.338 1366.62 1403.48 827.893 172.568 983.686 128.762 125.778 100 100 100 100 633.527 931.061 847.079 1164.81 125.6 753.531 450.515 769.023 199.42 100 100 155.423 255.071 100 -99999 -99999 -99999 -99999 -99999 -99999 -99999 -99999 -99999 -99999 -99999 -99999 -99999 -99999 -99999 -99999 -99999 -99999 -99999 -99999 -99999 -99999 -99999 -99999 -99999 -99999 -99999 -99999 -99999 -99999 -99999 -99999 -99999 -99999 -99999 -99999 -99999 -99999 -99999 -99999 -99999 -99999 -99999 -99999 -99999 -99999 -99999 -99999 -99999
-99999 -99999 -99999 -99999 -99999 -99999 -99999 -99999 -99999 -99999 -99999 -99999 -99999 -99999 -99999 -99999 -99999 -99999 -99999 -99999 -99999 -99999 2000 1736.6 1295.34 528.427 1296.39 1487.76 492.459 993.916 1245.95 1327.67 855.486 1493.11 1921.51 1727.7 1357.83 1387.22 1558.26 1606.02 1779.42 1663.73 1706.67 1495.05 1504.36 1343.44 908.069 406.292 1114.3 1779.72 1489.96 1265.76 986.746 772.75 1207.59 1377.18 1282.53 1074.76 1086.24 1218.16 1237.17 1288.95 708.315 803.926 479.892 899.015 1283.36 324.258 501.537 763.733 1426.67 1616.45 863.353 456.201 655.148 1138.07 1467.11 1495.84 479.913 949.13 973.355 1601.39 1604.66 1309.91 1076.17 304.203 512.796 288.522 183.316 331.599 653.114 101.822 103.04 368.288 1056.1 1721.8 1794.94 1091.21 971.989 1152.12 1249.38 1098.86 366.49 101.433 188.73 824.325 -99999 -99999 -99999 -99999 -99999 -99999 -99999 -99999 -99999 -99999 -99999 -99999 -99999 -99999 -99999 -99999 -99999 -99999 -99999 -99999 -99999 -99999 -99999 -99999 -99999 -99999 -99999 -99999 -99999 -99999 -99999 -99999 -99999 -99999 -99999 -99999 -99999 -99999 -99999 -99999 -99999 -99999 -99999 -99999 -99999 -99999 -99999 -99999 -99999 -99999
-99999 -99999 -99999 -99999 -99999 -99999 -99999 -99999 -99999 -99999 -99999 -99999 -99999 -99999 -99999 -99999 -99999 -99999 -99999 -99999 -99999 -99999 -99999 1360.06 1191.63 1430.92 959.769 1279.09 1517.98 1740.18 1404.45 796.036 1628.92 1242.98 1514.66 1827.04 1338.7 1039 1849.42 1613.62 1414.97 1686.09 1052.33 1113.05 1767.56 987.33 405.598 282.957 1341.49 1231.02 1306.75 1030.74 1291.12 1299.99 1559.5 885.627 1178.57 1330.06 963.188 529.939 755.783 1232.73 496.053 390.047 307.026 957.114 1245.56 759.249 432.183 289.731 379.994 1227.08 1568.15 1280.27 1326.96 1615.99 1800.84 572.829 105.26 434.714 586.641 1203.99 856.52 1491.18 1111.24 1426.05 757.675 400.426 100 295.945 1495.38 1283.6 563.549 536.439 983.042 1450.44 1800.07 1898.67 1783.76 1312.47 1058.71 574.663 546.07 237.011 283.538 1298.71 -99999 -99999 -99999 -99999 -99999 -99999 -99999 -99999 -99999 -99999 -99999 -99999 -99999 -99999 -99999 -99999 -99999 -99999 -99999 -99999 -99999 -99999 -99999 -99999 -99999 -99999 -99999 -99999 -99999 -99999 -99999 -99999 -99999 -99999 -99999 -99999 -99999 -99999 -99999 -99999 -99999 -99999 -99999 -99999 -99999 -99999 -99999 -99999 -99999 -99999
-99999 -99999 -99999 -99999 -99999 -99999 -99999 -99999 -99999 -99999 -99999 -99999 -99999 -99999 -99999 -99999 -99999 -99999 -99999 -99999 -99999 -99999 -99999 727.092 1147.57 1569.35 1469.37 487.411 771.768 1041.33 1522.57 1572.75 1666.44 1236.56 1791.08 1849.49 1594.11 1297.59 1404.11 1816.72 1633.69 1523.03 1433.94 1261.96 968.156 960.59 225.122 688.701 1132.95 1068.14 763.754 851.42 1200.53 1505.78 1456.36 729.58 1033.55 1162.42 1261.63 301.95 592.544 668.438 691.959 579.737 360.284 1016.07 788.533 533.575 255.487 214.105 225.6 423.941 699.541 1050.77 1506.33 1898.71 1537.48 214.62 389.528 379.783 176.674 245.04 970.227 1139.36 1285.43 882.119 1271.57 208.522 117.482 1304.98 1469.13 1563.24 1411.43 1502.14 987.647 932.763 1774.95 1580.53 462.249 535.431 318.702 107.68 153.462 106.08 100 100 -99999 -99999 -99999 -99999 -99999 -99999 -99999 -99999 -99999 -99999 -99999 -99999 -99999 -99999 -99999 -99999 -99999 -99999 -99999 -99999 -99999 -99999 -99999 -99999 -99999 -99999 -99999 -99999 -99999 -99999 -99999 -99999 -99999 -99999 -99999 -99999 -99999 -99999 -99999 -99999 -99999 -99999 -99999 -99999 -99999 -99999 -99999 -99999 -99999 -99999
-99999 -99999 -99999 -99999 -99999 -99999 -99999 -99999 -99999 -99999 -99999 -99999 -99999 -99999 -99999 -99999 -99999 -99999 -99999 -99999 -99999 -99999 -99999 -99999 761.944 1038.93 389.316 181.631 474.357 796.329 1120.09 1732.05 1712.38 1346.69 1731.03 1432.95 735.373 1169.98 1283.69 1172.54 1145.06 981.39 1161.93 524.118 893.058 369.326 271.633 484.727 1687.64 717.531 1608.05 705.005 1242.23 1508.95 1149.34 768.599 867.028 1435.55 1250.03 267.012 1107.23 1368.82 744.542 502.454 281.368 1000.52 1171.72 770.193 495.075 523.523 378.672 180.388 291.626 398.692 957.044 1242.42 473.77 576.473 831.493 530.485 420.188 260.198 325.407 400.139 1131.02 672.799 544.789 110.731 136.6 104.56 851.681 1588.65 1371.58 1511.69 1377.82 896.374 1678.57 798.319 594.69 162.987 100 100 106.88 101.127 100.153 118.328 -99999 -99999 -99999 -99999 -99999 -99999 -99999 -99999 -99999 -99999 -99999 -99999 -99999 -99999 -99999 -99999 -99999 -99999 -99999 -99999 -99999 -99999 -99999 -99999 -99999 -99999 -99999 -99999 -99999 -99999 -99999 -99999 -99999 -99999 -99999 -99999 -99999 -99999 -99999 -99999 -99999 -99999 -99999 -99999 -99999 -99999 -99999 -99999 -99999 -99999
-99999 -99999 -99999 -99999 -99999 -99999 -99999 -99999 -99999 -99999 -99999 -99999 -99999 -99999 -99999 -99999 -99999 -99999 -99999 -99999 -99999 -99999 -99999 -99999 -99999 100 100 100 264.16 262.914 1158.32 1796.26 1229.03 1627.21 1560.11 1546.39 1519.39 1083.87 646.957 1024.2 1487.58 1208.58 1111.25 237.767 918.608 337.083 1038.82 915.437 964.923 1687.4 1145.57 600.741 867.449 1350.65 205.813 100 405.323 968.07 842.899 146.08 393.837 1167.82 1061.48 720.492 1075.13 1436.57 1089.63 369.085 281.677 330.984 360.796 172.181 315.279 291.817 1415.55 906.759 575.203 554.181 561.666 758.296 408.061 126.143 209.309 269.427 151.197 128.648 101.002 100 104.042 100 171.485 564.199 511.081 1021.96 1660.54 1162.55 1289.68 819.085 100 100 100 100 101.28 100 100 1025.4 100 -99999 -99999 -99999 -99999 -99999 -99999 -99999 -99999 -99999 -99999 -99999 -99999 -99999 -99999 -99999 -99999 -99999 -99999 -99999 -99999 -99999 -99999 -99999 -99999 -99999 -99999 -99999 -99999 -99999 -99999 -99999 -99999 -99999 -99999 -99999 -99999 -99999 -99999 -99999 -99999 -99999 -99999 -99999 -99999 -99999 -99999 -99999 -99999 -99999
-99999 -99999 -99999 -99999 -99999 -99999 -99999 -99999 -99999 -99999 -99999 -99999 -99999 -99999 -99999 -99999 -99999 -99999 -99999 -99999 -99999 -99999 -99999 -99999 -99999 -99999 100 100 115.27 172.026 165.359 721.272 1404.87 1206.55 1104.46 1718.14 1732.61 555.93 1363.54 1046.06 1191.31 1054.96 890.172 780.734 587.641 317.542 1361.55 1233.46 1308.53 1340.72 1080.96 530.239 497.614 385.85 102.038 100 100 384.791 226.729 119.596 136.551 244.034 629.536 482.446 534.052 1106.08 131.1 491.683 254.928 823.585 1105.5 381.573 693.978 308.12 619.473 1356.43 1221.47 675.016 658.968 655.44 533.646 820.926 353.136 121.214 131.253 275.467 109.12 100 105.6 124.105 939.225 1103.32 741.006 431.023 449.371 1255.78 685.042 395.963 145.722 145.158 411.151 168.849 100 100 100 969.33 -99999 -99999 -99999 -99999 -99999 -99999 -99999 -99999 -99999 -99999 -99999 -99999 -99999 -99999 -99999 -99999 -99999 -99999 -99999 -99999 -99999 -99999 -99999 -99999 -99999 -99999 -99999 -99999 -99999 -99999 -99999 -99999 -99999 -99999 -99999 -99999 -99999 -99999 -99999 -99999 -99999 -99999 -99999 -99999 -99999 -99999 -99999 -99999 -99999 -99999
-99999 -99999 -99999 -99999 -99999 -99999 -99999 -99999 -99999 -99999 -99999 -99999 -99999 -99999 -99999 -99999 -99999 -99999 -99999 -99999 -99999 -99999 -99999 -99999 -99999 -99999 -99999 -99999 100 718.891 298.57 288.479 150.543 140.426 748.894 1329.78 1578.09 1196.95 1400.88 1631.04 1561.14 1622.48 1375.86 1156.82 1253.26 1043.54 1479.65 890.335 1330.02 477.991 324.36 182.654 187.691 102.676 104.407 215.2 153.92 215.913 106.08 102.004 136.438 104.247 100 179.116 896.697 1174.05 247.419 260.427 239.241 384.15 884.913 500.645 619.698 845.425 607.147 1437.58 1261.12 1050.22 1068.55 671.966 853.582 1412.87 794.526 735.54 189.352 510.813 103.04 100 104.32 100 100.371 129.092 124.008 1569.44 1155.38 1474.79 106.929 100 100 100 100 100 100 100 100 100 -99999 -99999 -99999 -99999 -99999 -99999 -99999 -99999 -99999 -99999 -99999 -99999 -99999 -99999 -99999 -99999 -99999 -99999 -99999 -99999 -99999 -99999 -99999 -99999 -99999 -99999 -99999 -99999 -99999 -99999 -99999 -99999 -99999 -99999 -99999 -99999 -99999 -99999 -99999 -99999 -99999 -99999 -99999 -99999 -99999 -99999 -99999 -99999 -99999 -99999
-99999 -99999 -99999 -99999 -99999 -99999 -99999 -99999 -99999 -99999 -99999 -99999 -99999 -99999 -99999 -99999 -99999 -99999 -99999 -99999 -99999 -99999 -99999 -99999 -99999 -99999 -99999 -99999 -99999 -99999 444.518 408.1 100 100 586.49 1346.36 1652.43 1495.58 1557.78 922.832 1233.86 1639.69 1542.37 1452.3 793.514 1339.54 1028.02 839.708 620.055 580.261 258.782 239.177 162.901 235.871 126.838 147.84 140.302 182.502 100 102.676 481.96 142.158 100 212.48 557.964 799.663 237.724 240.901 111.36 100 202.026 850.037 444.988 659.814 819.386 809.012 1000.09 1156.66 1665.97 945.73 1564.64 1506.03 1209.22 657.699 1354.74 1649.92 1156.28 176.81 100 100 103.04 100 604.553 595.858 613.763 667.971 138.283 100 100 100 100 100 100 100 100 100 -99999 -99999 -99999 -99999 -99999 -99999 -99999 -99999 -99999 -99999 -99999 -99999 -99999 -99999 -99999 -99999 -99999 -99999 -99999 -99999 -99999 -99999 -99999 -99999 -99999 -99999 -99999 -99999 -99999 -99999 -99999 -99999 -99999 -99999 -99999 -99999 -99999 -99999 -99999 -99999 -99999 -99999 -99999 -99999 -99999 -99999 -99999 -99999 -99999 -99999
-99999 -99999 -99999 -99999 -99999 -99999 -99999 -99999 -99999 -99999 -99999 -99999 -99999 -99999 -99999 -99999 -99999 -99999 -99999 -99999 -99999 -99999 -99999 -99999 -99999 -99999 -99999 -99999 -99999 -99999 -99999 -99999 100 321.498 275.771 1226.22 1749.51 1573.92 1623.54 1041.55 1304.44 1177.92 867.853 966.144 1359.14 1092.59 493.749 1451.99 1169.72 911.35 392.429 201.15 161.054 349.026 116.682 102.038 103.04 100 100 117.511 111.651 100 100 141.102 425.023 337.916 329.978 375.072 124.32 108.118 321.633 959.535 775.27 285.992 174.148 284.788 1262.37 1067.1 510.632 138.223 374.832 1181.99 1376.07 898.63 1762.32 1927.3 1449.49 319.426 100 100 103.04 100 100 100 100 100 100 100 100 100 100 100 100 100 100 -99999 -99999 -99999 -99999 -99999 -99999 -99999 -99999 -99999 -99999 -99999 -99999 -99999 -99999 -99999 -99999 -99999 -99999 -99999 -99999 -99999 -99999 -99999 -99999 -99999 -99999 -99999 -99999 -99999 -99999 -99999 -99999 -99999 -99999 -99999 -99999 -99999 -99999 -99999 -99999 -99999 -99999 -99999 -99999 -99999 -99999 -99999 -99999 -99999 -99999 -99999
-99999 -99999 -99999 -99999 -99999 -99999 -99999 -99999 -99999 -99999 -99999 -99999 -99999 -99999 -99999 -99999 -99999 -99999 -99999 -99999 -99999 -99999 -99999 -99999 -99999 -99999 -99999 -99999 -99999 -99999 -99999 -99999 -99999 -99999 1016.46 1424.76 1403.45 1590.35 1291.39 1015.6 1176 1587.02 1151.62 1148.85 974.776 1472.35 1025.44 1279.85 1023.31 950.338 723.7 438.941 1550.3 1066.06 324.099 101.002 100 100 106.72 100 103.04 100 100 100 193.553 188.351 380.84 465.731 100 101.002 709.21 937.341 756.696 823.642 1429.44 1124.08 1248.76 1504.45 858.67 100 115.208 878.644 1579.84 1379.85 1632.83 1392.55 318.905 304.098 332.106 138.666 100 103.84 103.04 100 100 100 100 100 100 100 -99999 -99999 -99999 -99999 -99999 -99999 -99999 -99999 -99999 -99999 -99999 -99999 -99999 -99999 -99999 -99999 -99999 -99999 -99999 -99999 -99999 -99999 -99999 -99999 -99999 -99999 -99999 -99999 -99999 -99999 -99999 -99999 -99999 -99999 -99999 -99999 -99999 -99999 -99999 -99999 -99999 -99999 -99999 -99999 -99999 -99999 -99999 -99999 -99999 -99999 -99999 -99999 -99999 -99999 -99999 -99999
-99999 -99999 -99999 -99999 -99999 -99999 -99999 -99999 -99999 -99999 -99999 -99999 -99999 -99999 -99999 -99999 -99999 -99999 -99999 -99999 -99999 -99999 -99999 -99999 -99999 -99999 -99999 -99999 -99999 -99999 -99999 -99999 -99999 -99999 -99999 -99999 520.643 1527.56 1591.41 899.188 843.041 1183.97 1551.54 1313.91 1489.44 1127.37 457.275 667.388 735.839 1037.4 795.095 1355.38 1292.43 1338.14 1598.16 1011.42 144.926 100 106.08 104.076 197.707 109.484 100 100 100 153.053 624.072 485.313 107.087 100 564.79 1233.64 547.423 771.749 1459.86 1098.59 1579.28 1496.55 748.204 100 100 719.075 1448.07 1715.6 1519.07 1459.18 1440.05 1481.96 1061.32 726.266 154.935 112.8 107.36 100 100 375.691 460.558 100 100 118.74 -99999 -99999 -99999 -99999 -99999 -99999 -99999 -99999 -99999 -99999 -99999 -99999 -99999 -99999 -99999 -99999 -99999 -99999 -99999 -99999 -99999 -99999 -99999 -99999 -99999 -99999 -99999 -99999 -99999 -99999 -99999 -99999 -99999 -99999 -99999 -99999 -99999 -99999 -99999 -99999 -99999 -99999 -99999 -99999 -99999 -99999 -99999 -99999 -99999 -99999 -99999 -99999 -99999 -99999 -99999 -99999
-99999 -99999 -99999 -99999 -99999 -99999 -99999 -99999 -99999 -99999 -99999 -99999 -99999 -99999 -99999 -99999 -99999 -99999 -99999 -99999 -99999 -99999 -99999 -99999 -99999 -99999 -99999 -99999 -99999 -99999 -99999 -99999 -99999 -99999 -99999 -99999 -99999 2000 1561.37 1533.94 1510.32 1441.46 1272.95 1460.61 1366.84 763.73 289.96 476.094 882.658 1165.83 690.65 199.303 1290.02 835.04 1608.86 1245.63 1098.81 269.153 106.08 243.284 293.566 120.48 100 100 100 828.805 1128.81 1037.73 1008.53 125.892 672.003 885.364 675.98 780.872 833.122 1412.5 1371.99 -99999 -99999 100 100 958.383 1221.27 1541.86 1246.46 846.638 1492.16 1290.9 1616.65 288.377 229.983 360.082 196.925 251.022 920.512 1243.83 1083.52 857.819 335.933 490.025 -99999 -99999 -99999 -99999 -99999 -99999 -99999 -99999 -99999 -99999 -99999 -99999 -99999 -99999 -99999 -99999 -99999 -99999 -99999 -99999 -99999 -99999 -99999 -99999 -99999 -99999 -99999 -99999 -99999 -99999 -99999 -99999 -99999 -99999 -99999 -99999 -99999 -99999 -99999 -99999 -99999 -99999 -99999 -99999 -99999 -99999 -99999 -99999 -99999 -99999 -99999 -99999 -99999 -99999 -99999 -99999
-99999 -99999 -99999 -99999 -99999 -99999 -99999 -99999 -99999 -99999 -99999 -99999 -99999 -99999 -99999 -99999 -99999 -99999 -99999 -99999 -99999 -99999 -99999 -99999 -99999 -99999 -99999 -99999 -99999 -99999 -99999 -99999 -99999 -99999 -99999 -99999 -99999 -99999 1500 1549.93 1438.44 1220.91 1380.08 1521.77 1602.1 1140.91 968.131 960.237 456.165 230.816 154.211 103.04 1125.64 896.06 1157.95 1130.39 1407.95 559.43 208.909 219.928 375.271 250.007 627.796 100 204.825 525.497 875.388 1110.88 952.746 2000 759.244 1088.8 1208.23 562.245 362.304 1305.17 1227.98 -99999 -99999 -99999 -99999 900 1232.35 1219.53 1242.21 1159.95 1158.37 1407.84 1414.12 1195.37 349.238 750.556 622.518 1166.14 1473.66 1378.14 1185.4 1624.15 1447.58 1525.75 -99999 -99999 -99999 -99999 -99999 -99999 -99999 -99999 -99999 -99999 -99999 -99999 -99999 -99999 -99999 -99999 -99999 -99999 -99999 -99999 -99999 -99999 -99999 -99999 -99999 -99999 -99999 -99999 -99999 -99999 -99999 -99999 -99999 -99999 -99999 -99999 -99999 -99999 -99999 -99999 -99999 -99999 -99999 -99999 -99999 -99999 -99999 -99999 -99999 -99999 -99999 -99999 -99999 -99999 -99999 -99999
-99999 -99999 -99999 -99999 -99999 -99999 -99999 -99999 -99999 -99999 -99999 -99999 -99999 -99999 -99999 -99999 -99999 -99999 -99999 -99999 -99999 -99999 -99999 -99999 -99999 -99999 -99999 -99999 -99999 -99999 -99999 -99999 -99999 -99999 -99999 -99999 -99999 -99999 -99999 -99999 1500.34 828.781 1664.72 1620.03 820.136 652.053 643.029 100 531.51 1187.03 154.005 109.129 108.403 513.989 1250.19 1129.29 1118.73 1009.87 1128.76 911.486 1019.76 924.348 1460.26 -99999 570.846 900 -99999 -99999 -99999 -99999 -99999 -99999 1877.09 994.802 756.329 1311.14 -99999 -99999 -99999 -99999 -99999 -99999 100 1081.52 1181.6 1283.78 1710.55 1684.55 1313.82 1182.05 741.724 1583.36 1260.57 1564.55 1357.48 1371.68 885.355 959.303 1262.37 1596.3 -99999 -99999 -99999 -99999 -99999 -99999 -99999 -99999 -99999 -99999 -99999 -99999 -99999 -99999 -99999 -99999 -99999 -99999 -99999 -99999 -99999 -99999 -99999 -99999 -99999 -99999 -99999 -99999 -99999 -99999 -99999 -99999 -99999 -99999 -99999 -99999 -99999 -99999 -99999 -99999 -99999 -99999 -99999 -99999 -99999 -99999 -99999 -99999 -99999 -99999 -99999 -99999 -99999 -99999 -99999 -99999
-99999 -99999 -99999 -99999 -99999 -99999 -99999 -99999 -99999 -99999 -99999 -99999 -99999 -99999 -99999 -99999 -99999 -99999 -99999 -99999 -99999 -99999 -99999 -99999 -99999 -99999 -99999 -99999 -99999 -99999 -99999 -99999 -99999 -99999 -99999 -99999 -99999 -99999 -99999 -99999 -99999 -99999 -99999 -99999 -99999 -99999 -99999 -99999 -99999 -99999 -99999 -99999 -99999 -99999 -99999 -99999 -99999 1878.88 1130.56 1177.78 943.416 784.531 -99999 -99999 -99999 -99999 -99999 -99999 -99999 -99999 -99999 -99999 -99999 -99999 1562.95 -99999 -99999 -99999 -99999 -99999 -99999 -99999 -99999 467.507 1103.66 1010.17 1372.78 1296.46 1727.34 1054.05 1123.65 937.61 1415.95 1750.7 1712.14 1139.48 653.855 932.12 854.896 -99999 -99999 -99999 -99999 -99999 -99999 -99999 -99999 -99999 -99999 -99999 -99999 -99999 -99999 -99999 -99999 -99999 -99999 -99999 -99999 -99999 -99999 -99999 -99999 -99999 -99999 -99999 -99999 -99999 -99999 -99999 -99999 -99999 -99999 -99999 -99999 -99999 -99999 -99999 -99999 -99999 -99999 -99999 -99999 -99999 -99999 -99999 -99999 -99999 -99999 -99999 -99999 -99999 -99999 -99999 -99999 -99999
-99999 -99999 -99999 -99999 -99999 -99999 -99999 -99999 -99999 -99999 -99999 -99999 -99999 -99999 -99999 -99999 -99999 -99999 -99999 -99999 -99999 -99999 -99999 -99999 -99999 -99999 -99999 -99999 -99999 -99999 -99999 -99999 -99999 -99999 -99999 -99999 -99999 -99999 -99999 -99999 -99999 -99999 -99999 -99999 -99999 -99999 -99999 -99999 -99999 -99999 -99999 -99999 -99999 -99999 -99999 -99999 -99999 -99999 -99999 1386.54 -99999 -99999 -99999 -99999 -99999 -99999 -99999 -99999 -99999 -99999 -99999 -99999 -99999 -99999 -99999 -99999 -99999 -99999 -99999 -99999 -99999 -99999 -99999 -99999 1387.91 1209.42 251.052 974.381 1493.29 1281.6 948.023 1014.31 1337.03 1674.98 1133.9 842.615 727.786 922.552 -99999 -99999 -99999 -99999 -99999 -99999 -99999 -99999 -99999 -99999 -99999 -99999 -99999 -99999 -99999 -99999 -99999 -99999 -99999 -99999 -99999 -99999 -99999 -99999 -99999 -99999 -99999 -99999 -99999 -99999 -99999 -99999 -99999 -99999 -99999 -99999 -99999 -99999 -99999 -99999 -99999 -99999 -99999 -99999 -99999 -99999 -99999 -99999 -99999 -99999 -99999 -99999 -99999 -99999 -99999 -99999 -99999 -99999
-99999 -99999 -99999 -99999 -99999 -99999 -99999 -99999 -99999 -99999 -99999 -99999 -99999 -99999 -99999 -99999 -99999 -99999 -99999 -99999 -99999 -99999 -99999 -99999 -99999 -99999 -99999 -99999 -99999 -99999 -99999 -99999 -99999 -99999 -99999 -99999 -99999 -99999 -99999 -99999 -99999 -99999 -99999 -99999 -99999 -99999 -99999 -99999 -99999 -99999 -99999 -99999 -99999 -99999 -99999 -99999 -99999 -99999 -99999 -99999 -99999 -99999 -99999 -99999 -99999 -99999 -99999 -99999 -99999 -99999 -99999 -99999 -99999 -99999 -99999 -99999 -99999 -99999 -99999 -99999 -99999 -99999 -99999 -99999 -99999 -99999 100 1048.71 1248.72 1626.2 1457.11 1128.69 1331.09 359.885 -99999 -99999 -99999 -99999 -99999 -99999 -99999 -99999 -99999 -99999 -99999 -99999 -99999 -99999 -99999 -99999 -99999 -99999 -99999 -99999 -99999 -99999 -99999 -99999 -99999 -99999 -99999 -99999 -99999 -99999 -99999 -99999 -99999 -99999 -99999 -99999 -99999 -99999 -99999 -99999 -99999 -99999 -99999 -99999 -99999 -99999 -99999 -99999 -99999 -99999 -99999 -99999 -99999 -99999 -99999 -99999 -99999 -99999 -99999 -99999 -99999 -99999
-99999 -99999 -99999 -99999 -99999 -99999 -99999 -99999 -99999 -99999 -99999 -99999 -99999 -99999 -99999 -99999 -99999 -99999 -99999 -99999 -99999 -99999 -99999 -99999 -99999 -99999 -99999 -99999 -99999 -99999 -99999 -99999 -99999 -99999 -99999 -99999 -99999 -99999 -99999 -99999 -99999 -99999 -99999 -99999 -99999 -99999 -99999 -99999 -99999 -99999 -99999 -99999 -99999 -99999 -99999 -99999 -99999 -99999 -99999 -99999 -99999 -99999 -99999 -99999 -99999 -99999 -99999 -99999 -99999 -99999 -99999 -99999 -99999 -99999 -99999 -99999 -99999 -99999 -99999 -99999 -99999 -99999 -99999 -99999 -99999 -99999 -99999 351.837 1393.77 1876.2 -99999 -99999 -99999 -99999 -99999 -99999 -99999 -99999 -99999 -99999 -99999 -99999 -99999 -99999 -99999 -99999 -99999 -99999 -99999 -99999 -99999 -99999 -99999 -99999 -99999 -99999 -99999 -99999 -99999 -99999 -99999 -99999 -99999 -99999 -99999 -99999 -99999 -99999 -99999 -99999 -99999 -99999 -99999 -99999 -99999 -99999 -99999 -99999 -99999 -99999 -99999 -99999 -99999 -99999 -99999 -99999 -99999 -99999 -99999 -99999 -99999 -99999 -99999 -99999 -99999 -99999
-99999 -99999 -99999 -99999 -99999 -99999 -99999 -99999 -99999 -99999 -99999 -99999 -99999 -99999 -99999 -99999 -99999 -99999 -99999 -99999 -99999 -99999 -99999 -99999 -99999 -99999 -99999 -99999 -99999 -99999 -99999 -99999 -99999 -99999 -99999 -99999 -99999 -99999 -99999 -99999 -99999 -99999 -99999 -99999 -99999 -99999 -99999 -99999 -99999 -99999 -99999 -99999 -99999 -99999 -99999 -99999 -99999 -99999 -99999 -99999 -99999 -99999 -99999 -99999 -99999 -99999 -99999 -99999 -99999 -99999 -99999 -99999 -99999 -99999 -99999 -99999 -99999 -99999 -99999 -99999 -99999 -99999 -99999 -99999 -99999 -99999 -99999 -99999 -99999 -99999 -99999 -99999 -99999 -99999 -99999 -99999 -99999 -99999 -99999 -99999 -99999 -99999 -99999 -99999 -99999 -99999 -99999 -99999 -99999 -99999 -99999 -99999 -99999 -99999 -99999 -99999 -99999 -99999 -99999 -99999 -99999 -99999 -99999 -99999 -99999 -99999 -99999 -99999 -99999 -99999 -99999 -99999 -99999 -99999 -99999 -99999 -99999 -99999 -99999 -99999 -99999 -99999 -99999 -99999 -99999 -99999 -99999 -99999 -99999 -99999 -99999 -99999 -99999 -99999 -99999 -99999
-99999 -99999 -99999 -99999 -99999 -99999 -99999 -99999 -99999 -99999 -99999 -99999 -99999 -99999 -99999 -99999 -99999 -99999 -99999 -99999 -99999 -99999 -99999 -99999 -99999 -99999 -99999 -99999 -99999 -99999 -99999 -99999 -99999 -99999 -99999 -99999 -99999 -99999 -99999 -99999 -99999 -99999 -99999 -99999 -99999 -99999 -99999 -99999 -99999 -99999 -99999 -99999 -99999 -99999 -99999 -99999 -99999 -99999 -99999 -99999 -99999 -99999 -99999 -99999 -99999 -99999 -99999 -99999 -99999 -99999 -99999 -99999 -99999 -99999 -99999 -99999 -99999 -99999 -99999 -99999 -99999 -99999 -99999 -99999 -99999 -99999 -99999 -99999 -99999 -99999 -99999 -99999 -99999 -99999 -99999 -99999 -99999 -99999 -99999 -99999 -99999 -99999 -99999 -99999 -99999 -99999 -99999 -99999 -99999 -99999 -99999 -99999 -99999 -99999 -99999 -99999 -99999 -99999 -99999 -99999 -99999 -99999 -99999 -99999 -99999 -99999 -99999 -99999 -99999 -99999 -99999 -99999 -99999 -99999 -99999 -99999 -99999 -99999 -99999 -99999 -99999 -99999 -99999 -99999 -99999 -99999 -99999 -99999 -99999 -99999 -99999 -99999 -99999 -99999 -99999 -99999
-99999 -99999 -99999 -99999 -99999 -99999 -99999 -99999 -99999 -99999 -99999 -99999 -99999 -99999 -99999 -99999 -99999 -99999 -99999 -99999 -99999 -99999 -99999 -99999 -99999 -99999 -99999 -99999 -99999 -99999 -99999 -99999 -99999 -99999 -99999 -99999 -99999 -99999 -99999 -99999 -99999 -99999 -99999 -99999 -99999 -99999 -99999 -99999 -99999 -99999 -99999 -99999 -99999 -99999 -99999 -99999 -99999 -99999 -99999 -99999 -99999 -99999 -99999 -99999 -99999 -99999 -99999 -99999 -99999 -99999 -99999 -99999 -99999 -99999 -99999 -99999 -99999 -99999 -99999 -99999 -99999 -99999 -99999 -99999 -99999 -99999 -99999 -99999 -99999 -99999 -99999 -99999 -99999 -99999 -99999 -99999 -99999 -99999 -99999 -99999 -99999 -99999 -99999 -99999 -99999 -99999 -99999 -99999 -99999 -99999 -99999 -99999 -99999 -99999 -99999 -99999 -99999 -99999 -99999 -99999 -99999 -99999 -99999 -99999 -99999 -99999 -99999 -99999 -99999 -99999 -99999 -99999 -99999 -99999 -99999 -99999 -99999 -99999 -99999 -99999 -99999 -99999 -99999 -99999 -99999 -99999 -99999 -99999 -99999 -99999 -99999 -99999 -99999 -99999 -99999 -99999
-99999 -99999 -99999 -99999 -99999 -99999 -99999 -99999 -99999 -99999 -99999 -99999 -99999 -99999 -99999 -99999 -99999 -99999 -99999 -99999 -99999 -99999 -99999 -99999 -99999 -99999 -99999 -99999 -99999 -99999 -99999 -99999 -99999 -99999 -99999 -99999 -99999 -99999 -99999 -99999 -99999 -99999 -99999 -99999 -99999 -99999 -99999 -99999 -99999 -99999 -99999 -99999 -99999 -99999 -99999 -99999 -99999 -99999 -99999 -99999 -99999 -99999 -99999 -99999 -99999 -99999 -99999 -99999 -99999 -99999 -99999 -99999 -99999 -99999 -99999 -99999 -99999 -99999 -99999 -99999 -99999 -99999 -99999 -99999 -99999 -99999 -99999 -99999 -99999 -99999 -99999 -99999 -99999 -99999 -99999 -99999 -99999 -99999 -99999 -99999 -99999 -99999 -99999 -99999 -99999 -99999 -99999 -99999 -99999 -99999 -99999 -99999 -99999 -99999 -99999 -99999 -99999 -99999 -99999 -99999 -99999 -99999 -99999 -99999 -99999 -99999 -99999 -99999 -99999 -99999 -99999 -99999 -99999 -99999 -99999 -99999 -99999 -99999 -99999 -99999 -99999 -99999 -99999 -99999 -99999 -99999 -99999 -99999 -99999 -99999 -99999 -99999 -99999 -99999 -99999 -99999
-99999 -99999 -99999 -99999 -99999 -99999 -99999 -99999 -99999 -99999 -99999 -99999 -99999 -99999 -99999 -99999 -99999 -99999 -99999 -99999 -99999 -99999 -99999 -99999 -99999 -99999 -99999 -99999 -99999 -99999 -99999 -99999 -99999 -99999 -99999 -99999 -99999 -99999 -99999 -99999 -99999 -99999 -99999 -99999 -99999 -99999 -99999 -99999 -99999 -99999 -99999 -99999 -99999 -99999 -99999 -99999 -99999 -99999 -99999 -99999 -99999 -99999 -99999 -99999 -99999 -99999 -99999 -99999 -99999 -99999 -99999 -99999 -99999 -99999 -99999 -99999 -99999 -99999 -99999 -99999 -99999 -99999 -99999 -99999 -99999 -99999 -99999 -99999 -99999 -99999 -99999 -99999 -99999 -99999 -99999 -99999 -99999 -99999 -99999 -99999 -99999 -99999 -99999 -99999 -99999 -99999 -99999 -99999 -99999 -99999 -99999 -99999 -99999 -99999 -99999 -99999 -99999 -99999 -99999 -99999 -99999 -99999 -99999 -99999 -99999 -99999 -99999 -99999 -99999 -99999 -99999 -99999 -99999 -99999 -99999 -99999 -99999 -99999 -99999 -99999 -99999 -99999 -99999 -99999 -99999 -99999 -99999 -99999 -99999 -99999 -99999 -99999 -99999 -99999 -99999 -99999
-99999 -99999 -99999 -99999 -99999 -99999 -99999 -99999 -99999 -99999 -99999 -99999 -99999 -99999 -99999 -99999 -99999 -99999 -99999 -99999 -99999 -99999 -99999 -99999 -99999 -99999 -99999 -99999 -99999 -99999 -99999 -99999 -99999 -99999 -99999 -99999 -99999 -99999 -99999 -99999 -99999 -99999 -99999 -99999 -99999 -99999 -99999 -99999 -99999 -99999 -99999 -99999 -99999 -99999 -99999 -99999 -99999 -99999 -99999 -99999 -99999 -99999 -99999 -99999 -99999 -99999 -99999 -99999 -99999 -99999 -99999 -99999 -99999 -99999 -99999 -99999 -99999 -99999 -99999 -99999 -99999 -99999 -99999 -99999 -99999 -99999 -99999 -99999 -99999 -99999 -99999 -99999 -99999 -99999 -99999 -99999 -99999 -99999 -99999 -99999 -99999 -99999 -99999 -99999 -99999 -99999 -99999 -99999 -99999 -99999 -99999 -99999 -99999 -99999 -99999 -99999 -99999 -99999 -99999 -99999 -99999 -99999 -99999 -99999 -99999 -99999 -99999 -99999 -99999 -99999 -99999 -99999 -99999 -99999 -99999 -99999 -99999 -99999 -99999 -99999 -99999 -99999 -99999 -99999 -99999 -99999 -99999 -99999 -99999 -99999 -99999 -99999 -99999 -99999 -99999 -99999
-99999 -99999 -99999 -99999 -99999 -99999 -99999 -99999 -99999 -99999 -99999 -99999 -99999 -99999 -99999 -99999 -99999 -99999 -99999 -99999 -99999 -99999 -99999 -99999 -99999 -99999 -99999 -99999 -99999 -99999 -99999 -99999 -99999 -99999 -99999 -99999 -99999 -99999 -99999 -99999 -99999 -99999 -99999 -99999 -99999 -99999 -99999 -99999 -99999 -99999 -99999 -99999 -99999 -99999 -99999 -99999 -99999 -99999 -99999 -99999 -99999 -99999 -99999 -99999 -99999 -99999 -99999 -99999 -99999 -99999 -99999 -99999 -99999 -99999 -99999 -99999 -99999 -99999 -99999 -99999 -99999 -99999 -99999 -99999 -99999 -99999 -99999 -99999 -99999 -99999 -99999 -99999 -99999 -99999 -99999 -99999 -99999 -99999 -99999 -99999 -99999 -99999 -99999 -99999 -99999 -99999 -99999 -99999 -99999 -99999 -99999 -99999 -99999 -99999 -99999 -99999 -99999 -99999 -99999 -99999 -99999 -99999 -99999 -99999 -99999 -99999 -99999 -99999 -99999 -99999 -99999 -99999 -99999 -99999 -99999 -99999 -99999 -99999 -99999 -99999 -99999 -99999 -99999 -99999 -99999 -99999 -99999 -99999 -99999 -99999 -99999 -99999 -99999 -99999 -99999 -99999
-99999 -99999 -99999 -99999 -99999 -99999 -99999 -99999 -99999 -99999 -99999 -99999 -99999 -99999 -99999 -99999 -99999 -99999 -99999 -99999 -99999 -99999 -99999 -99999 -99999 -99999 -99999 -99999 -99999 -99999 -99999 -99999 -99999 -99999 -99999 -99999 -99999 -99999 -99999 -99999 -99999 -99999 -99999 -99999 -99999 -99999 -99999 -99999 -99999 -99999 -99999 -99999 -99999 -99999 -99999 -99999 -99999 -99999 -99999 -99999 -99999 -99999 -99999 -99999 -99999 -99999 -99999 -99999 -99999 -99999 -99999 -99999 -99999 -99999 -99999 -99999 -99999 -99999 -99999 -99999 -99999 -99999 -99999 -99999 -99999 -99999 -99999 -99999 -99999 -99999 -99999 -99999 -99999 -99999 -99999 -99999 -99999 -99999 -99999 -99999 -99999 -99999 -99999 -99999 -99999 -99999 -99999 -99999 -99999 -99999 -99999 -99999 -99999 -99999 -99999 -99999 -99999 -99999 -99999 -99999 -99999 -99999 -99999 -99999 -99999 -99999 -99999 -99999 -99999 -99999 -99999 -99999 -99999 -99999 -99999 -99999 -99999 -99999 -99999 -99999 -99999 -99999 -99999 -99999 -99999 -99999 -99999 -99999 -99999 -99999 -99999 -99999 -99999 -99999 -99999 -99999
-99999 -99999 -99999 -99999 -99999 -99999 -99999 -99999 -99999 -99999 -99999 -99999 -99999 -99999 -99999 -99999 -99999 -99999 -99999 -99999 -99999 -99999 -99999 -99999 -99999 -99999 -99999 -99999 -99999 -99999 -99999 -99999 -99999 -99999 -99999 -99999 -99999 -99999 -99999 -99999 -99999 -99999 -99999 -99999 -99999 -99999 -99999 -99999 -99999 -99999 -99999 -99999 -99999 -99999 -99999 -99999 -99999 -99999 -99999 -99999 -99999 -99999 -99999 -99999 -99999 -99999 -99999 -99999 -99999 -99999 -99999 -99999 -99999 -99999 -99999 -99999 -99999 -99999 -99999 -99999 -99999 -99999 -99999 -99999 -99999 -99999 -99999 -99999 -99999 -99999 -99999 -99999 -99999 -99999 -99999 -99999 -99999 -99999 -99999 -99999 -99999 -99999 -99999 -99999 -99999 -99999 -99999 -99999 -99999 -99999 -99999 -99999 -99999 -99999 -99999 -99999 -99999 -99999 -99999 -99999 -99999 -99999 -99999 -99999 -99999 -99999 -99999 -99999 -99999 -99999 -99999 -99999 -99999 -99999 -99999 -99999 -99999 -99999 -99999 -99999 -99999 -99999 -99999 -99999 -99999 -99999 -99999 -99999 -99999 -99999 -99999 -99999 -99999 -99999 -99999 -99999
-99999 -99999 -99999 -99999 -99999 -99999 -99999 -99999 -99999 -99999 -99999 -99999 -99999 -99999 -99999 -99999 -99999 -99999 -99999 -99999 -99999 -99999 -99999 -99999 -99999 -99999 -99999 -99999 -99999 -99999 -99999 -99999 -99999 -99999 -99999 -99999 -99999 -99999 -99999 -99999 -99999 -99999 -99999 -99999 -99999 -99999 -99999 -99999 -99999 -99999 -99999 -99999 -99999 -99999 -99999 -99999 -99999 -99999 -99999 -99999 -99999 -99999 -99999 -99999 -99999 -99999 -99999 -99999 -99999 -99999 -99999 -99999 -99999 -99999 -99999 -99999 -99999 -99999 -99999 -99999 -99999 -99999 -99999 -99999 -99999 -99999 -99999 -99999 -99999 -99999 -99999 -99999 -99999 -99999 -99999 -99999 -99999 -99999 -99999 -99999 -99999 -99999 -99999 -99999 -99999 -99999 -99999 -99999 -99999 -99999 -99999 -99999 -99999 -99999 -99999 -99999 -99999 -99999 -99999 -99999 -99999 -99999 -99999 -99999 -99999 -99999 -99999 -99999 -99999 -99999 -99999 -99999 -99999 -99999 -99999 -99999 -99999 -99999 -99999 -99999 -99999 -99999 -99999 -99999 -99999 -99999 -99999 -99999 -99999 -99999 -99999 -99999 -99999 -99999 -99999 -99999
